;-- START GCODE --
;Sliced for Type A Machines Series 1
;Sliced at: Sat 19-09-2015 19:49:14
;Basic settings: Layer height: 0.15 Walls: 1.2 Fill: 50
;Print Speed: 55 Support: 0
;Retraction Speed: 40 Retraction Distance: 0.5
;Print time: 13 minutes
;Filament used: 0.711m 2.0g
;Filament cost: None
G21        ;metric values
G90        ;absolute positioning
G28     ;move to endstops
G29		;allows for auto-levelling
G1 X150 Y5  Z15.0 F12000 ;center and move the platform down 15mm
M109 S245 ;Heat To temp
G1 X150 Y5 Z0.3 ;move the platform to purge extrusion
G92 E0 ;zero the extruded length
G1 F200 X250 E30 ;extrude 30mm of feed stock
G92 E0 ;zero the extruded length again
G1 X150 Y150  Z25 F12000 ;recenter and begin
G1 F12000

;Layer count: 38
;LAYER:0
M107
G0 F12000 X124.33 Y148.78 Z0.20
;TYPE:SKIRT
G1 F900 X127.70 Y148.07 E0.11446
G1 X129.24 Y147.74 E0.16696
G1 X129.75 Y147.63 E0.18424
G1 X130.90 Y147.39 E0.22327
G1 X131.80 Y147.20 E0.25408
G1 X131.81 Y147.19 E0.25421
G1 X131.85 Y146.97 E0.26190
G1 X131.88 Y146.82 E0.26684
G1 X131.93 Y146.68 E0.27191
G1 X131.97 Y146.52 E0.27731
G1 X132.06 Y146.29 E0.28553
G1 X132.13 Y146.10 E0.29230
G1 X132.38 Y145.60 E0.31074
G1 X132.51 Y145.42 E0.31806
G1 X132.55 Y145.36 E0.32056
G1 X132.65 Y145.22 E0.32636
G1 X132.77 Y145.06 E0.33289
G1 X132.86 Y144.95 E0.33775
G1 X133.13 Y144.64 E0.35128
G1 X134.00 Y143.94 E0.38850
G1 X134.78 Y143.57 E0.41730
G1 X135.39 Y143.39 E0.43819
G1 X135.91 Y143.28 E0.45584
G1 X136.36 Y143.19 E0.47123
G1 X136.62 Y143.14 E0.47990
G1 X136.82 Y143.12 E0.48672
G1 X137.21 Y143.09 E0.49983
G1 X138.32 Y143.22 E0.53697
G1 X139.52 Y143.82 E0.58167
G1 X140.36 Y144.65 E0.62088
G1 X140.46 Y144.82 E0.62763
G1 X141.12 Y144.68 E0.65018
G1 X141.85 Y144.53 E0.67497
G1 X141.89 Y144.33 E0.68163
G1 X142.01 Y143.90 E0.69646
G1 X142.18 Y143.53 E0.71006
G1 X142.41 Y143.09 E0.72665
G1 X142.92 Y142.44 E0.75403
G1 X143.38 Y142.06 E0.77383
G1 X143.80 Y141.78 E0.79060
G1 X144.53 Y141.46 E0.81729
G1 X144.90 Y141.38 E0.82969
G1 X145.35 Y141.28 E0.84501
G1 X145.37 Y141.27 E0.84582
G1 X145.78 Y141.19 E0.85963
G1 X145.84 Y141.17 E0.86190
G1 X146.00 Y141.14 E0.86715
G1 X146.15 Y141.12 E0.87205
G1 X146.41 Y141.09 E0.88102
G1 X146.57 Y141.09 E0.88631
G1 X146.72 Y141.08 E0.89104
G1 X146.78 Y141.08 E0.89307
G1 X146.90 Y141.07 E0.89727
G1 X147.16 Y141.10 E0.90606
G1 X147.25 Y141.11 E0.90886
G1 X147.40 Y141.12 E0.91388
G1 X147.54 Y141.15 E0.91875
G1 X147.70 Y141.17 E0.92393
G1 X147.87 Y141.21 E0.92970
G1 X148.29 Y141.32 E0.94436
G1 X148.39 Y141.37 E0.94801
G1 X148.65 Y141.45 E0.95699
G1 X149.64 Y142.02 E0.99489
G1 X150.26 Y142.62 E1.02364
G1 X150.54 Y142.95 E1.03804
G1 X150.69 Y143.19 E1.04737
G1 X150.88 Y143.15 E1.05410
G1 X155.48 Y142.17 E1.21030
G1 X156.96 Y141.86 E1.26086
G1 X158.01 Y141.63 E1.29652
G1 X158.90 Y141.45 E1.32655
G1 X158.90 Y141.45 E1.32658
G1 X159.58 Y141.30 E1.34978
G1 X160.26 Y141.16 E1.37297
G1 X161.36 Y140.92 E1.41047
G1 X162.16 Y140.75 E1.43764
G1 X162.16 Y140.75 E1.43767
G1 X167.65 Y139.59 E1.62428
G1 X167.68 Y140.09 E1.64086
G1 X171.67 Y139.24 E1.77676
G1 X172.34 Y139.08 E1.79965
G1 X172.95 Y138.98 E1.82027
G1 X173.65 Y138.95 E1.84335
G1 X174.56 Y139.01 E1.87366
G1 X175.62 Y139.27 E1.91017
G1 X176.57 Y139.69 E1.94468
G1 X177.39 Y140.21 E1.97701
G1 X178.22 Y140.96 E2.01396
G1 X178.92 Y141.87 E2.05233
G1 X179.38 Y142.77 E2.08583
G1 X179.61 Y143.42 E2.10891
G1 X179.80 Y144.22 E2.13630
G1 X179.87 Y145.07 E2.16454
G1 X179.85 Y145.53 E2.17979
G1 X179.87 Y147.94 E2.25998
G1 X180.46 Y147.67 E2.28150
G1 X180.49 Y153.32 E2.46959
G1 X180.49 Y153.95 E2.49041
G1 X180.50 Y154.65 E2.51376
G1 X180.53 Y158.93 E2.65585
G1 X180.53 Y159.98 E2.69080
G1 X180.53 Y160.61 E2.71176
G1 X180.54 Y161.31 E2.73504
G1 X180.55 Y162.56 E2.77662
G1 X180.58 Y166.46 E2.90657
G1 X176.64 Y166.49 E3.03772
G1 X175.50 Y166.50 E3.07550
G1 X172.20 Y166.52 E3.18526
G1 X172.15 Y163.18 E3.29640
G1 X172.15 Y163.01 E3.30199
G1 X172.15 Y162.77 E3.31007
G1 X172.15 Y162.71 E3.31207
G1 X172.15 Y162.51 E3.31885
G1 X172.15 Y162.43 E3.32141
G1 X172.15 Y162.24 E3.32790
G1 X172.15 Y162.18 E3.32969
G1 X172.14 Y161.98 E3.33635
G1 X172.14 Y161.90 E3.33914
G1 X172.14 Y161.40 E3.35557
G1 X172.14 Y160.87 E3.37323
G1 X172.13 Y160.32 E3.39173
G1 X172.13 Y160.27 E3.39342
G1 X172.13 Y160.06 E3.40011
G1 X172.13 Y160.00 E3.40210
G1 X172.13 Y159.80 E3.40889
G1 X172.13 Y159.72 E3.41142
G1 X172.13 Y159.53 E3.41794
G1 X172.13 Y159.48 E3.41970
G1 X172.13 Y159.27 E3.42645
G1 X172.13 Y159.19 E3.42905
G1 X172.12 Y158.71 E3.44508
G1 X172.11 Y158.32 E3.45819
G1 X172.09 Y158.17 E3.46326
G1 X172.07 Y158.13 E3.46464
G1 X172.04 Y158.05 E3.46766
G1 X171.95 Y157.91 E3.47288
G1 X171.82 Y157.75 E3.47981
G1 X171.65 Y157.58 E3.48786
G1 X171.39 Y157.35 E3.49936
G1 X171.16 Y157.18 E3.50878
G1 X170.82 Y156.97 E3.52224
G1 X170.38 Y156.74 E3.53859
G1 X169.96 Y156.56 E3.55385
G1 X169.49 Y156.40 E3.57041
G1 X169.19 Y156.33 E3.58053
G1 X168.84 Y156.26 E3.59251
G1 X168.54 Y156.23 E3.60244
G1 X168.30 Y156.22 E3.61069
G1 X168.06 Y156.24 E3.61842
G1 X167.96 Y156.25 E3.62202
G1 X167.82 Y156.28 E3.62655
G1 X167.80 Y156.29 E3.62745
G1 X166.84 Y157.24 E3.67227
G1 X165.89 Y158.19 E3.71689
G1 X164.85 Y159.21 E3.76539
G1 X161.43 Y162.60 E3.92545
G1 X160.94 Y163.09 E3.94860
G1 X159.63 Y164.38 E4.00968
G1 X159.63 Y164.38 E4.00972
G1 X158.64 Y165.36 E4.05610
G1 X157.37 Y166.61 E4.11537
G1 X153.46 Y166.63 E4.24558
G1 X151.06 Y166.65 E4.32541
G1 X149.40 Y162.68 E4.46867
G1 X153.08 Y159.04 E4.64080
G1 X153.59 Y158.54 E4.66439
G1 X154.18 Y157.95 E4.69215
G1 X155.22 Y156.93 E4.74062
G1 X156.25 Y155.90 E4.78904
G1 X156.83 Y155.33 E4.81597
G1 X158.75 Y153.43 E4.90600
G1 X158.55 Y153.51 E4.91329
G1 X156.83 Y154.18 E4.97467
G1 X155.55 Y154.69 E5.02056
G1 X152.75 Y155.79 E5.12058
G1 X151.18 Y156.40 E5.17645
G1 X146.80 Y158.12 E5.33314
G1 X146.80 Y158.12 E5.33318
G1 X145.26 Y158.72 E5.38815
G1 X143.82 Y159.29 E5.43947
G1 X142.39 Y159.85 E5.49073
G1 X134.68 Y162.88 E5.76617
G1 X133.46 Y163.36 E5.80989
G1 X129.49 Y164.91 E5.95168
G1 X129.49 Y164.91 E5.95171
G1 X124.45 Y166.89 E6.13160
G1 X124.42 Y160.27 E6.35202
G1 X124.39 Y157.89 E6.43105
G1 X127.36 Y156.73 E6.53719
G1 X124.39 Y157.35 E6.63810
G1 X124.36 Y151.56 E6.83078
G1 X124.33 Y148.78 E6.92328
G1 F2400 E6.42328
G0 F12000 X134.72 Y150.87
;TYPE:WALL-INNER
G1 F2400 E6.92328
G1 F900 X135.34 Y150.74 E6.94436
G1 X135.45 Y150.72 E6.94796
G1 X134.72 Y150.87 E6.97265
G1 F2400 E6.47265
G0 F12000 X136.78 Y150.15
G1 F2400 E6.97265
G1 F900 X137.05 Y150.10 E6.98204
G1 X137.35 Y149.95 E6.99312
G1 X137.59 Y149.75 E7.00342
G1 X137.60 Y149.72 E7.00439
G1 X138.40 Y149.55 E7.03157
G1 X139.28 Y149.37 E7.06132
G1 X140.80 Y149.04 E7.11294
G1 X141.31 Y148.94 E7.13044
G1 X142.00 Y148.79 E7.15374
G1 X142.91 Y148.60 E7.18495
G1 X143.88 Y148.39 E7.21797
G1 X144.39 Y148.28 E7.23501
G1 X144.89 Y148.18 E7.25227
G1 X145.59 Y148.03 E7.27587
G1 X146.38 Y147.86 E7.30297
G1 X146.59 Y147.94 E7.31030
G1 X146.92 Y147.98 E7.32148
G1 X147.19 Y147.95 E7.33029
G1 X147.32 Y147.91 E7.33517
G1 X147.30 Y148.20 E7.34505
G1 X136.92 Y150.40 E7.69795
G1 X136.78 Y150.15 E7.70765
G1 F2400 E7.20765
G0 F12000 X139.28 Y156.56
G1 F2400 E7.70765
G1 F900 X142.29 Y155.38 E7.81504
G1 X142.61 Y155.25 E7.82644
G1 X139.28 Y156.56 E7.94523
G1 F2400 E7.44523
G0 F12000 X145.99 Y153.93
G1 F2400 E7.94523
G1 F900 X146.73 Y153.64 E7.97150
G1 X148.36 Y153.00 E8.02994
G1 X145.99 Y153.93 E8.11465
G1 F2400 E7.61465
G0 F12000 X150.62 Y147.50
G1 F2400 E8.11465
G1 F900 X154.64 Y146.64 E8.25119
G1 X154.72 Y146.63 E8.25391
G1 X150.62 Y147.50 E8.39318
G1 F2400 E7.89318
G0 F12000 X159.14 Y148.77
G1 F2400 E8.39318
G1 F900 X161.03 Y148.02 E8.46089
G1 X162.53 Y147.44 E8.51433
G1 X161.83 Y145.12 E8.59488
G1 X163.70 Y144.72 E8.65845
G1 X163.73 Y145.22 E8.67494
G1 X172.61 Y143.33 E8.97682
G1 X173.16 Y143.20 E8.99558
G1 X173.40 Y143.16 E9.00367
G1 X173.61 Y143.16 E9.01069
G1 X173.90 Y143.18 E9.02056
G1 X174.27 Y143.27 E9.03323
G1 X174.58 Y143.40 E9.04444
G1 X174.84 Y143.57 E9.05457
G1 X175.11 Y143.81 E9.06682
G1 X175.35 Y144.13 E9.08016
G1 X175.52 Y144.44 E9.09184
G1 X175.57 Y144.60 E9.09728
G1 X175.64 Y144.89 E9.10714
G1 X175.66 Y145.18 E9.11689
G1 X175.65 Y145.47 E9.12645
G1 X175.71 Y154.47 E9.42599
G1 X176.29 Y154.20 E9.44741
G1 X176.31 Y156.99 E9.54014
G1 X176.32 Y158.80 E9.60031
G1 X176.29 Y157.96 E9.62820
G1 X176.21 Y157.31 E9.64996
G1 X176.04 Y156.71 E9.67077
G1 X175.98 Y156.56 E9.67617
G1 X175.71 Y156.00 E9.69677
G1 X175.37 Y155.46 E9.71823
G1 X174.97 Y154.97 E9.73925
G1 X174.54 Y154.52 E9.75986
G1 X174.02 Y154.07 E9.78268
G1 X173.53 Y153.71 E9.80275
G1 X172.91 Y153.32 E9.82712
G1 X172.19 Y152.95 E9.85411
G1 X171.45 Y152.63 E9.88099
G1 X170.68 Y152.37 E9.90789
G1 X170.10 Y152.22 E9.92779
G1 X169.43 Y152.10 E9.95049
G1 X168.84 Y152.04 E9.97019
G1 X168.24 Y152.02 E9.99022
G1 X167.63 Y152.05 E10.01058
G1 X167.14 Y152.13 E10.02718
G1 X166.51 Y152.29 E10.04882
G1 X165.91 Y152.53 E10.07008
G1 X165.40 Y152.83 E10.09001
G1 X165.17 Y152.99 E10.09942
G1 X165.77 Y152.40 E10.12743
G1 X164.82 Y151.28 E10.17623
G1 X164.23 Y150.49 E10.20898
G1 X163.92 Y150.04 E10.22716
G1 X163.41 Y149.19 E10.26021
G1 X162.53 Y147.44 E10.32545
G1 X159.14 Y148.77 E10.44660
G1 F2400 E9.94660
G0 F12000 X159.25 Y145.67
G1 F2400 E10.44660
G1 F900 X160.45 Y145.41 E10.48741
G1 X161.01 Y145.29 E10.50651
G1 X160.36 Y145.43 E10.52875
G1 X159.73 Y145.56 E10.54997
G1 X159.25 Y145.67 E10.56643
G1 F2400 E10.06643
G0 F12000 X169.70 Y146.85
G1 F2400 E10.56643
G1 F900 X169.69 Y147.22 E10.57848
G1 X169.78 Y147.76 E10.59685
G1 X170.09 Y148.33 E10.61818
G1 X170.41 Y148.67 E10.63392
G1 X170.88 Y148.97 E10.65264
G1 X171.28 Y149.10 E10.66630
G1 X171.57 Y149.15 E10.67633
G1 X171.82 Y149.15 E10.68458
G1 X172.28 Y149.09 E10.70001
G1 X172.77 Y148.88 E10.71771
G1 X173.12 Y148.62 E10.73217
G1 X173.42 Y148.29 E10.74704
G1 X173.61 Y147.96 E10.75969
G1 X173.74 Y147.56 E10.77369
G1 X173.79 Y147.27 E10.78348
G1 X173.79 Y147.00 E10.79246
G1 X173.68 Y146.39 E10.81302
G1 X173.42 Y145.91 E10.83120
G1 X172.99 Y145.46 E10.85188
G1 X172.59 Y145.23 E10.86725
G1 X172.07 Y145.07 E10.88532
G1 X171.72 Y145.05 E10.89691
G1 X171.59 Y145.06 E10.90114
G1 X171.20 Y145.12 E10.91436
G1 X170.76 Y145.30 E10.93038
G1 X170.49 Y145.48 E10.94120
G1 X170.19 Y145.74 E10.95425
G1 X169.88 Y146.23 E10.97363
G1 X169.75 Y146.59 E10.98633
G1 X169.70 Y146.85 E10.99529
G1 F2400 E10.49529
G0 F12000 X176.33 Y159.24
G1 F2400 E10.99529
G1 F900 X176.33 Y159.35 E10.99915
G1 X176.33 Y159.29 E11.00131
G1 X176.33 Y159.24 E11.00301
G0 F12000 X176.33 Y159.52
G1 F900 X176.33 Y159.90 E11.01571
G1 X176.33 Y159.81 E11.01864
G1 X176.33 Y159.73 E11.02133
G1 X176.33 Y159.52 E11.02842
G1 F2400 E10.52842
G0 F12000 X164.98 Y153.18
G1 F2400 E11.02842
G1 F900 X155.68 Y162.37 E11.46331
G1 X155.63 Y162.42 E11.46559
G1 X163.91 Y154.23 E11.85283
G1 X164.49 Y153.67 E11.87971
G1 X164.98 Y153.18 E11.90276
G0 F12000 X165.42 Y153.30
G1 F900 X155.80 Y162.82 E12.35300
G1 X154.66 Y162.83 E12.39105
G1 X164.20 Y153.38 E12.83777
G1 X165.22 Y152.38 E12.88535
G1 X164.52 Y151.54 E12.92189
G1 X164.20 Y151.13 E12.93883
G1 X163.89 Y150.71 E12.95633
G1 X163.59 Y150.26 E12.97423
G1 X163.32 Y149.83 E12.99117
G1 X163.05 Y149.37 E13.00905
G1 X162.33 Y147.94 E13.06210
G1 X128.22 Y161.33 E14.28086
G1 X128.22 Y160.47 E14.30937
G1 X162.04 Y147.20 E15.51789
G1 X161.56 Y145.58 E15.57395
G1 X128.17 Y152.67 E16.70914
G1 X128.16 Y151.85 E16.73628
G1 X135.26 Y150.35 E16.97756
G1 X136.30 Y150.13 E17.01292
G1 X135.83 Y149.31 E17.04439
G1 X135.76 Y149.14 E17.05041
G1 X135.67 Y148.69 E17.06593
G1 X135.56 Y148.11 E17.08545
G1 X135.54 Y147.95 E17.09086
G1 X135.59 Y147.71 E17.09897
G1 X135.68 Y147.51 E17.10626
G1 X135.76 Y147.40 E17.11073
G1 X135.83 Y147.35 E17.11369
G1 X135.78 Y147.40 E17.11612
G1 X135.67 Y147.58 E17.12307
G1 X135.60 Y147.80 E17.13078
G1 X135.60 Y148.02 E17.13829
G1 X135.68 Y148.29 E17.14768
G1 X135.76 Y148.43 E17.15301
G1 X135.88 Y148.55 E17.15854
G1 X135.84 Y148.63 E17.16130
G1 X135.79 Y148.89 E17.17022
G1 X135.80 Y149.02 E17.17462
G1 X135.84 Y149.20 E17.18071
G1 X135.92 Y149.36 E17.18666
G1 X136.06 Y149.53 E17.19397
G1 X136.26 Y149.67 E17.20223
G1 X136.49 Y149.74 E17.21002
G1 X136.71 Y149.76 E17.21745
G1 X136.93 Y149.71 E17.22477
G1 X137.13 Y149.61 E17.23235
G1 X137.29 Y149.47 E17.23951
G1 X137.38 Y149.36 E17.24407
G1 X140.72 Y148.65 E17.35764
G1 X141.23 Y148.54 E17.37508
G1 X141.91 Y148.40 E17.39834
G1 X142.83 Y148.21 E17.42958
G1 X144.31 Y147.89 E17.47974
G1 X144.81 Y147.78 E17.49690
G1 X145.50 Y147.64 E17.52047
G1 X146.44 Y147.44 E17.55246
G1 X146.49 Y147.47 E17.55423
G1 X146.69 Y147.55 E17.56153
G1 X146.92 Y147.58 E17.56916
G1 X147.10 Y147.56 E17.57519
G1 X147.32 Y147.49 E17.58276
G1 X147.60 Y147.25 E17.59514
G1 X147.72 Y147.03 E17.60356
G1 X147.77 Y146.88 E17.60878
G1 X147.79 Y146.72 E17.61408
G1 X147.73 Y146.38 E17.62567
G1 X147.57 Y146.15 E17.63477
G1 X147.50 Y146.09 E17.63769
G1 X147.54 Y146.01 E17.64060
G1 X147.58 Y145.87 E17.64563
G1 X147.59 Y145.73 E17.65017
G1 X147.55 Y145.46 E17.65931
G1 X147.43 Y145.23 E17.66794
G1 X147.28 Y145.08 E17.67493
G1 X147.12 Y144.98 E17.68121
G1 X146.94 Y144.91 E17.68767
G1 X146.71 Y144.89 E17.69550
G1 X146.55 Y144.91 E17.70060
G1 X146.75 Y144.88 E17.70717
G1 X146.91 Y144.89 E17.71253
G1 X147.09 Y144.94 E17.71860
G1 X147.34 Y145.08 E17.72823
G1 X147.46 Y145.20 E17.73389
G1 X147.56 Y145.36 E17.74011
G1 X147.63 Y145.58 E17.74777
G1 X147.81 Y146.47 E17.77807
G1 X147.83 Y146.65 E17.78400
G1 X147.74 Y147.70 E17.81908
G1 X164.08 Y144.23 E18.37452
G1 X164.10 Y144.73 E18.39104
G1 X172.52 Y142.94 E18.67717
G1 X173.08 Y142.81 E18.69645
G1 X173.36 Y142.77 E18.70565
G1 X173.61 Y142.75 E18.71397
G1 X173.96 Y142.78 E18.72581
G1 X174.40 Y142.89 E18.74085
G1 X174.78 Y143.05 E18.75445
G1 X175.08 Y143.25 E18.76646
G1 X175.41 Y143.54 E18.78118
G1 X175.69 Y143.91 E18.79677
G1 X175.88 Y144.28 E18.81059
G1 X175.96 Y144.49 E18.81797
G1 X176.03 Y144.82 E18.82909
G1 X176.06 Y145.17 E18.84071
G1 X176.05 Y145.47 E18.85086
G1 X176.10 Y153.85 E19.12952
G1 X176.69 Y153.58 E19.15097
G1 X176.75 Y162.59 E19.45055
G1 X176.75 Y162.69 E19.45394
G1 X175.95 Y162.69 E19.48052
G1 X175.95 Y162.52 E19.48644
G1 X175.95 Y162.44 E19.48900
G1 X175.94 Y162.25 E19.49522
G1 X175.95 Y162.17 E19.49781
G1 X175.94 Y161.99 E19.50397
G1 X175.94 Y161.91 E19.50650
G1 X175.94 Y161.38 E19.52429
G1 X175.94 Y160.85 E19.54182
G1 X175.93 Y160.34 E19.55891
G1 X175.93 Y160.26 E19.56151
G1 X175.93 Y160.07 E19.56770
G1 X175.93 Y160.00 E19.57029
G1 X175.93 Y159.81 E19.57648
G1 X175.93 Y159.73 E19.57901
G1 X175.93 Y159.54 E19.58526
G1 X175.93 Y159.47 E19.58782
G1 X175.93 Y159.28 E19.59404
G1 X175.93 Y159.21 E19.59657
G1 X175.92 Y158.63 E19.61583
G1 X175.90 Y158.00 E19.63683
G1 X175.82 Y157.39 E19.65699
G1 X175.66 Y156.84 E19.67630
G1 X175.61 Y156.72 E19.68060
G1 X175.36 Y156.19 E19.69977
G1 X175.04 Y155.69 E19.71968
G1 X174.67 Y155.23 E19.73936
G1 X174.26 Y154.81 E19.75879
G1 X173.77 Y154.38 E19.78053
G1 X173.31 Y154.04 E19.79958
G1 X172.71 Y153.67 E19.82294
G1 X172.02 Y153.31 E19.84887
G1 X171.31 Y153.00 E19.87469
G1 X170.57 Y152.76 E19.90054
G1 X170.02 Y152.62 E19.91952
G1 X169.38 Y152.50 E19.94124
G1 X168.81 Y152.44 E19.95997
G1 X168.25 Y152.42 E19.97891
G1 X167.67 Y152.45 E19.99807
G1 X167.22 Y152.52 E20.01339
G1 X166.63 Y152.67 E20.03344
G1 X166.09 Y152.89 E20.05289
G1 X165.61 Y153.16 E20.07117
G1 X165.42 Y153.30 E20.07896
G1 F2400 E19.57896
G0 F12000 X170.66 Y148.36
G1 F2400 E20.07896
G1 F900 X171.06 Y148.61 E20.09437
G1 X171.37 Y148.71 E20.10525
G1 X171.61 Y148.75 E20.11340
G1 X171.80 Y148.75 E20.11965
G1 X172.17 Y148.70 E20.13226
G1 X172.57 Y148.53 E20.14664
G1 X172.85 Y148.33 E20.15810
G1 X173.09 Y148.05 E20.17024
G1 X173.24 Y147.79 E20.18024
G1 X173.35 Y147.47 E20.19173
G1 X173.39 Y147.23 E20.19954
G1 X173.39 Y147.03 E20.20623
G1 X173.29 Y146.53 E20.22337
G1 X173.09 Y146.15 E20.23764
G1 X172.74 Y145.78 E20.25462
G1 X172.43 Y145.60 E20.26663
G1 X172.00 Y145.47 E20.28154
G1 X171.72 Y145.45 E20.29087
G1 X171.63 Y145.46 E20.29366
G1 X171.31 Y145.50 E20.30463
G1 X170.94 Y145.65 E20.31774
G1 X170.73 Y145.79 E20.32624
G1 X170.50 Y146.00 E20.33657
G1 X170.24 Y146.41 E20.35263
G1 X170.14 Y146.69 E20.36269
G1 X170.10 Y146.90 E20.36969
G1 X170.09 Y147.19 E20.37931
G1 X170.17 Y147.63 E20.39413
G1 X170.41 Y148.09 E20.41164
G1 X170.66 Y148.36 E20.42387
G1 F2400 E19.92387
G0 F12000 X146.54 Y144.91
G1 F2400 E20.42387
G1 F900 X146.30 Y145.00 E20.43254
G1 X146.04 Y145.21 E20.44364
G1 X146.00 Y145.28 E20.44634
G1 X145.74 Y145.34 E20.45552
G1 X145.64 Y145.32 E20.45860
G1 X145.62 Y145.31 E20.45937
G1 X145.60 Y145.27 E20.46076
G1 X145.59 Y145.24 E20.46194
G1 X145.59 Y145.23 E20.46227
G1 X145.59 Y145.19 E20.46353
G1 X145.65 Y145.12 E20.46647
G1 X145.75 Y145.08 E20.47004
G1 X146.54 Y144.91 E20.49721
G1 F2400 E19.99721
G0 F12000 X137.31 Y146.99
G1 F2400 E20.49721
G1 F900 X137.31 Y147.02 E20.49821
G1 X137.28 Y147.09 E20.50086
G1 X137.22 Y147.13 E20.50327
G1 X136.93 Y147.20 E20.51318
G1 X136.80 Y147.13 E20.51792
G1 X136.68 Y147.09 E20.52236
G1 X136.49 Y147.06 E20.52851
G1 X136.29 Y147.09 E20.53523
G1 X137.09 Y146.92 E20.56244
G1 X137.15 Y146.91 E20.56441
G1 X137.22 Y146.91 E20.56655
G1 X137.29 Y146.95 E20.56932
G1 X137.31 Y146.99 E20.57076
G0 F12000 X137.69 Y146.85
;TYPE:WALL-OUTER
G1 F900 X137.71 Y146.96 E20.57462
G1 X137.71 Y147.00 E20.57582
G1 X137.70 Y147.12 E20.58014
G1 X137.63 Y147.29 E20.58613
G1 X137.56 Y147.38 E20.59009
G1 X137.41 Y147.49 E20.59630
G1 X137.37 Y147.51 E20.59743
G1 X136.82 Y147.64 E20.61622
G1 X136.75 Y147.56 E20.61994
G1 X136.64 Y147.50 E20.62378
G1 X136.59 Y147.48 E20.62578
G1 X136.48 Y147.47 E20.62934
G1 X136.33 Y147.49 E20.63453
G1 X136.17 Y147.57 E20.64039
G1 X136.10 Y147.65 E20.64392
G1 X136.04 Y147.74 E20.64769
G1 X136.00 Y147.86 E20.65177
G1 X136.00 Y147.98 E20.65563
G1 X136.04 Y148.12 E20.66058
G1 X136.08 Y148.19 E20.66321
G1 X136.17 Y148.28 E20.66749
G1 X136.34 Y148.36 E20.67358
G1 X136.38 Y148.55 E20.68014
G1 X136.28 Y148.63 E20.68431
G1 X136.22 Y148.76 E20.68931
G1 X136.20 Y148.84 E20.69201
G1 X136.19 Y148.90 E20.69372
G1 X136.20 Y148.97 E20.69605
G1 X136.22 Y149.07 E20.69949
G1 X136.26 Y149.14 E20.70233
G1 X136.33 Y149.24 E20.70630
G1 X136.44 Y149.31 E20.71063
G1 X136.56 Y149.35 E20.71481
G1 X136.68 Y149.35 E20.71885
G1 X136.80 Y149.33 E20.72275
G1 X136.91 Y149.28 E20.72685
G1 X137.00 Y149.20 E20.73086
G1 X137.05 Y149.13 E20.73387
G1 X137.10 Y149.01 E20.73793
G1 X146.56 Y147.01 E21.05951
G1 X146.58 Y147.03 E21.06065
G1 X146.68 Y147.12 E21.06511
G1 X146.79 Y147.16 E21.06909
G1 X146.92 Y147.18 E21.07320
G1 X147.01 Y147.16 E21.07646
G1 X147.12 Y147.13 E21.08022
G1 X147.29 Y146.99 E21.08750
G1 X147.35 Y146.88 E21.09182
G1 X147.37 Y146.80 E21.09454
G1 X147.38 Y146.73 E21.09682
G1 X147.35 Y146.53 E21.10341
G1 X147.26 Y146.42 E21.10826
G1 X147.22 Y146.37 E21.11052
G1 X147.08 Y146.30 E21.11558
G1 X147.04 Y146.28 E21.11715
G1 X147.00 Y146.10 E21.12332
G1 X147.09 Y146.01 E21.12749
G1 X147.16 Y145.88 E21.13256
G1 X147.18 Y145.80 E21.13519
G1 X147.19 Y145.74 E21.13723
G1 X147.16 Y145.59 E21.14247
G1 X147.10 Y145.47 E21.14683
G1 X147.02 Y145.39 E21.15059
G1 X146.94 Y145.34 E21.15371
G1 X146.79 Y145.29 E21.15901
G1 X146.72 Y145.29 E21.16147
G1 X146.64 Y145.30 E21.16409
G1 X146.50 Y145.35 E21.16902
G1 X146.36 Y145.46 E21.17504
G1 X146.28 Y145.62 E21.18071
G1 X146.28 Y145.63 E21.18125
G1 X145.78 Y145.73 E21.19810
G1 X145.73 Y145.74 E21.19974
G1 X145.52 Y145.70 E21.20682
G1 X145.43 Y145.66 E21.21024
G1 X145.31 Y145.55 E21.21567
G1 X145.28 Y145.52 E21.21716
G1 X145.23 Y145.43 E21.22065
G1 X145.19 Y145.32 E21.22446
G1 X145.19 Y145.23 E21.22734
G1 X145.19 Y145.17 E21.22924
G1 X145.23 Y145.02 E21.23456
G1 X145.26 Y144.97 E21.23659
G1 X145.36 Y144.84 E21.24199
G1 X145.45 Y144.77 E21.24555
G1 X145.61 Y144.70 E21.25151
G1 X145.65 Y144.69 E21.25277
G1 X146.45 Y144.52 E21.27989
G1 X146.56 Y144.50 E21.28358
G1 X146.75 Y144.48 E21.29022
G1 X146.91 Y144.49 E21.29541
G1 X147.15 Y144.54 E21.30358
G1 X147.25 Y144.57 E21.30713
G1 X147.58 Y144.76 E21.31965
G1 X147.78 Y144.95 E21.32894
G1 X147.92 Y145.19 E21.33813
G1 X148.02 Y145.48 E21.34825
G1 X148.21 Y146.41 E21.37976
G1 X148.23 Y146.64 E21.38767
G1 X148.19 Y147.20 E21.40616
G1 X164.46 Y143.74 E21.95928
G1 X164.48 Y144.24 E21.97577
G1 X172.43 Y142.55 E22.24616
G1 X173.01 Y142.42 E22.26598
G1 X173.31 Y142.37 E22.27589
G1 X173.62 Y142.35 E22.28618
G1 X174.03 Y142.38 E22.29985
G1 X174.53 Y142.51 E22.31707
G1 X174.97 Y142.70 E22.33289
G1 X175.32 Y142.92 E22.34688
G1 X175.71 Y143.27 E22.36424
G1 X176.03 Y143.69 E22.38192
G1 X176.25 Y144.13 E22.39816
G1 X176.34 Y144.38 E22.40685
G1 X176.43 Y144.76 E22.42007
G1 X176.47 Y145.15 E22.43309
G1 X176.45 Y145.48 E22.44390
G1 X176.50 Y153.23 E22.70168
G1 X177.09 Y152.96 E22.72312
G1 X177.15 Y163.09 E23.05999
G1 X175.55 Y163.10 E23.11327
G1 X175.55 Y162.97 E23.11766
G1 X175.55 Y162.77 E23.12401
G1 X175.55 Y162.70 E23.12641
G1 X175.55 Y162.51 E23.13280
G1 X175.55 Y162.44 E23.13519
G1 X175.54 Y162.25 E23.14158
G1 X175.55 Y162.17 E23.14397
G1 X175.54 Y161.98 E23.15033
G1 X175.54 Y161.91 E23.15269
G1 X175.53 Y160.33 E23.20527
G1 X175.53 Y160.26 E23.20767
G1 X175.53 Y160.07 E23.21406
G1 X175.53 Y160.00 E23.21645
G1 X175.53 Y159.80 E23.22284
G1 X175.53 Y159.73 E23.22520
G1 X175.53 Y159.54 E23.23162
G1 X175.53 Y159.47 E23.23398
G1 X175.53 Y159.28 E23.24040
G1 X175.53 Y159.20 E23.24276
G1 X175.52 Y158.64 E23.26165
G1 X175.50 Y158.03 E23.28186
G1 X175.43 Y157.47 E23.30044
G1 X175.28 Y156.96 E23.31820
G1 X175.24 Y156.87 E23.32140
G1 X175.01 Y156.39 E23.33916
G1 X174.72 Y155.93 E23.35753
G1 X174.37 Y155.50 E23.37586
G1 X173.99 Y155.10 E23.39411
G1 X173.52 Y154.70 E23.41474
G1 X173.08 Y154.38 E23.43277
G1 X172.51 Y154.02 E23.45511
G1 X171.85 Y153.67 E23.48003
G1 X171.16 Y153.38 E23.50477
G1 X170.46 Y153.14 E23.52960
G1 X169.93 Y153.01 E23.54766
G1 X169.32 Y152.89 E23.56839
G1 X168.79 Y152.84 E23.58612
G1 X168.25 Y152.82 E23.60399
G1 X167.71 Y152.85 E23.62195
G1 X167.29 Y152.91 E23.63600
G1 X166.76 Y153.05 E23.65447
G1 X166.26 Y153.25 E23.67208
G1 X165.83 Y153.50 E23.68873
G1 X165.68 Y153.61 E23.69485
G1 X155.96 Y163.22 E24.14949
G1 X153.68 Y163.23 E24.22562
G1 X164.68 Y152.35 E24.74033
G1 X164.21 Y151.79 E24.76460
G1 X163.88 Y151.38 E24.78220
G1 X163.56 Y150.94 E24.80035
G1 X163.26 Y150.49 E24.81829
G1 X162.98 Y150.04 E24.83593
G1 X162.71 Y149.57 E24.85403
G1 X162.46 Y149.10 E24.87161
G1 X162.14 Y148.45 E24.89576
G1 X127.83 Y161.91 E26.12168
G1 X127.82 Y160.25 E26.17716
G1 X127.82 Y160.20 E26.17873
G1 X161.55 Y146.96 E27.38414
G1 X161.28 Y146.05 E27.41569
G1 X127.77 Y153.16 E28.55495
G1 X127.76 Y151.54 E28.60884
G1 X127.76 Y151.53 E28.60923
G1 X135.68 Y149.85 E28.87839
G1 X135.47 Y149.49 E28.89217
G1 X135.38 Y149.25 E28.90073
G1 X135.17 Y148.19 E28.93666
G1 X135.15 Y148.09 E28.94006
G1 X135.14 Y147.97 E28.94412
G1 X135.18 Y147.67 E28.95428
G1 X135.25 Y147.47 E28.96118
G1 X135.39 Y147.22 E28.97066
G1 X135.49 Y147.11 E28.97557
G1 X135.82 Y146.84 E28.98975
G1 X136.00 Y146.76 E28.99661
G1 X136.22 Y146.69 E29.00421
G1 X137.02 Y146.52 E29.03123
G1 X137.15 Y146.50 E29.03551
G1 X137.33 Y146.52 E29.04178
G1 X137.52 Y146.62 E29.04880
G1 X137.61 Y146.71 E29.05303
G1 X137.69 Y146.85 E29.05826
G1 F2400 E28.55826
G0 F12000 X170.49 Y147.16
G1 F2400 E29.05826
G1 F900 X170.55 Y147.49 E29.06952
G1 X170.74 Y147.86 E29.08321
G1 X170.92 Y148.05 E29.09196
G1 X171.23 Y148.24 E29.10402
G1 X171.46 Y148.32 E29.11218
G1 X171.65 Y148.35 E29.11841
G1 X171.78 Y148.35 E29.12267
G1 X172.06 Y148.31 E29.13242
G1 X172.37 Y148.18 E29.14352
G1 X172.58 Y148.03 E29.15199
G1 X172.76 Y147.82 E29.16137
G1 X172.88 Y147.63 E29.16867
G1 X172.96 Y147.37 E29.17769
G1 X172.99 Y147.20 E29.18354
G1 X172.99 Y147.06 E29.18797
G1 X172.91 Y146.66 E29.20162
G1 X172.77 Y146.38 E29.21205
G1 X172.49 Y146.10 E29.22534
G1 X172.27 Y145.97 E29.23394
G1 X171.93 Y145.87 E29.24568
G1 X171.72 Y145.85 E29.25275
G1 X171.67 Y145.85 E29.25415
G1 X171.42 Y145.89 E29.26283
G1 X171.13 Y146.01 E29.27302
G1 X170.98 Y146.11 E29.27918
G1 X170.81 Y146.26 E29.28679
G1 X170.60 Y146.59 E29.29955
G1 X170.53 Y146.80 E29.30696
G1 X170.50 Y146.94 E29.31200
G1 X170.49 Y147.16 E29.31919
G0 F12000 X169.54 Y147.20
;TYPE:FILL
G1 F900 X167.01 Y144.66 E29.43847
G0 F12000 X167.47 Y144.56
G1 F900 X169.59 Y146.68 E29.53800
G0 F12000 X169.72 Y146.25
G1 F900 X167.94 Y144.47 E29.62178
G0 F12000 X168.41 Y144.37
G1 F900 X169.93 Y145.89 E29.69334
G0 F12000 X170.18 Y145.57
G1 F900 X168.88 Y144.27 E29.75447
G0 F12000 X169.34 Y144.17
G1 F900 X170.48 Y145.31 E29.80809
G0 F12000 X170.85 Y145.11
G1 F900 X169.81 Y144.07 E29.85694
G0 F12000 X170.28 Y143.97
G1 F900 X171.27 Y144.96 E29.90362
G0 F12000 X171.78 Y144.91
G1 F900 X170.74 Y143.87 E29.95263
G0 F12000 X171.21 Y143.77
G1 F900 X172.49 Y145.05 E30.01277
G1 F2400 E29.51277
G0 F12000 X172.14 Y143.57
G1 F2400 E30.01277
G1 F900 X175.52 Y146.95 E30.17171
G0 F12000 X175.52 Y146.38
G1 F900 X172.61 Y143.48 E30.30854
G0 F12000 X173.07 Y143.37
G1 F900 X175.51 Y145.82 E30.42366
G0 F12000 X175.52 Y145.25
G1 F900 X173.56 Y143.30 E30.51574
G0 F12000 X174.23 Y143.40
G1 F900 X175.42 Y144.59 E30.57166
G1 F2400 E30.07166
G0 F12000 X173.82 Y146.38
G1 F2400 E30.57166
G1 F900 X175.53 Y148.09 E30.65217
G0 F12000 X175.53 Y147.52
G1 F900 X171.68 Y143.67 E30.83324
G1 F2400 E30.33324
G0 F12000 X173.93 Y147.06
G1 F2400 E30.83324
G1 F900 X175.53 Y148.66 E30.90852
G0 F12000 X175.53 Y149.23
G1 F900 X173.88 Y147.58 E30.98637
G0 F12000 X173.74 Y148.00
G1 F900 X175.54 Y149.80 E31.07098
G0 F12000 X175.54 Y150.37
G1 F900 X173.53 Y148.36 E31.16539
G0 F12000 X173.27 Y148.66
G1 F900 X175.55 Y150.94 E31.27244
G0 F12000 X175.55 Y151.51
G1 F900 X172.96 Y148.92 E31.39429
G0 F12000 X172.59 Y149.11
G1 F900 X175.55 Y152.08 E31.53385
G0 F12000 X175.56 Y152.65
G1 F900 X172.16 Y149.25 E31.69378
G0 F12000 X171.63 Y149.29
G1 F900 X175.56 Y153.22 E31.87847
G0 F12000 X175.56 Y153.78
G1 F900 X170.90 Y149.12 E32.09766
G1 F2400 E31.59766
G0 F12000 X169.72 Y147.94
G1 F2400 E32.09766
G1 F900 X166.54 Y144.76 E32.24733
G0 F12000 X166.07 Y144.86
G1 F900 X175.57 Y154.35 E32.69385
G0 F12000 X175.80 Y154.58
G1 F900 X176.16 Y154.94 E32.71079
G0 F12000 X176.16 Y155.51
G1 F900 X165.61 Y144.96 E33.20719
G0 F12000 X165.14 Y145.06
G1 F900 X173.87 Y153.79 E33.61796
G1 F2400 E33.11796
G0 F12000 X172.43 Y152.91
G1 F2400 E33.61796
G1 F900 X164.67 Y145.16 E33.98264
G0 F12000 X164.21 Y145.26
G1 F900 X171.42 Y152.47 E34.32197
G0 F12000 X170.59 Y152.20
G1 F900 X163.74 Y145.36 E34.64403
G0 F12000 X163.59 Y145.20
G1 F900 X163.33 Y144.94 E34.65609
G0 F12000 X162.86 Y145.04
G1 F900 X169.85 Y152.03 E34.98498
G0 F12000 X169.19 Y151.93
G1 F900 X162.39 Y145.14 E35.30445
G0 F12000 X162.05 Y145.37
G1 F900 X168.58 Y151.89 E35.61122
G0 F12000 X168.01 Y151.89
G1 F900 X162.30 Y146.18 E35.88009
G0 F12000 X162.54 Y146.98
G1 F900 X167.49 Y151.93 E36.11285
G0 F12000 X167.00 Y152.01
G1 F900 X162.95 Y147.96 E36.30366
G0 F12000 X163.52 Y149.09
G1 F900 X166.56 Y152.13 E36.44651
G0 F12000 X166.14 Y152.28
G1 F900 X164.56 Y150.71 E36.52073
G1 F2400 E36.02073
G0 F12000 X175.51 Y155.43
G1 F2400 E36.52073
G1 F900 X176.16 Y156.08 E36.55140
G1 F2400 E36.05140
G0 F12000 X146.52 Y148.22
G1 F2400 E36.55140
G1 F900 X146.20 Y148.04 E36.56107
G1 X146.06 Y148.32 E36.57075
G1 X145.50 Y148.19 E36.58033
G1 X145.47 Y148.44 E36.58995
G1 X145.02 Y148.42 E36.59957
G1 X144.57 Y148.39 E36.60918
G1 X144.54 Y148.64 E36.61880
G1 X144.09 Y148.61 E36.62840
G1 X143.63 Y148.59 E36.63803
G1 X143.61 Y148.84 E36.64765
G1 X143.16 Y148.81 E36.65725
G1 X142.70 Y148.78 E36.66685
G1 X142.67 Y149.04 E36.67648
G1 X142.22 Y149.01 E36.68611
G1 X141.77 Y148.98 E36.69571
G1 X141.74 Y149.24 E36.70530
G1 X141.29 Y149.21 E36.71490
G1 X140.84 Y149.18 E36.72446
G1 X140.81 Y149.43 E36.73405
G1 X140.35 Y149.41 E36.74358
G1 X139.90 Y149.38 E36.75314
G1 X139.87 Y149.63 E36.76271
G1 X139.42 Y149.60 E36.77228
G1 X138.97 Y149.58 E36.78182
G1 X138.94 Y149.83 E36.79137
G1 X138.49 Y149.80 E36.80092
G1 X138.04 Y149.78 E36.81044
G1 X138.01 Y150.03 E36.82000
G1 X137.69 Y149.85 E36.83218
;LAYER:1
M106 S12
G0 F12000 X137.65 Y149.71 Z0.35
;TYPE:WALL-INNER
G1 F1440 X141.74 Y148.83 E36.93642
G1 X142.33 Y148.71 E36.95138
G1 X146.40 Y147.85 E37.05478
G1 X146.84 Y147.97 E37.06626
G1 X147.27 Y147.93 E37.07702
G1 X147.37 Y147.89 E37.07969
G1 X147.35 Y148.19 E37.08723
G1 X152.21 Y147.16 E37.21094
G1 X153.19 Y146.95 E37.23586
G1 X155.70 Y146.42 E37.29971
G1 X156.53 Y146.24 E37.32073
G1 X157.35 Y146.06 E37.34173
G1 X159.66 Y145.58 E37.40046
G1 X163.71 Y144.72 E37.50349
G1 X163.73 Y145.21 E37.51589
G1 X168.34 Y144.24 E37.63300
G1 X168.89 Y144.12 E37.64704
G1 X169.55 Y143.98 E37.66385
G1 X172.91 Y143.27 E37.74927
G1 X173.50 Y143.15 E37.76427
G1 X173.63 Y143.15 E37.76761
G1 X174.03 Y143.20 E37.77738
G1 X174.40 Y143.31 E37.78712
G1 X174.80 Y143.53 E37.79851
G1 X174.99 Y143.68 E37.80435
G1 X175.25 Y143.96 E37.81411
G1 X175.44 Y144.26 E37.82278
G1 X175.58 Y144.59 E37.83181
G1 X175.63 Y144.82 E37.83755
G1 X175.67 Y145.10 E37.84467
G1 X175.67 Y145.24 E37.84813
G1 X175.66 Y145.44 E37.85326
G1 X175.67 Y146.55 E37.88083
G1 X175.68 Y148.14 E37.92025
G1 X175.72 Y154.47 E38.07776
G1 X176.29 Y154.20 E38.09358
G1 X176.35 Y162.29 E38.29496
G1 X176.33 Y161.51 E38.31437
G1 X176.34 Y161.36 E38.31833
G1 X176.33 Y160.83 E38.33132
G1 X176.33 Y160.75 E38.33343
G1 X176.33 Y160.59 E38.33739
G1 X176.33 Y160.07 E38.35030
G1 X176.32 Y159.56 E38.36300
G1 X176.32 Y159.05 E38.37579
G1 X176.31 Y158.45 E38.39072
G1 X176.28 Y157.83 E38.40617
G1 X176.17 Y157.16 E38.42288
G1 X175.97 Y156.56 E38.43870
G1 X175.71 Y156.00 E38.45405
G1 X175.38 Y155.48 E38.46946
G1 X175.00 Y155.01 E38.48444
G1 X174.59 Y154.58 E38.49936
G1 X174.06 Y154.11 E38.51682
G1 X173.59 Y153.76 E38.53125
G1 X173.11 Y153.45 E38.54562
G1 X172.55 Y153.13 E38.56163
G1 X171.92 Y152.83 E38.57917
G1 X171.33 Y152.59 E38.59492
G1 X170.73 Y152.39 E38.61059
G1 X170.18 Y152.24 E38.62493
G1 X169.47 Y152.11 E38.64276
G1 X168.86 Y152.04 E38.65803
G1 X168.28 Y152.02 E38.67250
G1 X167.51 Y152.07 E38.69177
G1 X166.88 Y152.19 E38.70758
G1 X166.28 Y152.37 E38.72336
G1 X165.62 Y152.68 E38.74132
G1 X165.18 Y152.99 E38.75478
G1 X158.17 Y159.91 E38.99999
G1 X157.78 Y160.29 E39.01343
G1 X155.63 Y162.42 E39.08877
G1 X160.11 Y157.99 E39.24568
G1 X160.74 Y157.36 E39.26771
G1 X164.54 Y153.60 E39.40073
G1 X165.09 Y153.06 E39.41980
G1 X165.75 Y152.40 E39.44328
G1 X164.83 Y151.29 E39.47917
G1 X164.52 Y150.90 E39.49171
G1 X164.22 Y150.48 E39.50447
G1 X163.92 Y150.05 E39.51742
G1 X163.65 Y149.61 E39.53045
G1 X163.16 Y148.74 E39.55519
G1 X162.53 Y147.44 E39.59100
G1 X161.06 Y148.01 E39.63021
G1 X130.27 Y160.10 E40.45312
G1 X129.71 Y160.32 E40.46809
G1 X128.62 Y160.74 E40.49726
G1 X142.38 Y155.34 E40.86510
G1 X146.19 Y153.85 E40.96677
G1 X146.97 Y153.54 E40.98779
G1 X150.63 Y152.10 E41.08568
G1 X152.45 Y151.39 E41.13415
G1 X153.35 Y151.03 E41.15836
G1 X161.65 Y147.78 E41.38007
G1 X162.53 Y147.44 E41.40351
G1 X161.90 Y145.33 E41.45811
G1 X161.05 Y145.29 E41.47927
G1 X156.14 Y146.33 E41.60414
G1 X152.53 Y147.09 E41.69591
G1 X137.05 Y150.38 E42.08961
G1 X136.33 Y150.53 E42.10805
G1 X128.57 Y152.18 E42.30539
G1 X135.53 Y150.70 E42.48261
G1 X137.01 Y150.36 E42.52019
G1 X136.85 Y150.12 E42.52736
G1 X137.12 Y150.07 E42.53408
G1 X137.43 Y149.91 E42.54278
G1 X137.65 Y149.71 E42.55016
G1 F2400 E42.05016
G0 F12000 X169.69 Y147.14
G1 F2400 E42.55016
G1 F1440 X169.77 Y147.69 E42.56396
G1 X170.02 Y148.22 E42.57855
G1 X170.32 Y148.59 E42.59035
G1 X170.84 Y148.95 E42.60605
G1 X171.19 Y149.07 E42.61516
G1 X171.55 Y149.14 E42.62425
G1 X171.86 Y149.15 E42.63201
G1 X172.34 Y149.07 E42.64407
G1 X172.89 Y148.81 E42.65935
G1 X173.39 Y148.35 E42.67624
G1 X173.64 Y147.89 E42.68935
G1 X173.76 Y147.47 E42.70007
G1 X173.79 Y147.22 E42.70644
G1 X173.79 Y146.98 E42.71246
G1 X173.69 Y146.44 E42.72601
G1 X173.47 Y145.98 E42.73889
G1 X173.12 Y145.57 E42.75213
G1 X172.69 Y145.28 E42.76505
G1 X172.23 Y145.11 E42.77730
G1 X171.85 Y145.05 E42.78683
G1 X171.61 Y145.06 E42.79275
G1 X171.22 Y145.12 E42.80273
G1 X171.02 Y145.19 E42.80798
G1 X170.55 Y145.43 E42.82114
G1 X170.22 Y145.73 E42.83218
G1 X169.98 Y146.06 E42.84224
G1 X169.82 Y146.38 E42.85119
G1 X169.71 Y146.86 E42.86345
G1 X169.69 Y147.14 E42.87055
G0 F12000 X170.09 Y147.12
G1 F1440 X170.16 Y147.58 E42.88191
G1 X170.36 Y148.01 E42.89378
G1 X170.60 Y148.29 E42.90296
G1 X171.03 Y148.59 E42.91603
G1 X171.29 Y148.69 E42.92307
G1 X171.59 Y148.74 E42.93052
G1 X171.83 Y148.75 E42.93652
G1 X172.22 Y148.69 E42.94628
G1 X172.67 Y148.48 E42.95859
G1 X173.07 Y148.10 E42.97234
G1 X173.28 Y147.73 E42.98292
G1 X173.35 Y147.50 E42.98887
G1 X173.39 Y147.19 E42.99660
G1 X173.40 Y147.01 E43.00110
G1 X173.31 Y146.57 E43.01232
G1 X173.13 Y146.20 E43.02261
G1 X172.85 Y145.87 E43.03328
G1 X172.51 Y145.63 E43.04367
G1 X172.13 Y145.50 E43.05360
G1 X171.82 Y145.45 E43.06132
G1 X171.65 Y145.46 E43.06572
G1 X171.31 Y145.51 E43.07422
G1 X171.17 Y145.56 E43.07790
G1 X170.78 Y145.76 E43.08892
G1 X170.52 Y146.00 E43.09767
G1 X170.32 Y146.26 E43.10584
G1 X170.20 Y146.51 E43.11280
G1 X170.10 Y146.91 E43.12307
G1 X170.09 Y147.12 E43.12827
G1 F2400 E42.62827
G0 F12000 X172.82 Y142.88
G1 F2400 E43.12827
G1 F1440 X173.28 Y142.78 E43.13995
G1 X173.48 Y142.75 E43.14481
G1 X173.66 Y142.75 E43.14934
G1 X174.10 Y142.80 E43.16048
G1 X174.55 Y142.94 E43.17205
G1 X174.83 Y143.07 E43.17988
G1 X175.26 Y143.39 E43.19312
G1 X175.57 Y143.72 E43.20432
G1 X175.79 Y144.07 E43.21479
G1 X175.96 Y144.47 E43.22547
G1 X176.03 Y144.74 E43.23253
G1 X176.07 Y145.07 E43.24071
G1 X176.07 Y145.25 E43.24529
G1 X176.06 Y145.46 E43.25040
G1 X176.11 Y153.85 E43.45910
G1 X176.69 Y153.58 E43.47492
G1 X176.75 Y162.69 E43.70161
G1 X175.94 Y162.70 E43.72161
G1 X175.94 Y161.51 E43.75107
G1 X175.94 Y161.36 E43.75493
G1 X175.93 Y160.84 E43.76782
G1 X175.93 Y160.75 E43.77014
G1 X175.93 Y160.59 E43.77399
G1 X175.93 Y160.07 E43.78686
G1 X175.92 Y159.56 E43.79955
G1 X175.92 Y159.05 E43.81231
G1 X175.91 Y158.46 E43.82702
G1 X175.88 Y157.87 E43.84172
G1 X175.78 Y157.26 E43.85717
G1 X175.60 Y156.71 E43.87156
G1 X175.36 Y156.20 E43.88563
G1 X175.05 Y155.71 E43.89992
G1 X174.70 Y155.27 E43.91394
G1 X174.31 Y154.86 E43.92797
G1 X173.81 Y154.42 E43.94461
G1 X173.37 Y154.09 E43.95835
G1 X172.90 Y153.79 E43.97208
G1 X172.37 Y153.48 E43.98743
G1 X171.76 Y153.19 E44.00431
G1 X171.19 Y152.96 E44.01945
G1 X170.62 Y152.77 E44.03450
G1 X170.09 Y152.63 E44.04816
G1 X169.41 Y152.50 E44.06528
G1 X168.83 Y152.44 E44.07980
G1 X168.28 Y152.42 E44.09340
G1 X167.56 Y152.47 E44.11157
G1 X166.98 Y152.57 E44.12622
G1 X166.42 Y152.74 E44.14067
G1 X165.82 Y153.03 E44.15720
G1 X165.43 Y153.29 E44.16898
G1 X158.45 Y160.20 E44.41326
G1 X158.06 Y160.58 E44.42672
G1 X155.80 Y162.82 E44.50611
G1 X154.65 Y162.83 E44.53470
G1 X164.26 Y153.32 E44.87118
G1 X164.81 Y152.78 E44.89024
G1 X165.21 Y152.37 E44.90456
G1 X164.53 Y151.55 E44.93123
G1 X164.19 Y151.12 E44.94475
G1 X163.88 Y150.70 E44.95779
G1 X163.59 Y150.28 E44.97056
G1 X163.32 Y149.83 E44.98352
G1 X163.05 Y149.36 E44.99703
G1 X162.80 Y148.91 E45.00997
G1 X162.33 Y147.95 E45.03649
G1 X161.21 Y148.39 E45.06657
G1 X128.23 Y161.33 E45.94808
G1 X128.22 Y160.47 E45.96948
G1 X162.04 Y147.20 E46.87339
G1 X161.59 Y145.72 E46.91184
G1 X161.08 Y145.69 E46.92470
G1 X128.17 Y152.67 E47.76168
G1 X128.17 Y151.85 E47.78209
G1 X135.45 Y150.31 E47.96727
G1 X136.37 Y150.10 E47.99082
G1 X135.88 Y149.30 E48.01410
G1 X135.83 Y149.20 E48.01704
G1 X135.60 Y148.10 E48.04475
G1 X135.59 Y147.95 E48.04857
G1 X135.62 Y147.72 E48.05440
G1 X135.75 Y147.46 E48.06166
G1 X135.80 Y147.39 E48.06391
G1 X136.05 Y147.18 E48.07197
G1 X136.18 Y147.12 E48.07545
G1 X136.03 Y147.20 E48.07952
G1 X135.94 Y147.27 E48.08247
G1 X135.77 Y147.46 E48.08890
G1 X135.66 Y147.75 E48.09654
G1 X135.64 Y147.94 E48.10138
G1 X135.67 Y148.12 E48.10601
G1 X135.71 Y148.24 E48.10923
G1 X135.83 Y148.45 E48.11509
G1 X135.92 Y148.53 E48.11798
G1 X135.83 Y148.84 E48.12594
G1 X135.86 Y149.11 E48.13281
G1 X135.92 Y149.25 E48.13671
G1 X136.01 Y149.41 E48.14114
G1 X136.16 Y149.56 E48.14644
G1 X136.32 Y149.65 E48.15094
G1 X136.50 Y149.72 E48.15582
G1 X136.70 Y149.74 E48.16080
G1 X136.99 Y149.69 E48.16813
G1 X137.20 Y149.58 E48.17393
G1 X137.40 Y149.39 E48.18090
G1 X137.42 Y149.35 E48.18209
G1 X137.70 Y149.28 E48.18915
G1 X141.66 Y148.44 E48.29000
G1 X143.56 Y148.04 E48.33823
G1 X146.50 Y147.42 E48.41294
G1 X146.58 Y147.48 E48.41551
G1 X146.88 Y147.56 E48.42326
G1 X147.17 Y147.54 E48.43062
G1 X147.44 Y147.42 E48.43783
G1 X147.59 Y147.29 E48.44275
G1 X147.68 Y147.17 E48.44650
G1 X147.80 Y146.93 E48.45331
G1 X147.83 Y146.71 E48.45865
G1 X147.80 Y146.45 E48.46521
G1 X147.66 Y146.18 E48.47278
G1 X147.54 Y146.08 E48.47662
G1 X147.61 Y145.93 E48.48078
G1 X147.63 Y145.71 E48.48614
G1 X147.60 Y145.49 E48.49179
G1 X147.54 Y145.33 E48.49598
G1 X147.45 Y145.19 E48.50003
G1 X147.25 Y145.00 E48.50697
G1 X146.98 Y144.89 E48.51416
G1 X146.74 Y144.87 E48.52024
G1 X146.81 Y144.87 E48.52211
G1 X147.01 Y144.89 E48.52698
G1 X147.26 Y144.97 E48.53363
G1 X147.41 Y145.08 E48.53806
G1 X147.58 Y145.28 E48.54472
G1 X147.65 Y145.43 E48.54880
G1 X147.77 Y146.02 E48.56372
G1 X147.88 Y146.56 E48.57747
G1 X147.88 Y146.62 E48.57904
G1 X147.79 Y147.69 E48.60564
G1 X164.09 Y144.23 E49.02017
G1 X164.11 Y144.72 E49.03258
G1 X172.82 Y142.88 E49.25422
G1 F2400 E48.75422
G0 F12000 X146.72 Y144.87
G1 F2400 E49.25422
G1 F1440 X146.37 Y144.97 E49.26324
G1 X146.21 Y145.08 E49.26815
G1 X146.10 Y145.19 E49.27204
G1 X146.05 Y145.27 E49.27419
G1 X145.77 Y145.32 E49.28129
G1 X145.74 Y145.32 E49.28225
G1 X145.66 Y145.27 E49.28450
G1 X145.65 Y145.25 E49.28500
G1 X145.63 Y145.22 E49.28584
G1 X145.64 Y145.18 E49.28680
G1 X145.69 Y145.11 E49.28901
G1 X145.78 Y145.07 E49.29141
G1 X146.69 Y144.87 E49.31475
G1 X146.72 Y144.87 E49.31543
G1 F2400 E48.81543
G0 F12000 X137.36 Y146.99
G1 F2400 E49.31543
G1 F1440 X137.35 Y147.02 E49.31636
G1 X137.33 Y147.07 E49.31759
G1 X137.31 Y147.09 E49.31823
G1 X137.26 Y147.12 E49.31992
G1 X137.19 Y147.15 E49.32162
G1 X136.99 Y147.19 E49.32678
G1 X136.96 Y147.16 E49.32775
G1 X136.69 Y147.07 E49.33484
G1 X136.49 Y147.05 E49.33989
G1 X136.23 Y147.10 E49.34648
G1 X137.11 Y146.90 E49.36890
G1 X137.21 Y146.88 E49.37136
G1 X137.29 Y146.90 E49.37352
G1 X137.30 Y146.91 E49.37385
G1 X137.32 Y146.93 E49.37457
G1 X137.36 Y146.99 E49.37625
G0 F12000 X137.76 Y146.96
;TYPE:WALL-OUTER
G1 F1440 X137.76 Y146.97 E49.37670
G1 X137.74 Y147.14 E49.38085
G1 X137.67 Y147.29 E49.38489
G1 X137.58 Y147.39 E49.38835
G1 X137.44 Y147.48 E49.39247
G1 X137.30 Y147.53 E49.39607
G1 X136.87 Y147.62 E49.40704
G1 X136.75 Y147.51 E49.41103
G1 X136.60 Y147.46 E49.41502
G1 X136.51 Y147.45 E49.41733
G1 X136.34 Y147.49 E49.42172
G1 X136.25 Y147.53 E49.42419
G1 X136.21 Y147.56 E49.42544
G1 X136.11 Y147.67 E49.42905
G1 X136.05 Y147.83 E49.43334
G1 X136.04 Y147.93 E49.43566
G1 X136.06 Y148.02 E49.43815
G1 X136.08 Y148.07 E49.43951
G1 X136.15 Y148.20 E49.44301
G1 X136.22 Y148.27 E49.44558
G1 X136.35 Y148.33 E49.44916
G1 X136.39 Y148.34 E49.45013
G1 X136.43 Y148.53 E49.45496
G1 X136.37 Y148.58 E49.45686
G1 X136.28 Y148.69 E49.46035
G1 X136.24 Y148.87 E49.46482
G1 X136.25 Y149.01 E49.46846
G1 X136.28 Y149.08 E49.47032
G1 X136.33 Y149.16 E49.47274
G1 X136.41 Y149.24 E49.47558
G1 X136.49 Y149.29 E49.47783
G1 X136.59 Y149.33 E49.48052
G1 X136.69 Y149.34 E49.48295
G1 X136.86 Y149.31 E49.48729
G1 X136.96 Y149.25 E49.49020
G1 X137.07 Y149.15 E49.49405
G1 X137.14 Y149.00 E49.49814
G1 X138.28 Y148.75 E49.52708
G1 X146.60 Y146.99 E49.73870
G1 X146.61 Y147.00 E49.73912
G1 X146.76 Y147.12 E49.74375
G1 X146.92 Y147.16 E49.74784
G1 X147.07 Y147.15 E49.75176
G1 X147.22 Y147.08 E49.75582
G1 X147.30 Y147.01 E49.75840
G1 X147.34 Y146.96 E49.76010
G1 X147.41 Y146.81 E49.76412
G1 X147.43 Y146.71 E49.76671
G1 X147.41 Y146.57 E49.77016
G1 X147.34 Y146.43 E49.77418
G1 X147.23 Y146.33 E49.77765
G1 X147.14 Y146.29 E49.78016
G1 X147.08 Y146.27 E49.78179
G1 X147.04 Y146.07 E49.78674
G1 X147.15 Y145.99 E49.79015
G1 X147.22 Y145.82 E49.79470
G1 X147.23 Y145.72 E49.79728
G1 X147.22 Y145.59 E49.80039
G1 X147.18 Y145.51 E49.80251
G1 X147.14 Y145.45 E49.80446
G1 X147.03 Y145.34 E49.80826
G1 X146.88 Y145.28 E49.81217
G1 X146.76 Y145.27 E49.81519
G1 X146.55 Y145.33 E49.82073
G1 X146.47 Y145.39 E49.82310
G1 X146.41 Y145.44 E49.82514
G1 X146.35 Y145.54 E49.82787
G1 X146.33 Y145.62 E49.82992
G1 X145.81 Y145.72 E49.84304
G1 X145.76 Y145.72 E49.84421
G1 X145.60 Y145.70 E49.84839
G1 X145.38 Y145.56 E49.85475
G1 X145.29 Y145.44 E49.85856
G1 X145.24 Y145.30 E49.86234
G1 X145.23 Y145.22 E49.86442
G1 X145.26 Y145.06 E49.86846
G1 X145.34 Y144.89 E49.87303
G1 X145.48 Y144.76 E49.87768
G1 X145.65 Y144.69 E49.88219
G1 X146.11 Y144.59 E49.89398
G1 X146.62 Y144.48 E49.90712
G1 X146.68 Y144.47 E49.90857
G1 X146.69 Y144.47 E49.90884
G1 X146.82 Y144.47 E49.91208
G1 X147.09 Y144.49 E49.91866
G1 X147.37 Y144.58 E49.92593
G1 X147.59 Y144.71 E49.93237
G1 X147.77 Y144.87 E49.93829
G1 X147.87 Y145.00 E49.94240
G1 X147.99 Y145.22 E49.94868
G1 X148.07 Y145.46 E49.95491
G1 X148.25 Y146.37 E49.97805
G1 X148.28 Y146.59 E49.98364
G1 X148.28 Y146.63 E49.98466
G1 X148.23 Y147.18 E49.99842
G1 X164.46 Y143.74 E50.41121
G1 X164.49 Y144.24 E50.42362
G1 X172.74 Y142.49 E50.63351
G1 X173.22 Y142.38 E50.64578
G1 X173.45 Y142.36 E50.65161
G1 X173.67 Y142.35 E50.65713
G1 X174.19 Y142.41 E50.67001
G1 X174.69 Y142.56 E50.68316
G1 X175.02 Y142.72 E50.69213
G1 X175.27 Y142.88 E50.69948
G1 X175.53 Y143.09 E50.70793
G1 X175.88 Y143.47 E50.72085
G1 X176.15 Y143.89 E50.73300
G1 X176.34 Y144.34 E50.74525
G1 X176.42 Y144.67 E50.75378
G1 X176.47 Y145.04 E50.76301
G1 X176.47 Y145.25 E50.76814
G1 X176.47 Y145.39 E50.77172
G1 X176.46 Y145.47 E50.77379
G1 X176.51 Y153.23 E50.96671
G1 X177.09 Y152.96 E50.98251
G1 X177.15 Y163.09 E51.23448
G1 X175.55 Y163.10 E51.27434
G1 X175.54 Y161.51 E51.31388
G1 X175.54 Y161.36 E51.31766
G1 X175.53 Y160.84 E51.33043
G1 X175.53 Y160.74 E51.33294
G1 X175.53 Y160.59 E51.33673
G1 X175.51 Y158.47 E51.38940
G1 X175.48 Y157.91 E51.40338
G1 X175.39 Y157.35 E51.41755
G1 X175.23 Y156.86 E51.43050
G1 X175.01 Y156.39 E51.44333
G1 X174.72 Y155.94 E51.45649
G1 X174.40 Y155.53 E51.46954
G1 X174.03 Y155.15 E51.48270
G1 X173.56 Y154.73 E51.49852
G1 X173.14 Y154.42 E51.51156
G1 X172.70 Y154.13 E51.52466
G1 X172.18 Y153.84 E51.53935
G1 X171.59 Y153.56 E51.55556
G1 X171.06 Y153.34 E51.57006
G1 X170.50 Y153.16 E51.58447
G1 X170.00 Y153.02 E51.59749
G1 X169.35 Y152.90 E51.61388
G1 X168.80 Y152.84 E51.62765
G1 X168.29 Y152.82 E51.64040
G1 X167.60 Y152.86 E51.65748
G1 X167.07 Y152.96 E51.67096
G1 X166.57 Y153.12 E51.68410
G1 X166.02 Y153.38 E51.69915
G1 X165.68 Y153.60 E51.70930
G1 X155.96 Y163.22 E52.04952
G1 X153.67 Y163.23 E52.10655
G1 X164.53 Y152.50 E52.48646
G1 X164.67 Y152.35 E52.49166
G1 X164.21 Y151.80 E52.50958
G1 X163.88 Y151.37 E52.52311
G1 X163.56 Y150.94 E52.53636
G1 X163.25 Y150.49 E52.55003
G1 X162.97 Y150.03 E52.56341
G1 X162.70 Y149.56 E52.57678
G1 X162.45 Y149.10 E52.58990
G1 X162.14 Y148.45 E52.60777
G1 X128.82 Y161.52 E53.49828
G1 X127.83 Y161.91 E53.52470
G1 X127.82 Y160.20 E53.56740
G1 X161.55 Y146.96 E54.46897
G1 X161.29 Y146.10 E54.49131
G1 X161.11 Y146.09 E54.49589
G1 X127.78 Y153.16 E55.34373
G1 X127.77 Y151.53 E55.38439
G1 X135.36 Y149.92 E55.57764
G1 X135.74 Y149.83 E55.58710
G1 X135.48 Y149.41 E55.59942
G1 X135.42 Y149.24 E55.60376
G1 X135.21 Y148.18 E55.63065
G1 X135.19 Y147.93 E55.63697
G1 X135.23 Y147.64 E55.64418
G1 X135.24 Y147.61 E55.64490
G1 X135.31 Y147.42 E55.65012
G1 X135.41 Y147.24 E55.65523
G1 X135.43 Y147.21 E55.65605
G1 X135.52 Y147.11 E55.65945
G1 X135.72 Y146.92 E55.66619
G1 X135.86 Y146.83 E55.67058
G1 X136.01 Y146.75 E55.67471
G1 X136.18 Y146.70 E55.67899
G1 X137.03 Y146.51 E55.70066
G1 X137.20 Y146.48 E55.70502
G1 X137.25 Y146.49 E55.70627
G1 X137.42 Y146.52 E55.71060
G1 X137.53 Y146.58 E55.71375
G1 X137.65 Y146.68 E55.71757
G1 X137.75 Y146.88 E55.72303
G1 X137.76 Y146.96 E55.72508
G1 F2400 E55.22508
G0 F12000 X170.49 Y147.11
G1 F2400 E55.72508
G1 F1440 X170.54 Y147.46 E55.73395
G1 X170.70 Y147.79 E55.74310
G1 X170.87 Y148.00 E55.74966
G1 X171.22 Y148.23 E55.76013
G1 X171.40 Y148.30 E55.76506
G1 X171.63 Y148.35 E55.77088
G1 X171.80 Y148.35 E55.77514
G1 X172.10 Y148.30 E55.78258
G1 X172.44 Y148.14 E55.79193
G1 X172.75 Y147.85 E55.80255
G1 X172.91 Y147.57 E55.81061
G1 X172.97 Y147.34 E55.81660
G1 X173.00 Y147.17 E55.82088
G1 X173.00 Y147.05 E55.82387
G1 X172.93 Y146.69 E55.83276
G1 X172.79 Y146.42 E55.84040
G1 X172.58 Y146.17 E55.84855
G1 X172.32 Y145.99 E55.85642
G1 X172.03 Y145.89 E55.86400
G1 X171.80 Y145.85 E55.86991
G1 X171.68 Y145.85 E55.87282
G1 X171.40 Y145.90 E55.87986
G1 X171.32 Y145.93 E55.88195
G1 X171.01 Y146.09 E55.89083
G1 X170.81 Y146.26 E55.89729
G1 X170.67 Y146.47 E55.90354
G1 X170.58 Y146.65 E55.90854
G1 X170.50 Y146.97 E55.91684
G1 X170.49 Y147.11 E55.92015
G0 F12000 X169.57 Y147.27
;TYPE:FILL
G1 F1440 X165.25 Y151.58 E56.07193
G0 F12000 X165.00 Y151.28
G1 F1440 X169.61 Y146.66 E56.23422
G0 F12000 X169.65 Y147.76
G1 F1440 X165.51 Y151.89 E56.37969
G0 F12000 X165.77 Y152.20
G1 F1440 X169.83 Y148.14 E56.52253
G0 F12000 X170.05 Y148.48
G1 F1440 X166.32 Y152.21 E56.65384
G0 F12000 X167.09 Y152.00
G1 F1440 X170.33 Y148.76 E56.76785
G0 F12000 X170.67 Y148.99
G1 F1440 X167.75 Y151.91 E56.87064
G0 F12000 X168.34 Y151.88
G1 F1440 X171.05 Y149.17 E56.96602
G0 F12000 X171.51 Y149.28
G1 F1440 X168.88 Y151.90 E57.05846
G0 F12000 X169.39 Y151.96
G1 F1440 X172.10 Y149.25 E57.15383
G0 F12000 X173.28 Y148.64
G1 F1440 X169.87 Y152.04 E57.27356
G0 F12000 X170.34 Y152.14
G1 F1440 X175.53 Y146.95 E57.45626
G0 F12000 X175.53 Y147.51
G1 F1440 X170.78 Y152.26 E57.62338
G0 F12000 X171.21 Y152.40
G1 F1440 X175.54 Y148.07 E57.77571
G0 F12000 X175.54 Y148.63
G1 F1440 X171.62 Y152.56 E57.91371
G0 F12000 X172.02 Y152.72
G1 F1440 X175.54 Y149.19 E58.03779
G0 F12000 X175.55 Y149.76
G1 F1440 X172.40 Y152.90 E58.14851
G0 F12000 X172.77 Y153.09
G1 F1440 X175.55 Y150.32 E58.24625
G0 F12000 X175.55 Y150.88
G1 F1440 X173.13 Y153.30 E58.33148
G0 F12000 X173.47 Y153.52
G1 F1440 X175.56 Y151.44 E58.40473
G0 F12000 X175.56 Y152.00
G1 F1440 X173.81 Y153.75 E58.46641
G0 F12000 X174.13 Y153.99
G1 F1440 X175.56 Y152.56 E58.51684
G0 F12000 X175.57 Y153.12
G1 F1440 X174.43 Y154.26 E58.55678
G0 F12000 X174.73 Y154.52
G1 F1440 X175.57 Y153.68 E58.58641
G0 F12000 X175.57 Y154.24
G1 F1440 X175.00 Y154.81 E58.60647
G0 F12000 X175.26 Y155.12
G1 F1440 X175.80 Y154.58 E58.62533
G0 F12000 X176.16 Y154.79
G1 F1440 X175.51 Y155.43 E58.64808
G0 F12000 X175.73 Y155.78
G1 F1440 X176.16 Y155.63 E58.66319
G1 X175.93 Y156.14 E58.67725
G1 F2400 E58.17725
G0 F12000 X173.51 Y148.41
G1 F2400 E58.67725
G1 F1440 X175.53 Y146.39 E58.74821
G0 F12000 X175.52 Y145.83
G1 F1440 X173.91 Y147.45 E58.80516
G0 F12000 X173.92 Y146.87
G1 F1440 X175.53 Y145.26 E58.86192
G0 F12000 X175.47 Y144.75
G1 F1440 X173.83 Y146.40 E58.91983
G0 F12000 X173.64 Y146.02
G1 F1440 X175.32 Y144.34 E58.97879
G0 F12000 X175.09 Y144.00
G1 F1440 X173.40 Y145.69 E59.03822
G0 F12000 X173.12 Y145.41
G1 F1440 X174.81 Y143.72 E59.09766
G0 F12000 X174.46 Y143.50
G1 F1440 X172.79 Y145.18 E59.15653
G0 F12000 X172.39 Y145.01
G1 F1440 X174.05 Y143.35 E59.21512
G0 F12000 X173.55 Y143.29
G1 F1440 X171.92 Y144.92 E59.27248
G0 F12000 X171.31 Y144.96
G1 F1440 X172.85 Y143.42 E59.32671
G0 F12000 X172.13 Y143.57
G1 F1440 X164.75 Y150.96 E59.58669
G0 F12000 X164.50 Y150.64
G1 F1440 X171.42 Y143.73 E59.82999
G0 F12000 X170.70 Y143.88
G1 F1440 X164.27 Y150.31 E60.05636
G0 F12000 X164.04 Y149.97
G1 F1440 X169.99 Y144.03 E60.26556
G0 F12000 X169.27 Y144.18
G1 F1440 X163.82 Y149.63 E60.45722
G0 F12000 X163.62 Y149.27
G1 F1440 X168.56 Y144.33 E60.63092
G0 F12000 X167.84 Y144.49
G1 F1440 X163.42 Y148.91 E60.78647
G0 F12000 X163.22 Y148.54
G1 F1440 X167.12 Y144.64 E60.92369
G0 F12000 X166.41 Y144.79
G1 F1440 X163.04 Y148.16 E61.04228
G0 F12000 X162.85 Y147.78
G1 F1440 X165.69 Y144.94 E61.14226
G0 F12000 X164.97 Y145.09
G1 F1440 X162.66 Y147.40 E61.22358
G0 F12000 X162.53 Y146.97
G1 F1440 X164.26 Y145.24 E61.28433
G0 F12000 X163.60 Y145.34
G1 F1440 X162.40 Y146.54 E61.32647
G0 F12000 X162.27 Y146.10
G1 F1440 X163.46 Y144.91 E61.36844
G0 F12000 X162.75 Y145.06
G1 F1440 X162.14 Y145.67 E61.38976
G1 F2400 E60.88976
G0 F12000 X146.74 Y148.09
G1 F2400 E61.38976
G1 F1440 X146.65 Y148.13 E61.39355
G1 X146.37 Y148.12 E61.39941
G1 X145.72 Y148.26 E61.41090
G1 X145.13 Y148.52 E61.42239
G1 X145.10 Y148.26 E61.43396
G1 X144.29 Y148.56 E61.44548
G1 X143.70 Y148.82 E61.45694
G1 X143.66 Y148.57 E61.46843
G1 X142.86 Y148.87 E61.47989
G1 X142.26 Y149.12 E61.49139
G1 X142.23 Y148.87 E61.50285
G1 X141.43 Y149.17 E61.51430
G1 X140.83 Y149.43 E61.52574
G1 X140.79 Y149.18 E61.53718
G1 X139.99 Y149.48 E61.54866
G1 X139.39 Y149.73 E61.56008
G1 X139.36 Y149.48 E61.57153
G1 X138.56 Y149.78 E61.58293
G1 X137.96 Y150.04 E61.59434
G1 X138.20 Y149.73 E61.60413
;LAYER:2
M106 S25
G0 F12000 X137.90 Y149.64 Z0.50
;TYPE:WALL-INNER
G1 F2040 X138.49 Y149.52 E61.61909
G1 X139.16 Y149.38 E61.63620
G1 X140.57 Y149.08 E61.67207
G1 X143.91 Y148.37 E61.75695
G1 X144.48 Y148.25 E61.77148
G1 X146.48 Y147.82 E61.82225
G1 X146.71 Y147.91 E61.82838
G1 X146.97 Y147.94 E61.83498
G1 X147.27 Y147.93 E61.84249
G1 X147.39 Y147.88 E61.84572
G1 X147.36 Y148.19 E61.85353
G1 X150.62 Y147.49 E61.93649
G1 X163.72 Y144.71 E62.26964
G1 X163.74 Y145.21 E62.28210
G1 X168.04 Y144.30 E62.39155
G1 X168.90 Y144.12 E62.41332
G1 X172.95 Y143.26 E62.51639
G1 X173.40 Y143.16 E62.52784
G1 X173.63 Y143.15 E62.53367
G1 X173.99 Y143.19 E62.54246
G1 X174.37 Y143.29 E62.55242
G1 X174.62 Y143.41 E62.55911
G1 X174.78 Y143.51 E62.56395
G1 X175.05 Y143.73 E62.57251
G1 X175.24 Y143.94 E62.57963
G1 X175.44 Y144.25 E62.58881
G1 X175.57 Y144.57 E62.59735
G1 X175.66 Y144.95 E62.60725
G1 X175.68 Y145.23 E62.61425
G1 X175.67 Y145.46 E62.61985
G1 X175.72 Y154.47 E62.84398
G1 X176.29 Y154.21 E62.85957
G1 X176.31 Y157.41 E62.93935
G1 X176.32 Y157.97 E62.95324
G1 X176.32 Y158.53 E62.96717
G1 X176.34 Y162.29 E63.06088
G1 X176.33 Y161.32 E63.08502
G1 X176.33 Y160.81 E63.09773
G1 X176.32 Y160.10 E63.11543
G1 X176.32 Y159.59 E63.12812
G1 X176.32 Y158.86 E63.14638
G1 X176.31 Y158.33 E63.15955
G1 X176.27 Y157.76 E63.17376
G1 X176.14 Y157.03 E63.19210
G1 X175.96 Y156.54 E63.20521
G1 X175.57 Y155.77 E63.22668
G1 X175.38 Y155.49 E63.23512
G1 X174.85 Y154.85 E63.25569
G1 X174.44 Y154.44 E63.27024
G1 X173.97 Y154.05 E63.28533
G1 X173.32 Y153.58 E63.30546
G1 X172.83 Y153.28 E63.31954
G1 X172.34 Y153.02 E63.33352
G1 X171.82 Y152.79 E63.34754
G1 X171.30 Y152.58 E63.36153
G1 X170.77 Y152.40 E63.37551
G1 X170.23 Y152.26 E63.38947
G1 X169.65 Y152.14 E63.40408
G1 X168.87 Y152.04 E63.42361
G1 X168.27 Y152.02 E63.43870
G1 X167.49 Y152.07 E63.45797
G1 X166.88 Y152.19 E63.47361
G1 X166.24 Y152.38 E63.49022
G1 X165.60 Y152.70 E63.50786
G1 X165.17 Y152.99 E63.52072
G1 X155.63 Y162.42 E63.85467
G1 X161.25 Y156.86 E64.05147
G1 X162.86 Y155.27 E64.10780
G1 X164.54 Y153.60 E64.16663
G1 X165.76 Y152.40 E64.20916
G1 X164.83 Y151.29 E64.24521
G1 X164.50 Y150.88 E64.25829
G1 X163.91 Y150.03 E64.28391
G1 X163.39 Y149.17 E64.30899
G1 X163.15 Y148.72 E64.32184
G1 X162.53 Y147.44 E64.35713
G1 X161.13 Y147.99 E64.39447
G1 X159.77 Y148.52 E64.43087
G1 X159.21 Y148.74 E64.44574
G1 X128.63 Y160.74 E65.26323
G1 X137.60 Y157.22 E65.50299
G1 X138.07 Y157.03 E65.51568
G1 X146.52 Y153.71 E65.74161
G1 X147.19 Y153.45 E65.75939
G1 X159.75 Y148.52 E66.09514
G1 X160.47 Y148.24 E66.11428
G1 X162.52 Y147.43 E66.16927
G1 X161.83 Y145.12 E66.22932
G1 X160.39 Y145.43 E66.26596
G1 X159.73 Y145.57 E66.28275
G1 X128.57 Y152.18 E67.07521
G1 X134.25 Y150.97 E67.21971
G1 X134.81 Y150.85 E67.23376
G1 X135.34 Y150.74 E67.24725
G1 X136.95 Y150.40 E67.28828
G1 X136.81 Y150.12 E67.29619
G1 X136.93 Y150.11 E67.29915
G1 X137.29 Y150.00 E67.30859
G1 X137.65 Y149.76 E67.31937
G1 X137.69 Y149.69 E67.32153
G1 X137.90 Y149.64 E67.32683
G1 F2400 E66.82683
G0 F12000 X169.70 Y147.14
G1 F2400 E67.32683
G1 F2040 X169.75 Y147.58 E67.33806
G1 X169.94 Y148.08 E67.35118
G1 X170.32 Y148.58 E67.36691
G1 X170.72 Y148.88 E67.37944
G1 X171.21 Y149.08 E67.39237
G1 X171.55 Y149.14 E67.40114
G1 X171.83 Y149.15 E67.40794
G1 X172.28 Y149.09 E67.41944
G1 X172.79 Y148.87 E67.43321
G1 X173.22 Y148.54 E67.44673
G1 X173.59 Y148.03 E67.46219
G1 X173.75 Y147.57 E67.47447
G1 X173.80 Y147.26 E67.48222
G1 X173.80 Y147.02 E67.48834
G1 X173.72 Y146.49 E67.50165
G1 X173.45 Y145.95 E67.51664
G1 X173.14 Y145.59 E67.52850
G1 X173.01 Y145.48 E67.53263
G1 X172.68 Y145.27 E67.54253
G1 X172.15 Y145.09 E67.55640
G1 X171.75 Y145.05 E67.56638
G1 X171.57 Y145.06 E67.57074
G1 X171.16 Y145.13 E67.58131
G1 X170.65 Y145.37 E67.59520
G1 X170.34 Y145.60 E67.60478
G1 X170.03 Y145.99 E67.61729
G1 X169.89 Y146.24 E67.62438
G1 X169.80 Y146.46 E67.63023
G1 X169.72 Y146.80 E67.63876
G1 X169.70 Y147.03 E67.64473
G1 X169.70 Y147.08 E67.64590
G1 X169.70 Y147.14 E67.64724
G0 F12000 X170.10 Y147.12
G1 F2040 X170.15 Y147.49 E67.65642
G1 X170.29 Y147.88 E67.66688
G1 X170.61 Y148.29 E67.67977
G1 X170.92 Y148.53 E67.68964
G1 X171.32 Y148.69 E67.70023
G1 X171.60 Y148.74 E67.70726
G1 X171.81 Y148.75 E67.71247
G1 X172.18 Y148.70 E67.72183
G1 X172.59 Y148.53 E67.73299
G1 X172.93 Y148.26 E67.74375
G1 X173.23 Y147.85 E67.75638
G1 X173.36 Y147.47 E67.76629
G1 X173.40 Y147.23 E67.77245
G1 X173.40 Y147.04 E67.77703
G1 X173.33 Y146.61 E67.78799
G1 X173.12 Y146.17 E67.80014
G1 X172.86 Y145.88 E67.80992
G1 X172.50 Y145.63 E67.82077
G1 X172.07 Y145.48 E67.83214
G1 X171.74 Y145.45 E67.84028
G1 X171.62 Y145.46 E67.84337
G1 X171.28 Y145.52 E67.85199
G1 X170.86 Y145.71 E67.86345
G1 X170.62 Y145.89 E67.87079
G1 X170.36 Y146.22 E67.88125
G1 X170.19 Y146.58 E67.89130
G1 X170.12 Y146.86 E67.89842
G1 X170.10 Y147.04 E67.90301
G1 X170.10 Y147.08 E67.90399
G1 X170.10 Y147.12 E67.90496
G1 F2400 E67.40496
G0 F12000 X172.85 Y142.87
G1 F2400 E67.90496
G1 F2040 X172.92 Y142.85 E67.90673
G1 X173.35 Y142.77 E67.91769
G1 X173.65 Y142.75 E67.92504
G1 X174.06 Y142.79 E67.93526
G1 X174.52 Y142.92 E67.94717
G1 X174.82 Y143.06 E67.95554
G1 X175.01 Y143.18 E67.96103
G1 X175.32 Y143.44 E67.97118
G1 X175.56 Y143.70 E67.98006
G1 X175.79 Y144.06 E67.99055
G1 X175.95 Y144.44 E68.00098
G1 X176.06 Y144.93 E68.01330
G1 X176.08 Y145.23 E68.02093
G1 X176.07 Y145.47 E68.02678
G1 X176.12 Y153.85 E68.23528
G1 X176.69 Y153.59 E68.25085
G1 X176.74 Y162.69 E68.47744
G1 X175.94 Y162.70 E68.49742
G1 X175.94 Y162.06 E68.51332
G1 X175.93 Y161.33 E68.53146
G1 X175.93 Y160.82 E68.54415
G1 X175.93 Y160.10 E68.56189
G1 X175.92 Y159.60 E68.57456
G1 X175.92 Y158.86 E68.59278
G1 X175.91 Y158.35 E68.60564
G1 X175.87 Y157.81 E68.61906
G1 X175.75 Y157.14 E68.63605
G1 X175.60 Y156.69 E68.64772
G1 X175.22 Y155.97 E68.66790
G1 X175.06 Y155.73 E68.67529
G1 X174.56 Y155.12 E68.69486
G1 X174.17 Y154.73 E68.70858
G1 X173.73 Y154.37 E68.72273
G1 X173.10 Y153.91 E68.74215
G1 X172.63 Y153.63 E68.75558
G1 X172.16 Y153.38 E68.76899
G1 X171.67 Y153.15 E68.78246
G1 X171.16 Y152.95 E68.79592
G1 X170.65 Y152.78 E68.80932
G1 X170.13 Y152.65 E68.82269
G1 X169.59 Y152.53 E68.83659
G1 X168.84 Y152.44 E68.85529
G1 X168.27 Y152.42 E68.86946
G1 X167.54 Y152.47 E68.88767
G1 X166.97 Y152.57 E68.90211
G1 X166.39 Y152.76 E68.91737
G1 X165.80 Y153.04 E68.93354
G1 X165.43 Y153.30 E68.94481
G1 X155.79 Y162.82 E69.28189
G1 X154.65 Y162.83 E69.31048
G1 X164.26 Y153.32 E69.64697
G1 X165.22 Y152.38 E69.68035
G1 X164.52 Y151.55 E69.70712
G1 X164.20 Y151.14 E69.72027
G1 X163.88 Y150.70 E69.73374
G1 X163.58 Y150.26 E69.74695
G1 X163.31 Y149.83 E69.75956
G1 X163.04 Y149.36 E69.77307
G1 X162.80 Y148.90 E69.78595
G1 X162.33 Y147.95 E69.81243
G1 X161.28 Y148.36 E69.84064
G1 X128.23 Y161.33 E70.72385
G1 X128.23 Y160.68 E70.73987
G1 X128.23 Y160.47 E70.74525
G1 X137.45 Y156.84 E70.99182
G1 X137.93 Y156.66 E71.00449
G1 X162.03 Y147.20 E71.64893
G1 X161.55 Y145.59 E71.69073
G1 X160.47 Y145.81 E71.71821
G1 X159.81 Y145.96 E71.73498
G1 X128.18 Y152.67 E72.53965
G1 X128.17 Y151.85 E72.56003
G1 X134.17 Y150.58 E72.71264
G1 X134.72 Y150.46 E72.72665
G1 X135.26 Y150.35 E72.74021
G1 X136.36 Y150.12 E72.76815
G1 X135.88 Y149.18 E72.79423
G1 X135.72 Y148.45 E72.81298
G1 X135.63 Y148.00 E72.82430
G1 X135.63 Y147.99 E72.82465
G1 X135.63 Y147.97 E72.82493
G1 X135.63 Y147.93 E72.82592
G1 X135.68 Y147.67 E72.83270
G1 X135.74 Y147.53 E72.83636
G1 X135.90 Y147.32 E72.84282
G1 X136.04 Y147.21 E72.84737
G1 X135.92 Y147.31 E72.85118
G1 X135.78 Y147.51 E72.85735
G1 X135.71 Y147.69 E72.86205
G1 X135.68 Y147.97 E72.86911
G1 X135.76 Y148.24 E72.87605
G1 X135.85 Y148.40 E72.88075
G1 X135.97 Y148.51 E72.88473
G1 X135.96 Y148.53 E72.88531
G1 X135.91 Y148.68 E72.88914
G1 X135.88 Y148.88 E72.89409
G1 X135.94 Y149.20 E72.90232
G1 X136.05 Y149.39 E72.90778
G1 X136.23 Y149.56 E72.91399
G1 X136.40 Y149.65 E72.91859
G1 X136.55 Y149.70 E72.92273
G1 X136.70 Y149.72 E72.92631
G1 X136.86 Y149.72 E72.93044
G1 X137.12 Y149.64 E72.93701
G1 X137.36 Y149.47 E72.94432
G1 X137.45 Y149.33 E72.94858
G1 X138.41 Y149.13 E72.97292
G1 X139.08 Y148.99 E72.98998
G1 X141.12 Y148.55 E73.04180
G1 X143.83 Y147.98 E73.11070
G1 X144.40 Y147.86 E73.12523
G1 X146.53 Y147.40 E73.17959
G1 X146.58 Y147.44 E73.18091
G1 X146.80 Y147.52 E73.18693
G1 X146.98 Y147.54 E73.19136
G1 X147.18 Y147.53 E73.19634
G1 X147.50 Y147.40 E73.20506
G1 X147.72 Y147.18 E73.21272
G1 X147.84 Y146.93 E73.21952
G1 X147.88 Y146.73 E73.22468
G1 X147.85 Y146.46 E73.23135
G1 X147.73 Y146.21 E73.23813
G1 X147.60 Y146.06 E73.24317
G1 X147.66 Y145.90 E73.24753
G1 X147.68 Y145.73 E73.25178
G1 X147.65 Y145.47 E73.25828
G1 X147.52 Y145.19 E73.26584
G1 X147.29 Y144.99 E73.27343
G1 X147.22 Y144.96 E73.27543
G1 X147.17 Y144.93 E73.27692
G1 X147.01 Y144.88 E73.28094
G1 X146.84 Y144.85 E73.28536
G1 X146.60 Y144.89 E73.29137
G1 X146.70 Y144.86 E73.29406
G1 X146.86 Y144.85 E73.29801
G1 X147.08 Y144.88 E73.30342
G1 X147.31 Y144.97 E73.30957
G1 X147.46 Y145.07 E73.31401
G1 X147.55 Y145.16 E73.31740
G1 X147.65 Y145.33 E73.32218
G1 X147.71 Y145.46 E73.32585
G1 X147.80 Y145.92 E73.33738
G1 X147.90 Y146.40 E73.34962
G1 X147.93 Y146.61 E73.35500
G1 X147.93 Y146.64 E73.35569
G1 X147.81 Y147.68 E73.38172
G1 X164.09 Y144.23 E73.79579
G1 X164.12 Y144.73 E73.80825
G1 X172.85 Y142.87 E74.03043
G1 F2400 E73.53043
G0 F12000 X146.58 Y144.89
G1 F2400 E74.03043
G1 F2040 X146.33 Y145.00 E74.03717
G1 X146.12 Y145.21 E74.04456
G1 X146.09 Y145.25 E74.04567
G1 X145.84 Y145.30 E74.05222
G1 X145.72 Y145.28 E74.05523
G1 X145.70 Y145.26 E74.05576
G1 X145.68 Y145.21 E74.05731
G1 X145.69 Y145.15 E74.05881
G1 X145.74 Y145.09 E74.06073
G1 X145.77 Y145.07 E74.06156
G1 X145.81 Y145.05 E74.06251
G1 X146.24 Y144.96 E74.07344
G1 X146.58 Y144.89 E74.08210
G1 F2400 E73.58210
G0 F12000 X137.40 Y146.95
G1 F2400 E74.08210
G1 F2040 X137.38 Y147.05 E74.08467
G1 X137.34 Y147.09 E74.08607
G1 X137.02 Y147.18 E74.09427
G1 X136.90 Y147.10 E74.09780
G1 X136.73 Y147.05 E74.10207
G1 X136.53 Y147.03 E74.10715
G1 X136.29 Y147.09 E74.11327
G1 X136.81 Y146.96 E74.12650
G1 X137.25 Y146.87 E74.13787
G1 X137.32 Y146.88 E74.13943
G1 X137.36 Y146.90 E74.14048
G1 X137.38 Y146.91 E74.14121
G1 X137.40 Y146.95 E74.14226
G0 F12000 X137.77 Y146.80
;TYPE:WALL-OUTER
G1 F2040 X137.80 Y146.88 E74.14439
G1 X137.81 Y146.96 E74.14634
G1 X137.76 Y147.20 E74.15242
G1 X137.71 Y147.28 E74.15463
G1 X137.60 Y147.40 E74.15877
G1 X137.51 Y147.45 E74.16134
G1 X137.25 Y147.54 E74.16827
G1 X136.91 Y147.60 E74.17673
G1 X136.85 Y147.54 E74.17888
G1 X136.73 Y147.47 E74.18237
G1 X136.65 Y147.44 E74.18451
G1 X136.55 Y147.44 E74.18699
G1 X136.36 Y147.48 E74.19184
G1 X136.22 Y147.58 E74.19623
G1 X136.13 Y147.70 E74.19986
G1 X136.10 Y147.78 E74.20208
G1 X136.09 Y147.93 E74.20586
G1 X136.13 Y148.08 E74.20967
G1 X136.17 Y148.16 E74.21185
G1 X136.27 Y148.25 E74.21530
G1 X136.35 Y148.30 E74.21763
G1 X136.44 Y148.33 E74.21976
G1 X136.47 Y148.50 E74.22420
G1 X136.47 Y148.51 E74.22450
G1 X136.41 Y148.56 E74.22642
G1 X136.36 Y148.62 E74.22836
G1 X136.32 Y148.70 E74.23041
G1 X136.28 Y148.87 E74.23481
G1 X136.32 Y149.06 E74.23958
G1 X136.37 Y149.14 E74.24200
G1 X136.47 Y149.24 E74.24559
G1 X136.55 Y149.28 E74.24787
G1 X136.64 Y149.31 E74.25007
G1 X136.71 Y149.32 E74.25200
G1 X136.80 Y149.32 E74.25411
G1 X136.94 Y149.28 E74.25780
G1 X137.07 Y149.19 E74.26170
G1 X137.17 Y149.04 E74.26602
G1 X137.19 Y148.98 E74.26760
G1 X137.73 Y148.86 E74.28146
G1 X146.65 Y146.97 E74.50837
G1 X146.69 Y147.03 E74.51005
G1 X146.77 Y147.08 E74.51248
G1 X146.90 Y147.13 E74.51593
G1 X146.99 Y147.14 E74.51816
G1 X147.09 Y147.14 E74.52063
G1 X147.28 Y147.06 E74.52573
G1 X147.39 Y146.94 E74.52971
G1 X147.46 Y146.81 E74.53346
G1 X147.47 Y146.71 E74.53594
G1 X147.46 Y146.57 E74.53949
G1 X147.40 Y146.43 E74.54317
G1 X147.33 Y146.36 E74.54559
G1 X147.20 Y146.27 E74.54956
G1 X147.17 Y146.27 E74.55039
G1 X147.13 Y146.25 E74.55125
G1 X147.09 Y146.06 E74.55614
G1 X147.15 Y146.01 E74.55813
G1 X147.24 Y145.89 E74.56186
G1 X147.27 Y145.80 E74.56412
G1 X147.28 Y145.72 E74.56625
G1 X147.26 Y145.58 E74.56975
G1 X147.19 Y145.44 E74.57367
G1 X147.07 Y145.33 E74.57770
G1 X146.93 Y145.27 E74.58170
G1 X146.84 Y145.26 E74.58391
G1 X146.69 Y145.28 E74.58753
G1 X146.56 Y145.34 E74.59124
G1 X146.44 Y145.45 E74.59520
G1 X146.37 Y145.60 E74.59928
G1 X145.85 Y145.71 E74.61262
G1 X145.81 Y145.71 E74.61347
G1 X145.58 Y145.66 E74.61947
G1 X145.50 Y145.61 E74.62179
G1 X145.38 Y145.50 E74.62560
G1 X145.33 Y145.41 E74.62827
G1 X145.28 Y145.27 E74.63201
G1 X145.28 Y145.18 E74.63423
G1 X145.31 Y145.02 E74.63840
G1 X145.36 Y144.93 E74.64091
G1 X145.47 Y144.79 E74.64543
G1 X145.58 Y144.71 E74.64872
G1 X145.69 Y144.67 E74.65152
G1 X146.15 Y144.57 E74.66337
G1 X146.65 Y144.47 E74.67589
G1 X146.87 Y144.45 E74.68143
G1 X147.18 Y144.49 E74.68913
G1 X147.49 Y144.61 E74.69762
G1 X147.72 Y144.76 E74.70429
G1 X147.87 Y144.92 E74.70971
G1 X148.01 Y145.15 E74.71649
G1 X148.09 Y145.35 E74.72202
G1 X148.29 Y146.33 E74.74672
G1 X148.32 Y146.58 E74.75301
G1 X148.33 Y146.63 E74.75423
G1 X148.33 Y146.66 E74.75510
G1 X148.27 Y147.18 E74.76801
G1 X164.47 Y143.74 E75.18004
G1 X164.49 Y144.24 E75.19247
G1 X172.75 Y142.49 E75.40257
G1 X172.82 Y142.47 E75.40430
G1 X173.29 Y142.37 E75.41625
G1 X173.66 Y142.35 E75.42542
G1 X174.13 Y142.40 E75.43721
G1 X174.62 Y142.53 E75.44998
G1 X175.00 Y142.71 E75.46039
G1 X175.25 Y142.86 E75.46749
G1 X175.60 Y143.15 E75.47881
G1 X175.88 Y143.46 E75.48917
G1 X176.15 Y143.87 E75.50152
G1 X176.33 Y144.32 E75.51349
G1 X176.46 Y144.89 E75.52807
G1 X176.48 Y145.23 E75.53659
G1 X176.47 Y145.48 E75.54272
G1 X176.51 Y153.22 E75.73554
G1 X177.08 Y152.97 E75.75108
G1 X177.15 Y163.09 E76.00295
G1 X175.54 Y163.10 E76.04279
G1 X175.52 Y158.87 E76.14802
G1 X175.51 Y158.36 E76.16059
G1 X175.47 Y157.86 E76.17321
G1 X175.36 Y157.24 E76.18889
G1 X175.23 Y156.85 E76.19908
G1 X174.88 Y156.18 E76.21795
G1 X174.74 Y155.97 E76.22428
G1 X174.26 Y155.39 E76.24286
G1 X173.90 Y155.02 E76.25578
G1 X173.49 Y154.68 E76.26897
G1 X172.88 Y154.25 E76.28770
G1 X172.44 Y153.98 E76.30047
G1 X171.98 Y153.74 E76.31332
G1 X171.51 Y153.52 E76.32624
G1 X171.03 Y153.33 E76.33914
G1 X170.54 Y153.17 E76.35199
G1 X170.04 Y153.03 E76.36475
G1 X169.52 Y152.93 E76.37798
G1 X168.81 Y152.84 E76.39586
G1 X168.28 Y152.82 E76.40908
G1 X167.59 Y152.87 E76.42621
G1 X167.07 Y152.96 E76.43946
G1 X166.53 Y153.13 E76.45337
G1 X166.00 Y153.39 E76.46809
G1 X165.68 Y153.61 E76.47775
G1 X155.96 Y163.22 E76.81793
G1 X153.67 Y163.23 E76.87496
G1 X164.67 Y152.35 E77.26005
G1 X164.21 Y151.80 E77.27797
G1 X163.87 Y151.37 E77.29150
G1 X163.56 Y150.93 E77.30495
G1 X163.25 Y150.48 E77.31851
G1 X162.97 Y150.02 E77.33195
G1 X162.70 Y149.56 E77.34532
G1 X162.45 Y149.09 E77.35838
G1 X162.13 Y148.45 E77.37623
G1 X127.84 Y161.91 E78.29297
G1 X127.83 Y160.19 E78.33567
G1 X161.55 Y146.96 E79.23703
G1 X161.28 Y146.05 E79.26054
G1 X127.78 Y153.16 E80.11249
G1 X127.77 Y151.53 E80.15313
G1 X135.76 Y149.83 E80.35635
G1 X135.50 Y149.33 E80.37045
G1 X135.33 Y148.53 E80.39090
G1 X135.24 Y148.04 E80.40305
G1 X135.23 Y147.99 E80.40454
G1 X135.24 Y147.97 E80.40494
G1 X135.23 Y147.95 E80.40549
G1 X135.24 Y147.90 E80.40661
G1 X135.30 Y147.55 E80.41541
G1 X135.39 Y147.33 E80.42150
G1 X135.60 Y147.05 E80.43016
G1 X135.80 Y146.88 E80.43673
G1 X136.18 Y146.69 E80.44709
G1 X136.73 Y146.57 E80.46112
G1 X137.22 Y146.47 E80.47364
G1 X137.26 Y146.47 E80.47469
G1 X137.42 Y146.49 E80.47875
G1 X137.58 Y146.56 E80.48290
G1 X137.68 Y146.65 E80.48644
G1 X137.77 Y146.80 E80.49072
G1 F2400 E79.99072
G0 F12000 X170.50 Y147.11
G1 F2400 E80.49072
G1 F2040 X170.53 Y147.39 E80.49784
G1 X170.65 Y147.69 E80.50562
G1 X170.89 Y148.01 E80.51571
G1 X171.12 Y148.18 E80.52292
G1 X171.43 Y148.31 E80.53118
G1 X171.64 Y148.35 E80.53644
G1 X171.78 Y148.35 E80.54007
G1 X172.07 Y148.31 E80.54728
G1 X172.39 Y148.18 E80.55584
G1 X172.64 Y147.98 E80.56384
G1 X172.87 Y147.66 E80.57363
G1 X172.97 Y147.38 E80.58119
G1 X173.00 Y147.19 E80.58572
G1 X173.00 Y147.07 E80.58880
G1 X172.95 Y146.73 E80.59737
G1 X172.78 Y146.40 E80.60666
G1 X172.58 Y146.16 E80.61438
G1 X172.53 Y146.12 E80.61588
G1 X172.32 Y145.99 E80.62208
G1 X171.99 Y145.87 E80.63098
G1 X171.73 Y145.85 E80.63724
G1 X171.66 Y145.86 E80.63908
G1 X171.40 Y145.90 E80.64573
G1 X171.07 Y146.06 E80.65477
G1 X170.91 Y146.18 E80.65988
G1 X170.69 Y146.44 E80.66829
G1 X170.57 Y146.70 E80.67547
G1 X170.51 Y146.93 E80.68118
G1 X170.50 Y147.06 E80.68440
G1 X170.50 Y147.07 E80.68490
G1 X170.50 Y147.11 E80.68577
G0 F12000 X169.58 Y147.29
;TYPE:FILL
G1 F2040 X166.96 Y144.67 E80.77787
G0 F12000 X167.43 Y144.57
G1 F2040 X169.59 Y146.74 E80.85409
G0 F12000 X169.72 Y146.30
G1 F2040 X167.89 Y144.47 E80.91831
G0 F12000 X168.36 Y144.38
G1 F2040 X169.90 Y145.92 E80.97273
G0 F12000 X170.16 Y145.61
G1 F2040 X168.82 Y144.28 E81.01967
G0 F12000 X169.29 Y144.18
G1 F2040 X170.45 Y145.34 E81.06061
G0 F12000 X170.81 Y145.14
G1 F2040 X169.75 Y144.08 E81.09786
G0 F12000 X170.22 Y143.98
G1 F2040 X171.22 Y144.98 E81.13302
G0 F12000 X171.72 Y144.91
G1 F2040 X170.69 Y143.88 E81.16930
G0 F12000 X171.15 Y143.78
G1 F2040 X172.38 Y145.02 E81.21270
G0 F12000 X172.08 Y143.59
G1 F2040 X175.54 Y147.04 E81.33432
G0 F12000 X175.54 Y147.61
G1 F2040 X171.62 Y143.69 E81.47244
G0 F12000 X172.55 Y143.49
G1 F2040 X175.53 Y146.47 E81.57756
G0 F12000 X175.53 Y145.91
G1 F2040 X173.01 Y143.39 E81.66619
G0 F12000 X173.49 Y143.30
G1 F2040 X175.53 Y145.35 E81.73819
G0 F12000 X175.46 Y144.71
G1 F2040 X174.12 Y143.37 E81.78541
G1 F2400 E81.28541
G0 F12000 X173.86 Y146.49
G1 F2400 E81.78541
G1 F2040 X175.54 Y148.18 E81.84472
G0 F12000 X175.55 Y148.75
G1 F2040 X173.94 Y147.13 E81.90141
G0 F12000 X173.87 Y147.64
G1 F2040 X175.55 Y149.31 E81.96043
G0 F12000 X175.55 Y149.88
G1 F2040 X173.72 Y148.05 E82.02481
G0 F12000 X173.50 Y148.39
G1 F2040 X175.56 Y150.45 E82.09721
G0 F12000 X175.56 Y151.02
G1 F2040 X173.25 Y148.70 E82.17871
G0 F12000 X172.93 Y148.95
G1 F2040 X175.56 Y151.58 E82.27150
G0 F12000 X175.57 Y152.15
G1 F2040 X172.55 Y149.13 E82.37783
G0 F12000 X172.11 Y149.25
G1 F2040 X175.57 Y152.72 E82.49974
G0 F12000 X175.57 Y153.29
G1 F2040 X171.57 Y149.28 E82.64064
G0 F12000 X170.78 Y149.06
G1 F2040 X175.58 Y153.85 E82.80951
G0 F12000 X175.58 Y154.42
G1 F2040 X166.03 Y144.87 E83.14559
G0 F12000 X166.50 Y144.77
G1 F2040 X169.78 Y148.06 E83.26126
G1 F2400 E82.76126
G0 F12000 X169.14 Y151.93
G1 F2400 E83.26126
G1 F2040 X162.35 Y145.15 E83.50016
G0 F12000 X162.06 Y145.42
G1 F2040 X168.53 Y151.89 E83.72794
G0 F12000 X167.98 Y151.90
G1 F2040 X162.30 Y146.22 E83.92768
G0 F12000 X162.55 Y147.03
G1 F2040 X167.45 Y151.94 E84.10034
G0 F12000 X166.98 Y152.02
G1 F2040 X162.96 Y148.01 E84.24169
G0 F12000 X163.55 Y149.16
G1 F2040 X166.53 Y152.14 E84.34663
G0 F12000 X166.11 Y152.29
G1 F2040 X164.60 Y150.78 E84.39983
G1 F2400 E83.89983
G0 F12000 X165.40 Y152.39
G1 F2400 E84.39983
G1 F2040 X165.57 Y152.56 E84.40562
G0 F12000 X169.80 Y152.03
G1 F2040 X162.82 Y145.05 E84.65121
G0 F12000 X163.29 Y144.95
G1 F2040 X163.60 Y145.26 E84.66229
G0 F12000 X163.70 Y145.36
G1 F2040 X170.53 Y152.19 E84.90260
G0 F12000 X171.35 Y152.45
G1 F2040 X164.17 Y145.26 E85.15533
G0 F12000 X164.63 Y145.17
G1 F2040 X172.33 Y152.87 E85.42635
G1 F2400 E84.92635
G0 F12000 X173.74 Y153.71
G1 F2400 E85.42635
G1 F2040 X165.10 Y145.07 E85.73038
G0 F12000 X165.56 Y144.97
G1 F2040 X176.16 Y155.56 E86.10323
G0 F12000 X175.60 Y155.57
G1 F2040 X176.16 Y156.13 E86.12308
G0 F12000 X176.16 Y155.00
G1 F2040 X175.76 Y154.60 E86.13700
G1 F2400 E85.63700
G0 F12000 X146.76 Y148.17
G1 F2400 E86.13700
G1 F2040 X146.57 Y148.13 E86.14204
G1 X146.19 Y148.03 E86.14975
G1 X146.06 Y148.32 E86.15748
G1 X145.49 Y148.18 E86.16521
G1 X145.48 Y148.44 E86.17295
G1 X145.02 Y148.41 E86.18067
G1 X144.56 Y148.37 E86.18840
G1 X144.55 Y148.64 E86.19614
G1 X144.09 Y148.61 E86.20388
G1 X143.63 Y148.57 E86.21160
G1 X143.61 Y148.84 E86.21934
G1 X143.16 Y148.80 E86.22707
G1 X142.69 Y148.77 E86.23480
G1 X142.68 Y149.04 E86.24254
G1 X142.23 Y149.00 E86.25028
G1 X141.76 Y148.97 E86.25805
G1 X141.75 Y149.24 E86.26579
G1 X141.30 Y149.20 E86.27351
G1 X140.83 Y149.16 E86.28122
G1 X140.82 Y149.43 E86.28895
G1 X140.37 Y149.40 E86.29669
G1 X139.90 Y149.36 E86.30443
G1 X139.89 Y149.63 E86.31217
G1 X139.44 Y149.59 E86.31992
G1 X138.97 Y149.56 E86.32764
G1 X138.95 Y149.83 E86.33539
G1 X138.50 Y149.79 E86.34313
G1 X138.03 Y149.76 E86.35083
G1 X138.02 Y150.03 E86.35861
G1 X137.74 Y149.87 E86.36676
;LAYER:3
M106 S38
G0 F12000 X137.73 Y149.68 Z0.65
;TYPE:WALL-INNER
G1 F2640 X140.06 Y149.18 E86.42589
G1 X140.72 Y149.04 E86.44272
G1 X142.01 Y148.76 E86.47561
G1 X143.05 Y148.54 E86.50210
G1 X144.70 Y148.19 E86.54396
G1 X146.50 Y147.81 E86.58982
G1 X146.85 Y147.92 E86.59900
G1 X147.11 Y147.93 E86.60543
G1 X147.43 Y147.87 E86.61346
G1 X147.40 Y148.18 E86.62117
G1 X149.46 Y147.74 E86.67371
G1 X150.62 Y147.49 E86.70314
G1 X155.18 Y146.53 E86.81905
G1 X160.84 Y145.32 E86.96306
G1 X163.73 Y144.71 E87.03657
G1 X163.75 Y145.21 E87.04905
G1 X172.92 Y143.27 E87.28230
G1 X173.35 Y143.17 E87.29335
G1 X173.63 Y143.15 E87.30026
G1 X174.00 Y143.19 E87.30959
G1 X174.25 Y143.25 E87.31576
G1 X174.52 Y143.35 E87.32299
G1 X174.74 Y143.48 E87.32925
G1 X175.01 Y143.69 E87.33799
G1 X175.26 Y143.95 E87.34679
G1 X175.44 Y144.23 E87.35506
G1 X175.58 Y144.57 E87.36427
G1 X175.67 Y144.98 E87.37469
G1 X175.69 Y145.20 E87.38030
G1 X175.67 Y145.48 E87.38722
G1 X175.70 Y148.83 E87.47058
G1 X175.70 Y149.65 E87.49106
G1 X175.73 Y154.47 E87.61082
G1 X176.29 Y154.21 E87.62613
G1 X176.31 Y157.97 E87.71967
G1 X176.32 Y159.09 E87.74751
G1 X176.34 Y162.29 E87.82733
G1 X176.33 Y162.08 E87.83261
G1 X176.33 Y162.01 E87.83448
G1 X176.33 Y161.84 E87.83874
G1 X176.33 Y161.76 E87.84068
G1 X176.33 Y161.59 E87.84488
G1 X176.33 Y161.51 E87.84675
G1 X176.33 Y161.34 E87.85100
G1 X176.33 Y161.27 E87.85294
G1 X176.33 Y161.10 E87.85713
G1 X176.33 Y161.02 E87.85907
G1 X176.32 Y160.85 E87.86325
G1 X176.33 Y160.78 E87.86511
G1 X176.32 Y160.61 E87.86937
G1 X176.32 Y160.53 E87.87131
G1 X176.32 Y160.36 E87.87552
G1 X176.32 Y160.28 E87.87738
G1 X176.32 Y160.11 E87.88164
G1 X176.32 Y160.03 E87.88358
G1 X176.32 Y159.87 E87.88776
G1 X176.32 Y159.79 E87.88963
G1 X176.32 Y159.62 E87.89388
G1 X176.32 Y159.54 E87.89582
G1 X176.32 Y159.38 E87.90000
G1 X176.32 Y159.30 E87.90187
G1 X176.31 Y159.13 E87.90615
G1 X176.32 Y159.05 E87.90809
G1 X176.31 Y158.88 E87.91227
G1 X176.31 Y158.80 E87.91441
G1 X176.29 Y158.06 E87.93283
G1 X176.22 Y157.39 E87.94956
G1 X176.03 Y156.70 E87.96724
G1 X175.71 Y156.01 E87.98621
G1 X175.40 Y155.52 E88.00063
G1 X175.32 Y155.42 E88.00376
G1 X174.85 Y154.85 E88.02228
G1 X174.43 Y154.43 E88.03694
G1 X173.99 Y154.06 E88.05117
G1 X173.76 Y153.88 E88.05854
G1 X173.24 Y153.53 E88.07415
G1 X172.75 Y153.24 E88.08817
G1 X172.25 Y152.98 E88.10221
G1 X171.74 Y152.75 E88.11631
G1 X171.21 Y152.55 E88.13037
G1 X170.67 Y152.38 E88.14440
G1 X170.13 Y152.24 E88.15837
G1 X169.58 Y152.13 E88.17231
G1 X168.87 Y152.04 E88.19006
G1 X168.30 Y152.02 E88.20423
G1 X167.64 Y152.06 E88.22082
G1 X166.88 Y152.18 E88.23980
G1 X166.30 Y152.36 E88.25494
G1 X166.01 Y152.49 E88.26293
G1 X165.47 Y152.78 E88.27808
G1 X165.16 Y152.99 E88.28745
G1 X163.20 Y154.94 E88.35614
G1 X162.66 Y155.47 E88.37492
G1 X157.78 Y160.29 E88.54582
G1 X157.32 Y160.75 E88.56197
G1 X155.63 Y162.42 E88.62114
G1 X157.62 Y160.45 E88.69098
G1 X158.37 Y159.71 E88.71717
G1 X158.73 Y159.35 E88.72983
G1 X164.95 Y153.19 E88.94756
G1 X165.77 Y152.40 E88.97591
G1 X165.00 Y151.50 E89.00520
G1 X164.65 Y151.08 E89.01886
G1 X164.20 Y150.46 E89.03795
G1 X163.64 Y149.60 E89.06359
G1 X163.15 Y148.71 E89.08873
G1 X162.52 Y147.44 E89.12400
G1 X161.05 Y148.02 E89.16329
G1 X159.21 Y148.74 E89.21258
G1 X153.40 Y151.02 E89.36787
G1 X151.84 Y151.63 E89.40966
G1 X128.63 Y160.74 E90.02987
G1 X160.46 Y148.24 E90.88068
G1 X160.96 Y148.05 E90.89397
G1 X161.58 Y147.80 E90.91065
G1 X162.53 Y147.44 E90.93580
G1 X161.82 Y145.12 E90.99598
G1 X160.33 Y145.44 E91.03403
G1 X159.73 Y145.57 E91.04927
G1 X128.58 Y152.18 E91.84156
G1 X137.07 Y150.37 E92.05753
G1 X136.91 Y150.10 E92.06531
G1 X137.23 Y150.03 E92.07334
G1 X137.53 Y149.87 E92.08174
G1 X137.73 Y149.68 E92.08881
G1 F2400 E91.58881
G0 F12000 X169.70 Y147.10
G1 F2400 E92.08881
G1 F2640 X169.80 Y147.73 E92.10472
G1 X169.95 Y148.08 E92.11430
G1 X170.22 Y148.47 E92.12604
G1 X170.47 Y148.70 E92.13447
G1 X170.82 Y148.92 E92.14477
G1 X171.29 Y149.09 E92.15716
G1 X171.79 Y149.16 E92.16967
G1 X172.33 Y149.08 E92.18331
G1 X172.78 Y148.88 E92.19561
G1 X173.07 Y148.68 E92.20445
G1 X173.42 Y148.31 E92.21693
G1 X173.65 Y147.89 E92.22892
G1 X173.77 Y147.47 E92.23970
G1 X173.81 Y147.14 E92.24819
G1 X173.74 Y146.58 E92.26208
G1 X173.65 Y146.30 E92.26955
G1 X173.37 Y145.83 E92.28311
G1 X173.09 Y145.54 E92.29305
G1 X172.54 Y145.20 E92.30915
G1 X172.06 Y145.07 E92.32169
G1 X171.68 Y145.05 E92.33113
G1 X171.19 Y145.13 E92.34345
G1 X170.87 Y145.26 E92.35204
G1 X170.53 Y145.46 E92.36182
G1 X170.19 Y145.78 E92.37353
G1 X169.98 Y146.09 E92.38269
G1 X169.79 Y146.53 E92.39470
G1 X169.72 Y146.91 E92.40425
G1 X169.70 Y147.10 E92.40899
G0 F12000 X170.10 Y147.08
G1 F2640 X170.19 Y147.62 E92.42245
G1 X170.30 Y147.88 E92.42973
G1 X170.53 Y148.20 E92.43944
G1 X170.72 Y148.39 E92.44610
G1 X171.07 Y148.60 E92.45625
G1 X171.38 Y148.71 E92.46435
G1 X171.48 Y148.73 E92.46684
G1 X171.78 Y148.75 E92.47431
G1 X172.22 Y148.69 E92.48546
G1 X172.59 Y148.53 E92.49543
G1 X172.81 Y148.37 E92.50229
G1 X173.09 Y148.08 E92.51246
G1 X173.28 Y147.73 E92.52231
G1 X173.38 Y147.40 E92.53074
G1 X173.41 Y147.14 E92.53738
G1 X173.35 Y146.67 E92.54912
G1 X173.28 Y146.46 E92.55455
G1 X173.05 Y146.07 E92.56592
G1 X172.84 Y145.85 E92.57343
G1 X172.38 Y145.57 E92.58678
G1 X172.00 Y145.47 E92.59680
G1 X171.69 Y145.45 E92.60435
G1 X171.22 Y145.54 E92.61636
G1 X171.05 Y145.61 E92.62098
G1 X170.77 Y145.78 E92.62898
G1 X170.49 Y146.04 E92.63864
G1 X170.26 Y146.41 E92.64944
G1 X170.15 Y146.72 E92.65758
G1 X170.13 Y146.80 E92.65963
G1 X170.10 Y147.08 E92.66661
G1 F2400 E92.16661
G0 F12000 X172.84 Y142.88
G1 F2400 E92.66661
G1 F2640 X173.29 Y142.77 E92.67827
G1 X173.65 Y142.75 E92.68707
G1 X174.08 Y142.79 E92.69787
G1 X174.37 Y142.87 E92.70528
G1 X174.69 Y142.99 E92.71386
G1 X174.95 Y143.14 E92.72141
G1 X175.28 Y143.39 E92.73172
G1 X175.59 Y143.72 E92.74294
G1 X175.79 Y144.04 E92.75227
G1 X175.96 Y144.43 E92.76280
G1 X176.02 Y144.65 E92.76845
G1 X176.07 Y144.93 E92.77555
G1 X176.09 Y145.21 E92.78265
G1 X176.07 Y145.49 E92.78950
G1 X176.13 Y153.85 E92.99747
G1 X176.69 Y153.59 E93.01280
G1 X176.71 Y156.85 E93.09395
G1 X176.71 Y157.97 E93.12174
G1 X176.72 Y159.09 E93.14956
G1 X176.74 Y162.69 E93.23929
G1 X175.94 Y162.70 E93.25930
G1 X175.94 Y162.57 E93.26246
G1 X175.94 Y162.50 E93.26420
G1 X175.94 Y162.32 E93.26858
G1 X175.94 Y162.25 E93.27037
G1 X175.93 Y162.08 E93.27470
G1 X175.94 Y162.01 E93.27644
G1 X175.93 Y161.83 E93.28082
G1 X175.93 Y161.76 E93.28262
G1 X175.93 Y161.58 E93.28697
G1 X175.93 Y161.51 E93.28871
G1 X175.93 Y161.34 E93.29309
G1 X175.93 Y161.27 E93.29488
G1 X175.93 Y161.09 E93.29921
G1 X175.93 Y161.02 E93.30101
G1 X175.93 Y160.85 E93.30534
G1 X175.93 Y160.78 E93.30708
G1 X175.93 Y160.60 E93.31146
G1 X175.93 Y160.53 E93.31325
G1 X175.92 Y160.35 E93.31760
G1 X175.92 Y160.28 E93.31935
G1 X175.92 Y160.11 E93.32373
G1 X175.92 Y160.03 E93.32552
G1 X175.92 Y159.86 E93.32985
G1 X175.92 Y159.79 E93.33159
G1 X175.92 Y159.62 E93.33597
G1 X175.92 Y159.54 E93.33776
G1 X175.92 Y159.37 E93.34209
G1 X175.92 Y159.30 E93.34383
G1 X175.92 Y159.12 E93.34824
G1 X175.92 Y159.05 E93.35003
G1 X175.91 Y158.88 E93.35436
G1 X175.91 Y158.80 E93.35628
G1 X175.89 Y158.09 E93.37405
G1 X175.82 Y157.46 E93.38960
G1 X175.65 Y156.84 E93.40570
G1 X175.36 Y156.20 E93.42320
G1 X175.07 Y155.75 E93.43662
G1 X175.01 Y155.66 E93.43913
G1 X174.55 Y155.12 E93.45685
G1 X174.16 Y154.73 E93.47063
G1 X173.74 Y154.37 E93.48422
G1 X173.02 Y153.87 E93.50613
G1 X172.56 Y153.59 E93.51953
G1 X172.08 Y153.34 E93.53300
G1 X171.58 Y153.12 E93.54654
G1 X171.08 Y152.92 E93.56006
G1 X170.56 Y152.76 E93.57352
G1 X170.04 Y152.62 E93.58691
G1 X169.52 Y152.52 E93.60019
G1 X168.84 Y152.44 E93.61718
G1 X168.31 Y152.42 E93.63048
G1 X167.68 Y152.45 E93.64608
G1 X166.98 Y152.57 E93.66381
G1 X166.44 Y152.74 E93.67782
G1 X166.18 Y152.84 E93.68482
G1 X165.68 Y153.12 E93.69885
G1 X165.42 Y153.30 E93.70685
G1 X155.79 Y162.82 E94.04376
G1 X154.64 Y162.83 E94.07240
G1 X164.67 Y152.91 E94.42338
G1 X165.22 Y152.37 E94.44244
G1 X164.68 Y151.74 E94.46309
G1 X164.34 Y151.33 E94.47633
G1 X164.20 Y151.14 E94.48230
G1 X163.88 Y150.71 E94.49564
G1 X163.58 Y150.25 E94.50921
G1 X163.31 Y149.82 E94.52183
G1 X163.04 Y149.35 E94.53533
G1 X162.33 Y147.94 E94.57461
G1 X128.24 Y161.32 E95.48580
G1 X128.23 Y160.46 E95.50720
G1 X161.44 Y147.43 E96.39475
G1 X162.04 Y147.20 E96.41075
G1 X161.55 Y145.59 E96.45263
G1 X128.19 Y152.67 E97.30129
G1 X128.18 Y152.17 E97.31373
G1 X128.18 Y151.85 E97.32170
G1 X136.45 Y150.09 E97.53202
G1 X135.95 Y149.23 E97.55673
G1 X135.88 Y149.03 E97.56216
G1 X135.83 Y148.74 E97.56934
G1 X135.75 Y148.38 E97.57852
G1 X135.68 Y147.99 E97.58852
G1 X135.68 Y147.94 E97.58979
G1 X135.69 Y147.76 E97.59413
G1 X135.78 Y147.52 E97.60039
G1 X135.99 Y147.26 E97.60872
G1 X136.21 Y147.11 E97.61539
G1 X135.97 Y147.28 E97.62247
G1 X135.79 Y147.56 E97.63093
G1 X135.74 Y147.78 E97.63657
G1 X135.73 Y147.92 E97.64009
G1 X135.80 Y148.23 E97.64787
G1 X135.99 Y148.50 E97.65621
G1 X136.01 Y148.51 E97.65677
G1 X135.95 Y148.63 E97.66014
G1 X135.93 Y148.88 E97.66643
G1 X135.97 Y149.11 E97.67219
G1 X136.03 Y149.27 E97.67634
G1 X136.18 Y149.47 E97.68261
G1 X136.39 Y149.62 E97.68897
G1 X136.66 Y149.70 E97.69587
G1 X136.85 Y149.70 E97.70082
G1 X137.09 Y149.65 E97.70688
G1 X137.29 Y149.55 E97.71248
G1 X137.47 Y149.38 E97.71862
G1 X137.51 Y149.32 E97.72036
G1 X139.98 Y148.79 E97.78321
G1 X140.64 Y148.65 E97.79999
G1 X146.58 Y147.39 E97.95129
G1 X146.65 Y147.44 E97.95345
G1 X146.92 Y147.52 E97.96042
G1 X147.09 Y147.53 E97.96451
G1 X147.38 Y147.47 E97.97203
G1 X147.64 Y147.30 E97.97972
G1 X147.78 Y147.14 E97.98494
G1 X147.89 Y146.91 E97.99133
G1 X147.92 Y146.73 E97.99594
G1 X147.91 Y146.58 E97.99963
G1 X147.84 Y146.32 E98.00630
G1 X147.76 Y146.18 E98.01040
G1 X147.65 Y146.05 E98.01459
G1 X147.66 Y146.03 E98.01525
G1 X147.73 Y145.75 E98.02256
G1 X147.71 Y145.58 E98.02662
G1 X147.69 Y145.46 E98.02976
G1 X147.64 Y145.32 E98.03339
G1 X147.56 Y145.19 E98.03706
G1 X147.46 Y145.08 E98.04092
G1 X147.35 Y144.99 E98.04448
G1 X147.20 Y144.91 E98.04873
G1 X147.07 Y144.87 E98.05210
G1 X146.90 Y144.84 E98.05633
G1 X146.68 Y144.86 E98.06207
G1 X146.91 Y144.83 E98.06783
G1 X147.10 Y144.85 E98.07261
G1 X147.18 Y144.87 E98.07474
G1 X147.40 Y144.98 E98.08083
G1 X147.52 Y145.07 E98.08459
G1 X147.66 Y145.24 E98.09005
G1 X147.76 Y145.49 E98.09688
G1 X147.86 Y145.99 E98.10935
G1 X147.96 Y146.48 E98.12179
G1 X147.97 Y146.56 E98.12389
G1 X147.97 Y146.63 E98.12555
G1 X147.85 Y147.67 E98.15170
G1 X149.38 Y147.35 E98.19045
G1 X164.10 Y144.22 E98.56494
G1 X164.13 Y144.72 E98.57742
G1 X172.84 Y142.88 E98.79897
G1 F2400 E98.29897
G0 F12000 X146.59 Y144.88
G1 F2400 E98.79897
G1 F2640 X146.28 Y145.05 E98.80778
G1 X146.14 Y145.23 E98.81355
G1 X145.90 Y145.28 E98.81973
G1 X145.79 Y145.27 E98.82249
G1 X145.74 Y145.24 E98.82376
G1 X145.72 Y145.18 E98.82538
G1 X145.73 Y145.17 E98.82576
G1 X145.75 Y145.11 E98.82734
G1 X145.81 Y145.05 E98.82938
G1 X145.85 Y145.04 E98.83033
G1 X146.59 Y144.88 E98.84925
G1 F2400 E98.34925
G0 F12000 X137.45 Y146.93
G1 F2400 E98.84925
G1 F2640 X137.44 Y147.01 E98.85120
G1 X137.41 Y147.05 E98.85238
G1 X137.28 Y147.12 E98.85618
G1 X137.19 Y147.14 E98.85844
G1 X137.07 Y147.16 E98.86140
G1 X137.04 Y147.14 E98.86217
G1 X136.93 Y147.08 E98.86549
G1 X136.78 Y147.04 E98.86938
G1 X136.62 Y147.02 E98.87332
G1 X136.47 Y147.03 E98.87706
G1 X136.34 Y147.07 E98.88044
G1 X137.12 Y146.89 E98.90040
G1 X137.30 Y146.85 E98.90497
G1 X137.33 Y146.85 E98.90574
G1 X137.41 Y146.88 E98.90765
G1 X137.45 Y146.93 E98.90935
G0 F12000 X137.84 Y146.87
;TYPE:WALL-OUTER
G1 F2640 X137.85 Y146.94 E98.91128
G1 X137.83 Y147.12 E98.91562
G1 X137.79 Y147.20 E98.91794
G1 X137.72 Y147.30 E98.92094
G1 X137.65 Y147.38 E98.92363
G1 X137.40 Y147.50 E98.93057
G1 X136.96 Y147.59 E98.94163
G1 X136.90 Y147.53 E98.94371
G1 X136.78 Y147.45 E98.94744
G1 X136.70 Y147.43 E98.94950
G1 X136.61 Y147.42 E98.95155
G1 X136.54 Y147.43 E98.95342
G1 X136.40 Y147.46 E98.95701
G1 X136.27 Y147.56 E98.96106
G1 X136.16 Y147.72 E98.96575
G1 X136.14 Y147.83 E98.96877
G1 X136.13 Y147.89 E98.97022
G1 X136.17 Y148.06 E98.97457
G1 X136.27 Y148.20 E98.97879
G1 X136.43 Y148.30 E98.98345
G1 X136.47 Y148.31 E98.98459
G1 X136.52 Y148.50 E98.98950
G1 X136.42 Y148.58 E98.99264
G1 X136.34 Y148.75 E98.99717
G1 X136.33 Y148.87 E99.00030
G1 X136.35 Y149.00 E99.00354
G1 X136.38 Y149.07 E99.00535
G1 X136.47 Y149.18 E99.00886
G1 X136.57 Y149.26 E99.01209
G1 X136.72 Y149.30 E99.01596
G1 X136.82 Y149.30 E99.01838
G1 X136.95 Y149.27 E99.02189
G1 X137.05 Y149.22 E99.02470
G1 X137.16 Y149.12 E99.02827
G1 X137.21 Y149.04 E99.03055
G1 X137.23 Y148.97 E99.03258
G1 X137.71 Y148.86 E99.04471
G1 X146.66 Y146.96 E99.27229
G1 X146.69 Y146.96 E99.27313
G1 X146.70 Y146.97 E99.27356
G1 X146.84 Y147.08 E99.27792
G1 X146.99 Y147.12 E99.28179
G1 X147.06 Y147.13 E99.28350
G1 X147.23 Y147.09 E99.28789
G1 X147.37 Y147.00 E99.29220
G1 X147.44 Y146.92 E99.29471
G1 X147.50 Y146.79 E99.29833
G1 X147.52 Y146.70 E99.30062
G1 X147.51 Y146.62 E99.30251
G1 X147.48 Y146.48 E99.30609
G1 X147.44 Y146.41 E99.30816
G1 X147.38 Y146.36 E99.31003
G1 X147.32 Y146.30 E99.31215
G1 X147.18 Y146.24 E99.31601
G1 X147.13 Y146.05 E99.32087
G1 X147.20 Y146.00 E99.32286
G1 X147.29 Y145.87 E99.32684
G1 X147.32 Y145.71 E99.33075
G1 X147.32 Y145.63 E99.33277
G1 X147.28 Y145.50 E99.33632
G1 X147.24 Y145.43 E99.33825
G1 X147.19 Y145.37 E99.34026
G1 X147.05 Y145.28 E99.34441
G1 X146.89 Y145.24 E99.34844
G1 X146.74 Y145.26 E99.35230
G1 X146.55 Y145.36 E99.35763
G1 X146.46 Y145.47 E99.36103
G1 X146.42 Y145.58 E99.36395
G1 X145.90 Y145.69 E99.37727
G1 X145.63 Y145.64 E99.38393
G1 X145.45 Y145.52 E99.38934
G1 X145.37 Y145.40 E99.39303
G1 X145.33 Y145.25 E99.39694
G1 X145.32 Y145.15 E99.39923
G1 X145.34 Y145.04 E99.40207
G1 X145.43 Y144.88 E99.40659
G1 X145.54 Y144.75 E99.41083
G1 X145.63 Y144.70 E99.41346
G1 X145.73 Y144.66 E99.41618
G1 X146.20 Y144.55 E99.42808
G1 X146.71 Y144.45 E99.44100
G1 X146.91 Y144.43 E99.44592
G1 X147.16 Y144.46 E99.45242
G1 X147.32 Y144.50 E99.45635
G1 X147.61 Y144.63 E99.46439
G1 X147.80 Y144.78 E99.47045
G1 X148.01 Y145.04 E99.47854
G1 X148.15 Y145.37 E99.48762
G1 X148.35 Y146.39 E99.51340
G1 X148.37 Y146.60 E99.51856
G1 X148.37 Y146.64 E99.51970
G1 X148.31 Y147.17 E99.53282
G1 X164.47 Y143.74 E99.94390
G1 X164.50 Y144.24 E99.95639
G1 X172.75 Y142.49 E100.16626
G1 X173.23 Y142.38 E100.17846
G1 X173.46 Y142.36 E100.18413
G1 X173.66 Y142.35 E100.18919
G1 X174.14 Y142.40 E100.20131
G1 X174.49 Y142.49 E100.21013
G1 X174.86 Y142.63 E100.21999
G1 X175.17 Y142.80 E100.22891
G1 X175.55 Y143.10 E100.24090
G1 X175.86 Y143.43 E100.25209
G1 X175.91 Y143.49 E100.25401
G1 X176.14 Y143.86 E100.26491
G1 X176.33 Y144.29 E100.27680
G1 X176.41 Y144.55 E100.28350
G1 X176.47 Y144.88 E100.29171
G1 X176.49 Y145.21 E100.29991
G1 X176.47 Y145.50 E100.30709
G1 X176.52 Y153.22 E100.49943
G1 X177.08 Y152.97 E100.51477
G1 X177.15 Y163.09 E100.76656
G1 X175.54 Y163.10 E100.80647
G1 X175.54 Y162.81 E100.81369
G1 X175.54 Y162.74 E100.81528
G1 X175.54 Y162.56 E100.81981
G1 X175.54 Y162.50 E100.82140
G1 X175.54 Y162.32 E100.82593
G1 X175.54 Y162.25 E100.82755
G1 X175.53 Y162.07 E100.83205
G1 X175.54 Y162.01 E100.83365
G1 X175.53 Y161.82 E100.83818
G1 X175.53 Y161.76 E100.83979
G1 X175.53 Y161.58 E100.84432
G1 X175.53 Y161.51 E100.84591
G1 X175.53 Y161.33 E100.85044
G1 X175.53 Y161.27 E100.85206
G1 X175.53 Y161.09 E100.85657
G1 X175.53 Y161.02 E100.85818
G1 X175.53 Y160.84 E100.86269
G1 X175.53 Y160.78 E100.86428
G1 X175.53 Y160.59 E100.86881
G1 X175.53 Y160.53 E100.87043
G1 X175.52 Y160.35 E100.87496
G1 X175.53 Y160.28 E100.87655
G1 X175.52 Y160.10 E100.88108
G1 X175.52 Y160.03 E100.88270
G1 X175.52 Y159.85 E100.88720
G1 X175.52 Y159.79 E100.88879
G1 X175.52 Y159.61 E100.89332
G1 X175.52 Y159.54 E100.89494
G1 X175.52 Y159.36 E100.89944
G1 X175.52 Y159.30 E100.90104
G1 X175.52 Y159.12 E100.90559
G1 X175.52 Y159.05 E100.90721
G1 X175.51 Y158.87 E100.91171
G1 X175.52 Y158.80 E100.91338
G1 X175.49 Y158.11 E100.93051
G1 X175.43 Y157.54 E100.94491
G1 X175.28 Y156.98 E100.95941
G1 X175.01 Y156.39 E100.97540
G1 X174.74 Y155.97 E100.98786
G1 X174.26 Y155.39 E101.00664
G1 X173.89 Y155.02 E101.01956
G1 X173.49 Y154.69 E101.03252
G1 X172.81 Y154.20 E101.05332
G1 X172.37 Y153.94 E101.06614
G1 X171.91 Y153.70 E101.07903
G1 X171.43 Y153.49 E101.09204
G1 X170.94 Y153.30 E101.10500
G1 X170.45 Y153.14 E101.11788
G1 X169.95 Y153.01 E101.13065
G1 X169.46 Y152.92 E101.14330
G1 X168.81 Y152.84 E101.15952
G1 X168.31 Y152.82 E101.17197
G1 X167.72 Y152.85 E101.18655
G1 X167.07 Y152.96 E101.20307
G1 X166.57 Y153.11 E101.21596
G1 X166.35 Y153.21 E101.22194
G1 X165.89 Y153.45 E101.23489
G1 X165.68 Y153.61 E101.24145
G1 X155.96 Y163.22 E101.58164
G1 X153.67 Y163.23 E101.63862
G1 X164.67 Y152.35 E102.02375
G1 X164.38 Y152.00 E102.03510
G1 X164.04 Y151.59 E102.04847
G1 X163.87 Y151.37 E102.05522
G1 X163.55 Y150.93 E102.06875
G1 X163.25 Y150.48 E102.08236
G1 X162.96 Y150.02 E102.09581
G1 X162.69 Y149.56 E102.10918
G1 X162.45 Y149.09 E102.12222
G1 X162.13 Y148.45 E102.13999
G1 X127.84 Y161.91 E103.05650
G1 X127.83 Y160.19 E103.09920
G1 X161.55 Y146.96 E104.00040
G1 X161.27 Y146.05 E104.02396
G1 X127.79 Y153.16 E104.87569
G1 X127.78 Y151.53 E104.91635
G1 X135.83 Y149.82 E105.12105
G1 X135.60 Y149.42 E105.13246
G1 X135.56 Y149.35 E105.13446
G1 X135.49 Y149.11 E105.14056
G1 X135.36 Y148.46 E105.15712
G1 X135.29 Y148.11 E105.16605
G1 X135.28 Y147.94 E105.17020
G1 X135.31 Y147.65 E105.17743
G1 X135.42 Y147.35 E105.18533
G1 X135.56 Y147.13 E105.19188
G1 X135.67 Y147.01 E105.19590
G1 X135.80 Y146.90 E105.20029
G1 X136.10 Y146.72 E105.20895
G1 X136.36 Y146.64 E105.21562
G1 X137.04 Y146.50 E105.23287
G1 X137.25 Y146.46 E105.23828
G1 X137.30 Y146.45 E105.23950
G1 X137.41 Y146.46 E105.24217
G1 X137.57 Y146.51 E105.24642
G1 X137.69 Y146.59 E105.25008
G1 X137.80 Y146.73 E105.25439
G1 X137.84 Y146.87 E105.25795
G1 F2400 E104.75795
G0 F12000 X170.51 Y147.07
G1 F2400 E105.25795
G1 F2640 X170.57 Y147.51 E105.26900
G1 X170.65 Y147.69 E105.27394
G1 X170.83 Y147.94 E105.28164
G1 X170.97 Y148.07 E105.28652
G1 X171.24 Y148.24 E105.29424
G1 X171.41 Y148.30 E105.29883
G1 X171.54 Y148.33 E105.30202
G1 X171.76 Y148.35 E105.30774
G1 X172.11 Y148.30 E105.31639
G1 X172.39 Y148.18 E105.32406
G1 X172.55 Y148.07 E105.32890
G1 X172.77 Y147.84 E105.33680
G1 X172.92 Y147.57 E105.34450
G1 X172.99 Y147.33 E105.35056
G1 X173.01 Y147.14 E105.35535
G1 X172.96 Y146.76 E105.36493
G1 X172.92 Y146.63 E105.36834
G1 X172.73 Y146.31 E105.37751
G1 X172.59 Y146.16 E105.38263
G1 X172.22 Y145.94 E105.39323
G1 X171.93 Y145.86 E105.40073
G1 X171.71 Y145.85 E105.40638
G1 X171.35 Y145.92 E105.41543
G1 X171.23 Y145.97 E105.41873
G1 X171.01 Y146.10 E105.42493
G1 X170.79 Y146.31 E105.43255
G1 X170.68 Y146.48 E105.43760
G1 X170.59 Y146.64 E105.44221
G1 X170.53 Y146.87 E105.44819
G1 X170.51 Y147.07 E105.45302
G0 F12000 X169.58 Y147.25
;TYPE:FILL
G1 F2640 X165.25 Y151.59 E105.60543
G0 F12000 X165.51 Y151.89
G1 F2640 X169.66 Y147.74 E105.75132
G0 F12000 X169.82 Y148.14
G1 F2640 X165.77 Y152.19 E105.89389
G0 F12000 X166.32 Y152.21
G1 F2640 X170.06 Y148.47 E106.02526
G0 F12000 X170.33 Y148.76
G1 F2640 X167.09 Y152.01 E106.13941
G0 F12000 X167.75 Y151.91
G1 F2640 X170.67 Y148.99 E106.24216
G0 F12000 X171.06 Y149.16
G1 F2640 X168.34 Y151.88 E106.33795
G0 F12000 X168.88 Y151.90
G1 F2640 X171.52 Y149.26 E106.43081
G0 F12000 X172.10 Y149.25
G1 F2640 X169.39 Y151.97 E106.52632
G0 F12000 X169.87 Y152.04
G1 F2640 X173.06 Y148.85 E106.63852
G0 F12000 X173.55 Y148.37
G1 F2640 X175.54 Y146.38 E106.70858
G0 F12000 X175.54 Y146.94
G1 F2640 X170.34 Y152.14 E106.89176
G0 F12000 X170.78 Y152.26
G1 F2640 X175.55 Y147.50 E107.05940
G0 F12000 X175.55 Y148.06
G1 F2640 X171.21 Y152.40 E107.21211
G0 F12000 X171.62 Y152.55
G1 F2640 X175.55 Y148.62 E107.35051
G0 F12000 X175.56 Y149.18
G1 F2640 X172.02 Y152.72 E107.47508
G0 F12000 X172.40 Y152.90
G1 F2640 X175.56 Y149.74 E107.58621
G0 F12000 X175.56 Y150.30
G1 F2640 X172.77 Y153.09 E107.68439
G0 F12000 X173.13 Y153.30
G1 F2640 X175.57 Y150.86 E107.77018
G0 F12000 X175.57 Y151.43
G1 F2640 X173.47 Y153.52 E107.84397
G0 F12000 X173.81 Y153.75
G1 F2640 X175.57 Y151.99 E107.90605
G0 F12000 X175.58 Y152.55
G1 F2640 X174.13 Y154.00 E107.95704
G0 F12000 X174.43 Y154.25
G1 F2640 X175.58 Y153.11 E107.99738
G0 F12000 X175.58 Y153.67
G1 F2640 X174.72 Y154.53 E108.02764
G0 F12000 X175.00 Y154.81
G1 F2640 X175.59 Y154.23 E108.04821
G0 F12000 X175.79 Y154.59
G1 F2640 X175.26 Y155.12 E108.06684
G0 F12000 X175.51 Y155.44
G1 F2640 X176.15 Y154.79 E108.08947
G0 F12000 X176.16 Y155.35
G1 F2640 X175.83 Y155.96 E108.10446
G1 X176.16 Y155.91 E108.11281
G1 F2400 E107.61281
G0 F12000 X173.92 Y147.43
G1 F2400 E108.11281
G1 F2640 X175.53 Y145.82 E108.16972
G0 F12000 X175.54 Y145.25
G1 F2640 X173.92 Y146.87 E108.22686
G0 F12000 X173.83 Y146.40
G1 F2640 X175.48 Y144.75 E108.28491
G0 F12000 X175.33 Y144.33
G1 F2640 X173.64 Y146.02 E108.34413
G0 F12000 X173.42 Y145.68
G1 F2640 X175.10 Y143.99 E108.40343
G0 F12000 X174.82 Y143.72
G1 F2640 X173.13 Y145.40 E108.46267
G0 F12000 X172.78 Y145.18
G1 F2640 X174.47 Y143.49 E108.52224
G0 F12000 X174.06 Y143.34
G1 F2640 X172.39 Y145.01 E108.58099
G0 F12000 X171.92 Y144.92
G1 F2640 X173.54 Y143.30 E108.63818
G0 F12000 X172.86 Y143.42
G1 F2640 X171.30 Y144.97 E108.69295
G0 F12000 X170.71 Y143.88
G1 F2640 X164.27 Y150.31 E108.91953
G0 F12000 X164.50 Y150.64
G1 F2640 X171.42 Y143.72 E109.16304
G0 F12000 X172.14 Y143.57
G1 F2640 X164.74 Y150.97 E109.42334
G0 F12000 X164.99 Y151.28
G1 F2640 X169.62 Y146.65 E109.58622
G1 F2400 E109.08622
G0 F12000 X169.27 Y144.18
G1 F2400 E109.58622
G1 F2640 X163.82 Y149.63 E109.77796
G0 F12000 X164.04 Y149.97
G1 F2640 X169.99 Y144.03 E109.98715
G0 F12000 X168.56 Y144.33
G1 F2640 X163.62 Y149.27 E110.16098
G0 F12000 X163.42 Y148.91
G1 F2640 X167.84 Y144.49 E110.31663
G0 F12000 X167.12 Y144.64
G1 F2640 X163.22 Y148.54 E110.45395
G0 F12000 X163.03 Y148.16
G1 F2640 X166.41 Y144.79 E110.57258
G0 F12000 X165.69 Y144.94
G1 F2640 X162.85 Y147.78 E110.67255
G0 F12000 X162.66 Y147.40
G1 F2640 X164.97 Y145.09 E110.75382
G0 F12000 X164.25 Y145.25
G1 F2640 X162.53 Y146.97 E110.81449
G0 F12000 X162.40 Y146.54
G1 F2640 X163.62 Y145.32 E110.85728
G0 F12000 X163.46 Y144.91
G1 F2640 X162.27 Y146.10 E110.89935
G0 F12000 X162.14 Y145.67
G1 F2640 X162.75 Y145.06 E110.92085
G1 F2400 E110.42085
G0 F12000 X146.79 Y148.04
G1 F2400 E110.92085
G1 F2640 X146.57 Y148.21 E110.92629
G1 X146.48 Y148.01 E110.93363
G1 X145.73 Y148.25 E110.94569
G1 X145.13 Y148.51 E110.95772
G1 X145.12 Y148.25 E110.96979
G1 X144.30 Y148.56 E110.98181
G1 X143.70 Y148.82 E110.99379
G1 X143.68 Y148.55 E111.00579
G1 X142.87 Y148.86 E111.01778
G1 X142.26 Y149.12 E111.02975
G1 X142.25 Y148.86 E111.04171
G1 X141.44 Y149.16 E111.05366
G1 X140.83 Y149.43 E111.06558
G1 X140.81 Y149.16 E111.07755
G1 X140.00 Y149.47 E111.08948
G1 X139.40 Y149.73 E111.10138
G1 X139.38 Y149.47 E111.11332
G1 X138.57 Y149.77 E111.12520
G1 X137.96 Y150.03 E111.13709
G1 X138.22 Y149.71 E111.14730
;LAYER:4
M106 S53
G0 F12000 X138.58 Y149.49 Z0.80
;TYPE:WALL-INNER
G1 F3300 X140.86 Y149.00 E111.20533
G1 X141.55 Y148.86 E111.22270
G1 X142.18 Y148.72 E111.23870
G1 X143.03 Y148.54 E111.26033
G1 X144.44 Y148.24 E111.29639
G1 X146.37 Y147.83 E111.34526
G1 X146.57 Y147.79 E111.35047
G1 X146.83 Y147.89 E111.35740
G1 X147.11 Y147.91 E111.36433
G1 X147.35 Y147.89 E111.37053
G1 X147.47 Y147.85 E111.37356
G1 X147.43 Y148.17 E111.38168
G1 X150.50 Y147.52 E111.45978
G1 X160.01 Y145.50 E111.70168
G1 X160.84 Y145.32 E111.72262
G1 X162.37 Y145.00 E111.76154
G1 X162.88 Y144.89 E111.77464
G1 X163.73 Y144.71 E111.79631
G1 X163.76 Y145.21 E111.80885
G1 X170.65 Y143.75 E111.98416
G1 X171.18 Y143.64 E111.99761
G1 X172.93 Y143.27 E112.04207
G1 X173.37 Y143.17 E112.05334
G1 X173.66 Y143.15 E112.06067
G1 X174.02 Y143.19 E112.06952
G1 X174.35 Y143.28 E112.07808
G1 X174.69 Y143.45 E112.08754
G1 X174.94 Y143.62 E112.09517
G1 X175.16 Y143.84 E112.10284
G1 X175.38 Y144.13 E112.11189
G1 X175.55 Y144.45 E112.12098
G1 X175.62 Y144.66 E112.12634
G1 X175.69 Y145.12 E112.13811
G1 X175.69 Y145.19 E112.13961
G1 X175.68 Y145.44 E112.14603
G1 X175.68 Y146.23 E112.16554
G1 X175.70 Y148.25 E112.21578
G1 X175.71 Y150.35 E112.26821
G1 X175.74 Y154.47 E112.37060
G1 X176.29 Y154.21 E112.38572
G1 X176.34 Y162.29 E112.58678
G1 X176.33 Y162.07 E112.59226
G1 X176.33 Y161.93 E112.59582
G1 X176.32 Y160.84 E112.62289
G1 X176.32 Y160.70 E112.62650
G1 X176.32 Y160.35 E112.63516
G1 X176.32 Y160.21 E112.63877
G1 X176.32 Y159.86 E112.64740
G1 X176.32 Y159.71 E112.65101
G1 X176.31 Y159.37 E112.65964
G1 X176.32 Y159.22 E112.66328
G1 X176.31 Y158.59 E112.67890
G1 X176.28 Y157.91 E112.69589
G1 X176.22 Y157.45 E112.70732
G1 X176.12 Y156.98 E112.71937
G1 X175.91 Y156.41 E112.73448
G1 X175.62 Y155.85 E112.75012
G1 X175.22 Y155.28 E112.76760
G1 X174.73 Y154.72 E112.78590
G1 X174.31 Y154.33 E112.80037
G1 X173.75 Y153.88 E112.81799
G1 X173.17 Y153.49 E112.83550
G1 X172.68 Y153.20 E112.84959
G1 X172.18 Y152.95 E112.86359
G1 X171.66 Y152.72 E112.87762
G1 X171.14 Y152.52 E112.89169
G1 X170.60 Y152.35 E112.90571
G1 X170.05 Y152.22 E112.91968
G1 X169.41 Y152.10 E112.93605
G1 X168.70 Y152.03 E112.95365
G1 X168.29 Y152.02 E112.96378
G1 X167.57 Y152.06 E112.98175
G1 X166.88 Y152.18 E112.99933
G1 X166.23 Y152.38 E113.01611
G1 X165.61 Y152.69 E113.03346
G1 X165.16 Y153.00 E113.04704
G1 X164.50 Y153.66 E113.07023
G1 X156.32 Y161.74 E113.35634
G1 X155.63 Y162.42 E113.38053
G1 X165.75 Y152.40 E113.73502
G1 X164.82 Y151.29 E113.77107
G1 X164.51 Y150.89 E113.78380
G1 X164.21 Y150.48 E113.79648
G1 X163.91 Y150.03 E113.80980
G1 X163.39 Y149.16 E113.83497
G1 X163.15 Y148.71 E113.84778
G1 X162.52 Y147.44 E113.88302
G1 X128.64 Y160.74 E114.78871
G1 X156.85 Y149.66 E115.54288
G1 X159.94 Y148.44 E115.62553
G1 X160.46 Y148.24 E115.63940
G1 X162.52 Y147.43 E115.69436
G1 X161.83 Y145.12 E115.75446
G1 X160.33 Y145.44 E115.79257
G1 X159.73 Y145.56 E115.80778
G1 X159.19 Y145.68 E115.82149
G1 X157.77 Y145.98 E115.85776
G1 X128.59 Y152.18 E116.59997
G1 X135.34 Y150.74 E116.77166
G1 X137.01 Y150.38 E116.81424
G1 X136.87 Y150.09 E116.82235
G1 X137.17 Y150.04 E116.82993
G1 X137.43 Y149.94 E116.83690
G1 X137.71 Y149.73 E116.84569
G1 X137.78 Y149.66 E116.84805
G1 X138.58 Y149.49 E116.86859
G1 F2400 E116.36859
G0 F12000 X169.71 Y147.15
G1 F2400 E116.86859
G1 F3300 X169.75 Y147.54 E116.87847
G1 X169.97 Y148.10 E116.89348
G1 X170.19 Y148.42 E116.90289
G1 X170.62 Y148.82 E116.91759
G1 X171.18 Y149.07 E116.93287
G1 X171.54 Y149.14 E116.94194
G1 X171.81 Y149.15 E116.94857
G1 X172.21 Y149.11 E116.95868
G1 X172.78 Y148.89 E116.97401
G1 X173.14 Y148.62 E116.98514
G1 X173.46 Y148.27 E116.99697
G1 X173.76 Y147.59 E117.01528
G1 X173.80 Y147.32 E117.02227
G1 X173.81 Y147.08 E117.02807
G1 X173.76 Y146.62 E117.03959
G1 X173.60 Y146.18 E117.05129
G1 X173.37 Y145.83 E117.06176
G1 X173.09 Y145.53 E117.07193
G1 X172.76 Y145.30 E117.08193
G1 X172.15 Y145.08 E117.09807
G1 X171.67 Y145.05 E117.10999
G1 X171.19 Y145.13 E117.12221
G1 X170.62 Y145.39 E117.13784
G1 X170.20 Y145.77 E117.15181
G1 X169.99 Y146.08 E117.16119
G1 X169.84 Y146.40 E117.17004
G1 X169.78 Y146.58 E117.17464
G1 X169.72 Y146.91 E117.18316
G1 X169.71 Y147.15 E117.18896
G0 F12000 X170.11 Y147.13
G1 F3300 X170.15 Y147.45 E117.19684
G1 X170.33 Y147.92 E117.20935
G1 X170.49 Y148.15 E117.21648
G1 X170.84 Y148.48 E117.22848
G1 X171.30 Y148.69 E117.24099
G1 X171.59 Y148.74 E117.24819
G1 X171.79 Y148.75 E117.25335
G1 X172.12 Y148.72 E117.26138
G1 X172.59 Y148.53 E117.27405
G1 X172.88 Y148.32 E117.28286
G1 X173.12 Y148.05 E117.29209
G1 X173.37 Y147.48 E117.30750
G1 X173.41 Y147.27 E117.31272
G1 X173.41 Y147.10 E117.31715
G1 X173.37 Y146.72 E117.32664
G1 X173.24 Y146.36 E117.33606
G1 X173.06 Y146.08 E117.34447
G1 X172.83 Y145.84 E117.35271
G1 X172.57 Y145.66 E117.36047
G1 X172.07 Y145.48 E117.37386
G1 X171.69 Y145.45 E117.38326
G1 X171.31 Y145.51 E117.39296
