;-- START GCODE --
;Sliced for Type A Machines Series 1
;Sliced at: Fri 02-10-2015 00:30:02
;Basic settings: Layer height: 0.15 Walls: 1.2 Fill: 50
;Print Speed: 55 Support: 0
;Retraction Speed: 40 Retraction Distance: 0.5
;Print time: 24 minutes
;Filament used: 0.924m 2.0g
;Filament cost: None
G21        ;metric values
G90        ;absolute positioning
G28     ;move to endstops
G29		;allows for auto-levelling
G1 X150 Y5  Z15.0 F12000 ;center and move the platform down 15mm
M109 S245 ;Heat To temp
G1 X150 Y5 Z0.3 ;move the platform to purge extrusion
G92 E0 ;zero the extruded length
G1 F200 X250 E30 ;extrude 30mm of feed stock
G92 E0 ;zero the extruded length again
G1 X150 Y150  Z25 F12000 ;recenter and begin
G1 F12000

;Layer count: 119
;LAYER:0
M107
G0 F12000 X143.28 Y132.60 Z0.20
;TYPE:SKIRT
G1 F900 X147.06 Y132.55 E0.12587
G1 X147.25 Y132.55 E0.13239
G1 X147.43 Y132.55 E0.13824
G1 X148.01 Y132.55 E0.15743
G1 X148.37 Y132.55 E0.16934
G1 X148.56 Y132.55 E0.17573
G1 X148.93 Y132.55 E0.18803
G1 X149.12 Y132.55 E0.19442
G1 X149.49 Y132.55 E0.20676
G1 X149.68 Y132.55 E0.21315
G1 X150.05 Y132.55 E0.22545
G1 X150.25 Y132.55 E0.23184
G1 X150.62 Y132.55 E0.24418
G1 X150.81 Y132.55 E0.25056
G1 X151.18 Y132.55 E0.26287
G1 X151.37 Y132.55 E0.26926
G1 X151.74 Y132.55 E0.28160
G1 X151.93 Y132.55 E0.28798
G1 X152.30 Y132.55 E0.30029
G1 X152.36 Y132.55 E0.30228
G1 X152.31 Y132.09 E0.31757
G1 X156.15 Y132.09 E0.44559
G1 X159.48 Y131.65 E0.55712
G1 X159.54 Y132.09 E0.57196
G1 X159.60 Y132.09 E0.57408
G1 X159.66 Y132.57 E0.58992
G1 X161.72 Y132.59 E0.65871
G1 X161.72 Y152.94 E1.33575
G1 X160.38 Y152.94 E1.38052
G1 X160.33 Y153.38 E1.39529
G1 X160.26 Y153.94 E1.41403
G1 X160.16 Y154.63 E1.43720
G1 X160.07 Y155.27 E1.45869
G1 X159.98 Y155.87 E1.47886
G1 X159.88 Y156.46 E1.49873
G1 X159.78 Y157.06 E1.51897
G1 X159.69 Y157.60 E1.53724
G1 X159.57 Y158.22 E1.55824
G1 X159.46 Y158.81 E1.57820
G1 X159.33 Y159.43 E1.59910
G1 X159.19 Y160.10 E1.62181
G1 X158.95 Y161.09 E1.65567
G1 X158.75 Y161.86 E1.68232
G1 X158.57 Y162.50 E1.70444
G1 X158.37 Y163.16 E1.72722
G1 X158.19 Y163.71 E1.74660
G1 X158.00 Y164.25 E1.76549
G1 X157.77 Y164.90 E1.78849
G1 X157.50 Y165.60 E1.81330
G1 X157.26 Y166.19 E1.83472
G1 X157.00 Y166.79 E1.85631
G1 X156.76 Y167.33 E1.87614
G1 X156.50 Y167.87 E1.89602
G1 X156.23 Y168.44 E1.91699
G1 X155.72 Y169.41 E1.95323
G1 X155.28 Y170.21 E1.98388
G1 X154.95 Y170.77 E2.00550
G1 X154.63 Y171.29 E2.02572
G1 X154.35 Y171.75 E2.04357
G1 X152.33 Y174.98 E2.17046
G1 X148.72 Y172.51 E2.31595
G1 X148.18 Y172.14 E2.33782
G1 X147.65 Y171.78 E2.35903
G1 X144.85 Y169.89 E2.47138
G1 X146.66 Y166.54 E2.59803
G1 X146.90 Y166.07 E2.61551
G1 X147.14 Y165.60 E2.63317
G1 X147.37 Y165.10 E2.65130
G1 X147.57 Y164.66 E2.66762
G1 X147.75 Y164.24 E2.68253
G1 X147.98 Y163.68 E2.70282
G1 X148.15 Y163.23 E2.71871
G1 X148.32 Y162.76 E2.73536
G1 X148.49 Y162.26 E2.75293
G1 X148.65 Y161.75 E2.77079
G1 X148.81 Y161.24 E2.78845
G1 X148.92 Y160.81 E2.80319
G1 X149.14 Y159.93 E2.83365
G1 X149.27 Y159.36 E2.85285
G1 X149.39 Y158.76 E2.87343
G1 X149.47 Y158.35 E2.88703
G1 X149.57 Y157.72 E2.90836
G1 X149.65 Y157.22 E2.92522
G1 X149.74 Y156.64 E2.94481
G1 X149.81 Y156.05 E2.96451
G1 X149.88 Y155.51 E2.98271
G1 X149.95 Y154.98 E3.00037
G1 X149.95 Y154.98 E3.00040
G1 X150.05 Y154.02 E3.03242
G1 X150.11 Y153.46 E3.05138
G1 X150.16 Y152.94 E3.06852
G1 X143.28 Y152.94 E3.29745
G1 X143.28 Y132.60 E3.97399
G0 F12000 X143.68 Y133.00
G1 F900 X147.06 Y132.95 E4.08663
G1 X147.25 Y132.95 E4.09308
G1 X147.43 Y132.95 E4.09896
G1 X148.01 Y132.95 E4.11809
G1 X148.37 Y132.95 E4.13006
G1 X148.56 Y132.95 E4.13645
G1 X148.93 Y132.95 E4.14876
G1 X149.12 Y132.95 E4.15514
G1 X149.49 Y132.95 E4.16748
G1 X149.68 Y132.95 E4.17387
G1 X150.05 Y132.95 E4.18617
G1 X150.25 Y132.95 E4.19256
G1 X150.62 Y132.95 E4.20490
G1 X150.81 Y132.95 E4.21129
G1 X151.18 Y132.95 E4.22359
G1 X151.37 Y132.95 E4.22998
G1 X151.74 Y132.95 E4.24232
G1 X151.93 Y132.95 E4.24870
G1 X152.30 Y132.95 E4.26101
G1 X152.50 Y132.95 E4.26740
G1 X152.75 Y132.95 E4.27601
G1 X152.82 Y132.94 E4.27809
G1 X152.76 Y132.49 E4.29308
G1 X156.18 Y132.49 E4.40693
G1 X159.13 Y132.10 E4.50598
G1 X159.19 Y132.49 E4.51917
G1 X159.25 Y132.49 E4.52104
G1 X159.30 Y132.96 E4.53674
G1 X161.32 Y132.98 E4.60410
G1 X161.32 Y152.54 E5.25467
G1 X160.02 Y152.54 E5.29801
G1 X160.00 Y152.70 E5.30319
G1 X159.93 Y153.34 E5.32452
G1 X159.86 Y153.89 E5.34313
G1 X159.76 Y154.58 E5.36623
G1 X159.68 Y155.22 E5.38759
G1 X159.58 Y155.81 E5.40766
G1 X159.49 Y156.40 E5.42746
G1 X159.39 Y157.00 E5.44756
G1 X159.29 Y157.53 E5.46573
G1 X159.18 Y158.15 E5.48660
G1 X159.06 Y158.74 E5.50646
G1 X158.94 Y159.35 E5.52722
G1 X158.80 Y160.01 E5.54966
G1 X158.56 Y160.99 E5.58328
G1 X158.36 Y161.76 E5.60965
G1 X158.18 Y162.39 E5.63150
G1 X157.98 Y163.04 E5.65403
G1 X157.81 Y163.59 E5.67321
G1 X157.62 Y164.12 E5.69189
G1 X157.40 Y164.76 E5.71464
G1 X157.13 Y165.45 E5.73916
G1 X156.89 Y166.04 E5.76034
G1 X156.64 Y166.63 E5.78167
G1 X156.40 Y167.17 E5.80127
G1 X156.14 Y167.70 E5.82091
G1 X155.87 Y168.26 E5.84162
G1 X155.37 Y169.22 E5.87754
G1 X154.93 Y170.01 E5.90787
G1 X154.61 Y170.57 E5.92924
G1 X154.29 Y171.08 E5.94922
G1 X154.01 Y171.54 E5.96701
G1 X152.21 Y174.42 E6.08001
G1 X148.94 Y172.18 E6.21163
G1 X148.40 Y171.81 E6.23351
G1 X148.40 Y171.81 E6.23356
G1 X147.88 Y171.45 E6.25477
G1 X147.88 Y171.45 E6.25480
G1 X145.38 Y169.76 E6.35515
G1 X146.99 Y166.76 E6.46865
G1 X147.25 Y166.25 E6.48748
G1 X147.49 Y165.79 E6.50490
G1 X147.72 Y165.30 E6.52285
G1 X147.93 Y164.82 E6.54025
G1 X148.14 Y164.34 E6.55756
G1 X148.33 Y163.87 E6.57455
G1 X148.52 Y163.39 E6.59154
G1 X148.71 Y162.87 E6.61006
G1 X148.87 Y162.39 E6.62707
G1 X149.03 Y161.89 E6.64445
G1 X149.19 Y161.35 E6.66294
G1 X149.32 Y160.88 E6.67940
G1 X149.53 Y160.02 E6.70873
G1 X149.67 Y159.42 E6.72916
G1 X149.78 Y158.88 E6.74764
G1 X149.87 Y158.38 E6.76431
G1 X149.96 Y157.84 E6.78288
G1 X150.05 Y157.28 E6.80169
G1 X150.13 Y156.69 E6.82127
G1 X150.21 Y156.10 E6.84101
G1 X150.28 Y155.56 E6.85935
G1 X150.35 Y154.99 E6.87831
G1 X150.45 Y154.07 E6.90923
G1 X150.51 Y153.50 E6.92829
G1 X150.57 Y152.86 E6.94953
G1 X150.59 Y152.54 E6.96014
G1 X143.68 Y152.54 E7.19027
G1 X143.68 Y133.00 E7.84041
G1 F2400 E7.34041
G0 F12000 X147.88 Y137.15
;TYPE:WALL-INNER
G1 F2400 E7.84041
G1 F900 X148.38 Y137.15 E7.85710
G1 X148.56 Y137.15 E7.86336
G1 X148.94 Y137.15 E7.87576
G1 X149.13 Y137.15 E7.88205
G1 X149.50 Y137.15 E7.89449
G1 X149.69 Y137.15 E7.90077
G1 X150.06 Y137.15 E7.91318
G1 X150.25 Y137.15 E7.91947
G1 X150.63 Y137.15 E7.93191
G1 X150.81 Y137.15 E7.93819
G1 X151.19 Y137.15 E7.95060
G1 X151.38 Y137.15 E7.95688
G1 X151.75 Y137.15 E7.96932
G1 X151.94 Y137.15 E7.97561
G1 X152.17 Y137.15 E7.98336
G1 X152.20 Y137.37 E7.99078
G1 X152.32 Y138.66 E8.03375
G1 X154.30 Y138.47 E8.09999
G1 X154.21 Y137.39 E8.13631
G1 X154.18 Y137.15 E8.14427
G1 X154.56 Y137.15 E8.15688
G1 X154.75 Y137.15 E8.16316
G1 X155.12 Y137.15 E8.17557
G1 X155.31 Y137.15 E8.18185
G1 X155.55 Y137.15 E8.18967
G1 X155.62 Y138.01 E8.21851
G1 X155.67 Y138.61 E8.23842
G1 X155.71 Y139.18 E8.25750
G1 X155.75 Y139.71 E8.27520
G1 X155.78 Y140.29 E8.29437
G1 X155.82 Y140.82 E8.31207
G1 X155.86 Y141.44 E8.33279
G1 X155.90 Y142.03 E8.35249
G1 X156.02 Y143.70 E8.40812
G1 X156.06 Y144.24 E8.42599
G1 X156.10 Y144.91 E8.44859
G1 X156.14 Y145.84 E8.47928
G1 X156.15 Y146.43 E8.49914
G1 X156.15 Y147.03 E8.51900
G1 X156.15 Y147.82 E8.54524
G1 X156.12 Y148.71 E8.57476
G1 X156.07 Y149.50 E8.60114
G1 X156.04 Y150.06 E8.62001
G1 X155.99 Y150.60 E8.63799
G1 X155.95 Y151.13 E8.65549
G1 X155.89 Y151.70 E8.67464
G1 X155.83 Y152.22 E8.69201
G1 X155.76 Y152.82 E8.71210
G1 X155.70 Y153.33 E8.72937
G1 X155.60 Y154.00 E8.75180
G1 X155.52 Y154.59 E8.77141
G1 X155.34 Y155.72 E8.80953
G1 X155.25 Y156.28 E8.82852
G1 X155.16 Y156.78 E8.84553
G1 X155.06 Y157.36 E8.86498
G1 X154.95 Y157.92 E8.88382
G1 X154.83 Y158.48 E8.90283
G1 X154.71 Y159.06 E8.92268
G1 X154.49 Y159.98 E8.95411
G1 X154.31 Y160.64 E8.97700
G1 X154.16 Y161.19 E8.99598
G1 X153.98 Y161.78 E9.01625
G1 X153.66 Y162.73 E9.04976
G1 X153.46 Y163.29 E9.06936
G1 X153.23 Y163.90 E9.09107
G1 X153.01 Y164.43 E9.11035
G1 X152.80 Y164.93 E9.12827
G1 X152.59 Y165.40 E9.14544
G1 X152.36 Y165.87 E9.16286
G1 X152.12 Y166.37 E9.18142
G1 X151.67 Y167.24 E9.21378
G1 X151.28 Y167.93 E9.24016
G1 X151.00 Y168.41 E9.25879
G1 X150.97 Y168.47 E9.26109
G1 X150.87 Y168.41 E9.26496
G1 X151.27 Y167.61 E9.29473
G1 X151.53 Y167.06 E9.31493
G1 X151.78 Y166.51 E9.33500
G1 X152.00 Y165.99 E9.35371
G1 X152.24 Y165.41 E9.37481
G1 X152.46 Y164.85 E9.39468
G1 X152.66 Y164.30 E9.41402
G1 X152.86 Y163.71 E9.43497
G1 X153.05 Y163.11 E9.45588
G1 X153.22 Y162.54 E9.47561
G1 X153.38 Y161.95 E9.49577
G1 X153.61 Y161.02 E9.52770
G1 X153.78 Y160.29 E9.55250
G1 X153.91 Y159.65 E9.57447
G1 X154.00 Y159.14 E9.59155
G1 X154.11 Y158.50 E9.61336
G1 X154.21 Y157.87 E9.63449
G1 X154.29 Y157.28 E9.65438
G1 X154.37 Y156.67 E9.67479
G1 X154.45 Y156.08 E9.69457
G1 X154.52 Y155.49 E9.71433
G1 X154.62 Y154.52 E9.74662
G1 X154.69 Y153.93 E9.76658
G1 X154.75 Y153.22 E9.79013
G1 X154.80 Y152.68 E9.80816
G1 X154.85 Y152.03 E9.82980
G1 X154.88 Y151.48 E9.84830
G1 X154.92 Y150.83 E9.86976
G1 X154.95 Y150.25 E9.88900
G1 X154.97 Y149.62 E9.91024
G1 X154.97 Y149.51 E9.91370
G1 X154.99 Y148.40 E9.95082
G1 X154.98 Y147.27 E9.98834
G1 X152.99 Y147.28 E10.05459
G1 X152.99 Y148.34 E10.09008
G1 X147.88 Y148.34 E10.26017
G1 X147.88 Y137.15 E10.63255
G1 F2400 E10.13255
G0 F12000 X152.83 Y144.44
G1 F2400 E10.63255
G1 F900 X152.83 Y144.47 E10.63369
G1 X152.81 Y144.47 E10.63429
G1 X152.88 Y145.21 E10.65897
G1 X152.97 Y146.59 E10.70484
G1 X154.95 Y146.47 E10.77091
G1 X154.92 Y145.84 E10.79175
G1 X154.94 Y145.84 E10.79252
G1 X154.86 Y144.91 E10.82354
G1 X154.81 Y144.30 E10.84412
G1 X154.80 Y144.30 E10.84445
G1 X154.74 Y143.63 E10.86691
G1 X152.92 Y144.43 E10.93298
G1 X152.83 Y144.44 E10.93615
G0 F12000 X153.34 Y144.35
G1 F900 X154.40 Y144.25 E10.97150
G1 X154.34 Y143.66 E10.99118
G1 X153.74 Y143.72 E11.01113
G1 X154.34 Y143.66 E11.03107
G1 X153.34 Y144.35 E11.07147
G0 F12000 X153.25 Y144.81
G1 F900 X153.34 Y146.16 E11.11674
G1 X154.53 Y146.09 E11.15639
G1 X154.50 Y145.44 E11.17833
G1 X154.44 Y144.72 E11.20208
G1 X153.25 Y144.81 E11.24185
G1 F2400 E10.74185
G0 F12000 X153.39 Y147.68
G1 F2400 E11.24185
G1 F900 X153.39 Y148.59 E11.27215
G1 X153.39 Y148.74 E11.27741
G1 X147.47 Y148.74 E11.47401
G1 X147.47 Y136.75 E11.87303
G1 X148.38 Y136.75 E11.90300
G1 X148.56 Y136.75 E11.90925
G1 X148.94 Y136.75 E11.92169
G1 X149.13 Y136.75 E11.92794
G1 X149.50 Y136.75 E11.94042
G1 X149.69 Y136.75 E11.94667
G1 X150.06 Y136.75 E11.95911
G1 X150.25 Y136.75 E11.96536
G1 X150.63 Y136.75 E11.97783
G1 X150.81 Y136.75 E11.98409
G1 X151.19 Y136.75 E11.99653
G1 X151.38 Y136.75 E12.00278
G1 X151.75 Y136.75 E12.01525
G1 X151.94 Y136.75 E12.02151
G1 X152.31 Y136.75 E12.03394
G1 X152.53 Y136.75 E12.04130
G1 X152.59 Y137.33 E12.06066
G1 X152.68 Y138.22 E12.09056
G1 X153.87 Y138.11 E12.13031
G1 X153.81 Y137.42 E12.15335
G1 X153.75 Y136.82 E12.17356
G1 X153.74 Y136.75 E12.17591
G1 X154.00 Y136.75 E12.18449
G1 X154.19 Y136.75 E12.19074
G1 X154.56 Y136.75 E12.20321
G1 X154.75 Y136.75 E12.20947
G1 X155.12 Y136.75 E12.22191
G1 X155.31 Y136.75 E12.22816
G1 X155.69 Y136.75 E12.24063
G1 X155.91 Y136.75 E12.24805
G1 X156.02 Y137.98 E12.28929
G1 X156.07 Y138.58 E12.30924
G1 X156.11 Y139.15 E12.32834
G1 X156.15 Y139.69 E12.34608
G1 X156.18 Y140.26 E12.36528
G1 X156.22 Y140.79 E12.38304
G1 X156.25 Y141.41 E12.40370
G1 X156.29 Y142.00 E12.42334
G1 X156.42 Y143.67 E12.47897
G1 X156.46 Y144.21 E12.49694
G1 X156.50 Y144.91 E12.52023
G1 X156.54 Y145.83 E12.55079
G1 X156.55 Y146.43 E12.57085
G1 X156.55 Y147.03 E12.59094
G1 X156.54 Y147.85 E12.61798
G1 X156.52 Y148.69 E12.64583
G1 X156.47 Y149.52 E12.67379
G1 X156.44 Y150.09 E12.69282
G1 X156.39 Y150.64 E12.71096
G1 X156.34 Y151.17 E12.72877
G1 X156.29 Y151.74 E12.74785
G1 X156.23 Y152.27 E12.76535
G1 X156.16 Y152.87 E12.78558
G1 X156.09 Y153.39 E12.80295
G1 X156.00 Y154.05 E12.82531
G1 X155.92 Y154.65 E12.84526
G1 X155.74 Y155.78 E12.88351
G1 X155.64 Y156.35 E12.90260
G1 X155.55 Y156.86 E12.91975
G1 X155.45 Y157.44 E12.93934
G1 X155.34 Y158.00 E12.95825
G1 X155.22 Y158.56 E12.97745
G1 X155.09 Y159.15 E12.99758
G1 X154.87 Y160.07 E13.02901
G1 X154.70 Y160.75 E13.05245
G1 X154.54 Y161.31 E13.07170
G1 X154.36 Y161.91 E13.09240
G1 X154.20 Y162.38 E13.10905
G1 X154.04 Y162.85 E13.12569
G1 X153.84 Y163.43 E13.14601
G1 X153.60 Y164.05 E13.16796
G1 X153.38 Y164.57 E13.18691
G1 X153.16 Y165.09 E13.20571
G1 X152.95 Y165.57 E13.22309
G1 X152.72 Y166.05 E13.24073
G1 X152.47 Y166.55 E13.25930
G1 X152.03 Y167.41 E13.29165
G1 X151.63 Y168.13 E13.31897
G1 X151.34 Y168.62 E13.33784
G1 X151.09 Y169.04 E13.35421
G1 X150.54 Y168.67 E13.37622
G1 X150.35 Y168.54 E13.38391
G1 X150.63 Y167.99 E13.40435
G1 X150.91 Y167.43 E13.42517
G1 X151.17 Y166.89 E13.44508
G1 X151.41 Y166.35 E13.46492
G1 X151.63 Y165.84 E13.48338
G1 X151.87 Y165.26 E13.50422
G1 X152.08 Y164.71 E13.52386
G1 X152.28 Y164.17 E13.54294
G1 X152.48 Y163.58 E13.56361
G1 X152.67 Y162.99 E13.58424
G1 X152.83 Y162.43 E13.60373
G1 X152.99 Y161.85 E13.62360
G1 X153.22 Y160.93 E13.65520
G1 X153.38 Y160.21 E13.67969
G1 X153.51 Y159.57 E13.70139
G1 X153.60 Y159.07 E13.71834
G1 X153.72 Y158.43 E13.73994
G1 X153.81 Y157.81 E13.76084
G1 X153.89 Y157.22 E13.78062
G1 X153.98 Y156.62 E13.80093
G1 X154.05 Y156.03 E13.82061
G1 X154.12 Y155.44 E13.84024
G1 X154.23 Y154.48 E13.87243
G1 X154.29 Y153.89 E13.89229
G1 X154.35 Y153.19 E13.91574
G1 X154.40 Y152.65 E13.93363
G1 X154.45 Y152.00 E13.95515
G1 X154.48 Y151.45 E13.97355
G1 X154.52 Y150.81 E13.99483
G1 X154.55 Y150.24 E14.01395
G1 X154.57 Y149.60 E14.03504
G1 X154.58 Y149.11 E14.05145
G1 X154.59 Y148.40 E14.07523
G1 X154.58 Y147.67 E14.09938
G1 X153.39 Y147.68 E14.13912
G1 F2400 E13.63912
G0 F12000 X157.53 Y142.37
G1 F2400 E14.13912
G1 F900 X157.50 Y142.04 E14.15033
G1 X157.46 Y141.44 E14.17039
G1 X157.42 Y140.83 E14.19066
G1 X157.33 Y139.41 E14.23789
G1 X157.28 Y138.78 E14.25889
G1 X157.24 Y138.15 E14.27991
G1 X157.19 Y137.52 E14.30100
G1 X157.12 Y136.81 E14.32458
G1 X157.12 Y136.75 E14.32672
G1 X157.36 Y136.75 E14.33497
G1 X157.53 Y136.75 E14.34035
G1 X157.53 Y142.37 E14.52744
G0 F12000 X157.15 Y142.67
;TYPE:WALL-OUTER
G1 F900 X157.10 Y142.06 E14.54759
G1 X156.89 Y138.81 E14.65608
G1 X156.84 Y138.18 E14.67703
G1 X156.79 Y137.55 E14.69799
G1 X156.76 Y137.25 E14.70827
G1 X156.36 Y137.28 E14.72153
G1 X156.42 Y137.95 E14.74396
G1 X156.51 Y139.13 E14.78315
G1 X156.58 Y140.24 E14.82015
G1 X156.69 Y141.98 E14.87811
G1 X156.85 Y144.19 E14.95181
G1 X156.90 Y144.88 E14.97494
G1 X156.94 Y145.82 E15.00620
G1 X156.95 Y146.43 E15.02649
G1 X156.95 Y147.04 E15.04681
G1 X156.94 Y147.83 E15.07299
G1 X156.93 Y148.47 E15.09438
G1 X157.32 Y148.48 E15.10760
G1 X157.34 Y147.93 E15.12590
G1 X157.35 Y146.91 E15.16006
G1 X157.35 Y146.35 E15.17845
G1 X157.34 Y145.76 E15.19828
G1 X157.31 Y145.09 E15.22048
G1 X157.28 Y144.47 E15.24124
G1 X157.15 Y142.67 E15.30126
G1 F2400 E14.80126
G0 F12000 X154.00 Y144.29
G1 F2400 E15.30126
G1 F900 X153.68 Y145.15 E15.33188
G1 X154.07 Y145.12 E15.34514
G1 X154.00 Y144.29 E15.37272
G0 F12000 X154.07 Y145.15
G1 F900 X153.68 Y145.18 E15.38599
G1 X153.71 Y145.74 E15.40479
G1 X154.11 Y145.72 E15.41801
G1 X154.07 Y145.15 E15.43694
G1 F2400 E14.93694
G0 F12000 X154.19 Y148.07
G1 F2400 E15.43694
G1 F900 X153.79 Y148.07 E15.45018
G1 X153.79 Y148.71 E15.47127
G1 X154.19 Y148.71 E15.48451
G1 X154.19 Y148.40 E15.49492
G1 X154.19 Y148.07 E15.50573
G1 F2400 E15.00573
G0 F12000 X153.44 Y137.75
G1 F2400 E15.50573
G1 F900 X153.35 Y136.86 E15.53546
G1 X153.31 Y136.55 E15.54581
G1 X152.92 Y136.60 E15.55900
G1 X152.99 Y137.29 E15.58214
G1 X153.04 Y137.79 E15.59881
G1 X153.44 Y137.75 E15.61207
G0 F12000 X153.44 Y136.35
G1 F900 X153.62 Y136.35 E15.61832
G1 X154.00 Y136.35 E15.63076
G1 X154.19 Y136.35 E15.63701
G1 X154.56 Y136.35 E15.64949
G1 X154.75 Y136.35 E15.65574
G1 X155.12 Y136.35 E15.66818
G1 X155.31 Y136.35 E15.67443
G1 X155.69 Y136.35 E15.68690
G1 X155.88 Y136.35 E15.69316
G1 X156.27 Y136.35 E15.70636
G1 X156.32 Y136.83 E15.72238
G1 X156.72 Y136.79 E15.73558
G1 X156.67 Y136.35 E15.75032
G1 X157.36 Y136.35 E15.77323
G1 X157.66 Y136.35 E15.78314
G1 X157.84 Y136.35 E15.78916
G1 X157.93 Y136.35 E15.79192
G1 X157.93 Y149.14 E16.21752
G1 X157.08 Y149.14 E16.24549
G1 X157.08 Y149.34 E16.25215
G1 X157.28 Y149.35 E16.25881
G1 X157.28 Y149.38 E16.25948
G1 X156.88 Y149.35 E16.27271
G1 X156.83 Y150.13 E16.29861
G1 X156.79 Y150.68 E16.31682
G1 X156.74 Y151.21 E16.33455
G1 X156.69 Y151.79 E16.35397
G1 X156.63 Y152.31 E16.37157
G1 X156.56 Y152.92 E16.39200
G1 X156.49 Y153.44 E16.40944
G1 X156.31 Y154.71 E16.45201
G1 X156.13 Y155.85 E16.49047
G1 X156.04 Y156.42 E16.50956
G1 X155.95 Y156.93 E16.52685
G1 X155.84 Y157.52 E16.54664
G1 X155.62 Y158.65 E16.58498
G1 X155.48 Y159.25 E16.60535
G1 X155.26 Y160.16 E16.63678
G1 X155.08 Y160.86 E16.66078
G1 X154.92 Y161.43 E16.68031
G1 X154.74 Y162.02 E16.70093
G1 X154.58 Y162.51 E16.71811
G1 X154.42 Y162.99 E16.73492
G1 X154.21 Y163.57 E16.75555
G1 X153.97 Y164.20 E16.77788
G1 X153.75 Y164.73 E16.79693
G1 X153.53 Y165.26 E16.81602
G1 X153.31 Y165.74 E16.83358
G1 X153.08 Y166.23 E16.85145
G1 X152.83 Y166.73 E16.87002
G1 X152.38 Y167.61 E16.90301
G1 X151.97 Y168.33 E16.93064
G1 X151.69 Y168.83 E16.94974
G1 X151.40 Y169.30 E16.96802
G1 X151.21 Y169.61 E16.98018
G1 X149.83 Y168.67 E17.03572
G1 X150.28 Y167.81 E17.06779
G1 X150.55 Y167.26 E17.08839
G1 X150.81 Y166.72 E17.10805
G1 X151.05 Y166.19 E17.12764
G1 X151.26 Y165.68 E17.14588
G1 X151.50 Y165.11 E17.16643
G1 X151.71 Y164.57 E17.18584
G1 X151.90 Y164.04 E17.20466
G1 X152.10 Y163.46 E17.22504
G1 X152.28 Y162.87 E17.24539
G1 X152.45 Y162.32 E17.26463
G1 X152.61 Y161.75 E17.28420
G1 X152.83 Y160.84 E17.31553
G1 X152.99 Y160.13 E17.33968
G1 X153.12 Y159.50 E17.36110
G1 X153.21 Y159.00 E17.37788
G1 X153.32 Y158.37 E17.39931
G1 X153.42 Y157.75 E17.42001
G1 X153.58 Y156.56 E17.45987
G1 X153.65 Y155.98 E17.47945
G1 X153.72 Y155.40 E17.49898
G1 X153.83 Y154.44 E17.53106
G1 X153.89 Y153.85 E17.55079
G1 X153.96 Y153.15 E17.57411
G1 X154.00 Y152.62 E17.59190
G1 X154.05 Y151.98 E17.61328
G1 X154.09 Y151.43 E17.63158
G1 X154.12 Y150.79 E17.65274
G1 X154.15 Y150.22 E17.67168
G1 X154.17 Y149.59 E17.69265
G1 X154.18 Y148.97 E17.71324
G1 X154.18 Y148.72 E17.72169
G1 X153.79 Y148.72 E17.73486
G1 X153.78 Y149.14 E17.74910
G1 X147.07 Y149.14 E17.97207
G1 X147.07 Y136.35 E18.39770
G1 X147.26 Y136.35 E18.40372
G1 X147.44 Y136.35 E18.40981
G1 X148.38 Y136.35 E18.44094
G1 X148.56 Y136.35 E18.44720
G1 X148.94 Y136.35 E18.45963
G1 X149.12 Y136.35 E18.46589
G1 X149.50 Y136.35 E18.47836
G1 X149.69 Y136.35 E18.48461
G1 X150.06 Y136.35 E18.49705
G1 X150.25 Y136.35 E18.50331
G1 X150.62 Y136.35 E18.51578
G1 X150.81 Y136.35 E18.52203
G1 X151.19 Y136.35 E18.53447
G1 X151.38 Y136.35 E18.54072
G1 X151.75 Y136.35 E18.55320
G1 X151.94 Y136.35 E18.55945
G1 X152.31 Y136.35 E18.57189
G1 X152.50 Y136.35 E18.57814
G1 X152.87 Y136.35 E18.59058
G1 X153.02 Y136.35 E18.59544
G1 X153.44 Y136.35 E18.60931
G0 F12000 X154.54 Y137.29
;TYPE:FILL
G1 F900 X155.49 Y138.24 E18.65409
G0 F12000 X155.45 Y137.63
G1 F900 X155.11 Y137.29 E18.67003
G0 F12000 X154.37 Y137.69
G1 F900 X155.54 Y138.85 E18.72506
G0 F12000 X155.59 Y139.47
G1 F900 X154.43 Y138.31 E18.77967
G0 F12000 X154.18 Y138.63
G1 F900 X155.63 Y140.07 E18.84774
G0 F12000 X155.67 Y140.68
G1 F900 X153.66 Y138.67 E18.94214
G0 F12000 X153.15 Y138.72
G1 F900 X155.71 Y141.29 E19.06288
G0 F12000 X155.75 Y141.90
G1 F900 X152.63 Y138.77 E19.20994
G0 F12000 X152.14 Y138.28
G1 F900 X151.15 Y137.29 E19.25677
G0 F12000 X150.58 Y137.29
G1 F900 X155.80 Y142.50 E19.50207
G0 F12000 X155.84 Y143.11
G1 F900 X150.02 Y137.29 E19.77592
G0 F12000 X149.45 Y137.29
G1 F900 X155.88 Y143.72 E20.07836
G0 F12000 X155.92 Y144.32
G1 F900 X148.88 Y137.29 E20.40924
G0 F12000 X148.32 Y137.29
G1 F900 X154.57 Y143.54 E20.70348
G0 F12000 X154.18 Y143.72
G1 F900 X148.01 Y137.55 E20.99361
G0 F12000 X148.01 Y138.11
G1 F900 X153.79 Y143.89 E21.26529
G0 F12000 X153.40 Y144.06
G1 F900 X148.01 Y138.68 E21.51849
G0 F12000 X148.01 Y139.25
G1 F900 X153.00 Y144.24 E21.75325
G0 F12000 X152.67 Y144.47
G1 F900 X148.01 Y139.81 E21.97221
G0 F12000 X148.01 Y140.38
G1 F900 X152.72 Y145.09 E22.19383
G0 F12000 X152.77 Y145.70
G1 F900 X148.01 Y140.94 E22.41744
G0 F12000 X148.01 Y141.51
G1 F900 X152.81 Y146.30 E22.64286
G0 F12000 X153.22 Y146.71
G1 F900 X153.69 Y146.91 E22.66266
G1 X154.24 Y146.89 E22.68381
G1 X154.76 Y147.13 E22.70287
G0 F12000 X155.12 Y147.48
G1 F900 X155.99 Y148.35 E22.74372
G0 F12000 X155.97 Y148.90
G1 F900 X155.12 Y148.05 E22.78328
G0 F12000 X155.12 Y148.62
G1 F900 X155.93 Y149.43 E22.82138
G0 F12000 X155.90 Y149.96
G1 F900 X155.12 Y149.18 E22.85835
G0 F12000 X155.10 Y149.73
G1 F900 X155.86 Y150.49 E22.89396
G0 F12000 X155.82 Y151.01
G1 F900 X155.08 Y150.27 E22.92853
G0 F12000 X155.06 Y150.82
G1 F900 X155.76 Y151.52 E22.96167
G0 F12000 X155.71 Y152.03
G1 F900 X155.03 Y151.35 E22.99379
G0 F12000 X154.99 Y151.88
G1 F900 X155.65 Y152.54 E23.02479
G0 F12000 X155.59 Y153.04
G1 F900 X154.95 Y152.41 E23.05471
G0 F12000 X154.91 Y152.93
G1 F900 X155.52 Y153.54 E23.08349
G0 F12000 X155.46 Y154.04
G1 F900 X154.87 Y153.45 E23.11125
G0 F12000 X154.82 Y153.97
G1 F900 X155.39 Y154.54 E23.13796
G0 F12000 X155.31 Y155.03
G1 F900 X154.74 Y154.74 E23.16365
G1 X155.19 Y155.76 E23.18834
G1 X154.62 Y155.75 E23.21181
G1 X155.02 Y156.72 E23.23389
G1 X154.50 Y156.76 E23.25504
G1 X154.85 Y157.68 E23.27524
G1 X154.36 Y157.75 E23.29426
G1 X154.48 Y158.44 E23.31235
G1 X154.39 Y158.91 E23.32914
G1 X154.29 Y159.38 E23.34480
G1 X154.19 Y159.85 E23.35947
G1 X154.09 Y160.31 E23.37305
G1 X153.97 Y160.76 E23.38548
G1 X153.86 Y161.21 E23.39701
G1 X153.74 Y161.66 E23.40740
G1 X153.61 Y162.09 E23.41665
G1 X153.47 Y162.52 E23.42496
G1 X153.34 Y162.96 E23.43248
G1 X153.20 Y163.38 E23.43891
G1 X153.05 Y163.80 E23.44413
G1 X153.01 Y164.04 E23.45248
G1 F2400 E22.95248
G0 F12000 X156.78 Y149.15
G1 F2400 E23.45248
G1 F900 X156.78 Y148.85 E23.45731
G1 X157.30 Y148.82 E23.47016
G1 X157.72 Y148.67 E23.48207
G1 X157.63 Y148.01 E23.49110
G1 X157.63 Y147.45 E23.49951
G1 X157.64 Y146.89 E23.50760
G1 X157.64 Y146.32 E23.51580
G1 X157.63 Y145.75 E23.52448
G1 X157.62 Y145.18 E23.53404
G1 X157.61 Y144.59 E23.54508
G1 X157.59 Y144.01 E23.55812
G1 X157.56 Y143.42 E23.57309
G1 X157.54 Y142.84 E23.59003
G1 X157.54 Y142.55 E23.59945
G1 F2400 E23.09945
G0 F12000 X155.96 Y144.93
G1 F2400 E23.59945
G1 F900 X154.90 Y143.87 E23.64919
G0 F12000 X154.97 Y144.50
G1 F900 X155.98 Y145.52 E23.69707
G0 F12000 X156.00 Y146.10
G1 F900 X155.01 Y145.12 E23.74361
G0 F12000 X155.07 Y145.74
G1 F900 X156.01 Y146.68 E23.78774
G0 F12000 X156.01 Y147.24
G1 F900 X155.08 Y146.31 E23.83124
G0 F12000 X154.82 Y146.62
G1 F900 X156.00 Y147.80 E23.88691
G1 F2400 E23.38691
G0 F12000 X153.07 Y147.14
G1 F2400 E23.88691
G1 F900 X148.01 Y142.07 E24.12499
G0 F12000 X148.01 Y142.64
G1 F900 X152.85 Y147.47 E24.35237
G0 F12000 X152.85 Y148.04
G1 F900 X148.01 Y143.21 E24.57972
G0 F12000 X148.01 Y143.77
G1 F900 X152.44 Y148.20 E24.78816
G0 F12000 X151.88 Y148.20
G1 F900 X148.01 Y144.34 E24.97001
G0 F12000 X148.01 Y144.90
G1 F900 X151.31 Y148.20 E25.12523
G0 F12000 X150.75 Y148.20
G1 F900 X148.01 Y145.47 E25.25385
G0 F12000 X148.01 Y146.03
G1 F900 X150.18 Y148.20 E25.35588
G0 F12000 X149.62 Y148.20
G1 F900 X148.01 Y146.60 E25.43128
G0 F12000 X148.01 Y147.16
G1 F900 X149.05 Y148.20 E25.48008
G0 F12000 X148.49 Y148.20
G1 F900 X148.01 Y147.73 E25.50228
G1 F2400 E25.00228
G0 F12000 X152.08 Y137.66
G1 F2400 E25.50228
G1 F900 X151.71 Y137.29 E25.51968
;LAYER:1
M106 S12
G0 F12000 X152.04 Y137.28 Z0.35
;TYPE:WALL-INNER
G1 F1440 X153.76 Y137.05 E25.56293
G1 X154.40 Y136.96 E25.57882
G1 X155.40 Y136.83 E25.60410
G1 X155.55 Y136.83 E25.60776
G1 X155.61 Y137.51 E25.62470
G1 X155.73 Y138.89 E25.65921
G1 X157.13 Y138.78 E25.69411
G1 X157.13 Y147.39 E25.90850
G1 X156.21 Y147.36 E25.93148
G1 X156.15 Y148.77 E25.96657
G1 X156.12 Y149.37 E25.98162
G1 X156.08 Y149.91 E25.99501
G1 X156.04 Y150.44 E26.00826
G1 X156.00 Y150.97 E26.02152
G1 X155.95 Y151.50 E26.03479
G1 X155.89 Y152.03 E26.04800
G1 X155.83 Y152.56 E26.06115
G1 X155.77 Y153.09 E26.07451
G1 X155.70 Y153.61 E26.08751
G1 X155.63 Y154.13 E26.10057
G1 X155.55 Y154.66 E26.11390
G1 X155.47 Y155.16 E26.12651
G1 X155.39 Y155.69 E26.13979
G1 X155.30 Y156.20 E26.15273
G1 X155.21 Y156.72 E26.16579
G1 X155.12 Y157.22 E26.17861
G1 X155.02 Y157.73 E26.19153
G1 X154.92 Y158.24 E26.20434
G1 X154.82 Y158.74 E26.21705
G1 X154.71 Y159.24 E26.22983
G1 X154.56 Y159.85 E26.24541
G1 X154.41 Y160.44 E26.26060
G1 X154.26 Y160.98 E26.27447
G1 X154.05 Y161.68 E26.29280
G1 X153.90 Y162.17 E26.30543
G1 X153.74 Y162.65 E26.31809
G1 X153.57 Y163.12 E26.33063
G1 X153.22 Y164.04 E26.35513
G1 X152.84 Y164.95 E26.37947
G1 X152.63 Y165.42 E26.39241
G1 X152.21 Y166.29 E26.41652
G1 X151.98 Y166.75 E26.42909
G1 X151.76 Y167.17 E26.44094
G1 X151.29 Y168.02 E26.46516
G1 X151.00 Y168.51 E26.47917
G1 X150.83 Y168.38 E26.48457
G1 X151.23 Y167.58 E26.50683
G1 X151.49 Y167.04 E26.52181
G1 X151.73 Y166.50 E26.53662
G1 X151.98 Y165.94 E26.55184
G1 X152.20 Y165.38 E26.56689
G1 X152.42 Y164.82 E26.58183
G1 X152.62 Y164.25 E26.59682
G1 X152.82 Y163.68 E26.61187
G1 X153.01 Y163.09 E26.62715
G1 X153.18 Y162.53 E26.64186
G1 X153.34 Y161.94 E26.65687
G1 X153.47 Y161.41 E26.67073
G1 X153.63 Y160.78 E26.68673
G1 X153.75 Y160.19 E26.70175
G1 X153.87 Y159.60 E26.71662
G1 X153.98 Y159.01 E26.73152
G1 X154.08 Y158.43 E26.74637
G1 X154.17 Y157.84 E26.76120
G1 X154.26 Y157.25 E26.77606
G1 X154.33 Y156.66 E26.79077
G1 X154.41 Y156.07 E26.80549
G1 X154.48 Y155.48 E26.82027
G1 X154.54 Y154.97 E26.83307
G1 X154.61 Y154.31 E26.84964
G1 X154.67 Y153.72 E26.86444
G1 X154.72 Y153.13 E26.87918
G1 X154.77 Y152.54 E26.89394
G1 X154.81 Y151.94 E26.90874
G1 X154.85 Y151.35 E26.92345
G1 X154.89 Y150.76 E26.93823
G1 X154.91 Y150.17 E26.95302
G1 X154.91 Y150.10 E26.95469
G1 X154.93 Y149.57 E26.96779
G1 X154.95 Y148.86 E26.98549
G1 X154.96 Y148.35 E26.99835
G1 X154.96 Y147.91 E27.00913
G1 X154.95 Y147.30 E27.02451
G1 X154.94 Y147.14 E27.02845
G1 X154.94 Y146.71 E27.03912
G1 X154.93 Y146.71 E27.03940
G1 X154.91 Y146.04 E27.05610
G1 X154.88 Y145.52 E27.06904
G1 X154.81 Y144.81 E27.08672
G1 X154.76 Y144.22 E27.10149
G1 X154.60 Y142.53 E27.14383
G1 X154.54 Y141.89 E27.15967
G1 X154.50 Y141.30 E27.17439
G1 X154.45 Y140.72 E27.18899
G1 X154.35 Y139.54 E27.21828
G1 X152.37 Y139.70 E27.26776
G1 X152.51 Y141.53 E27.31321
G1 X152.57 Y142.17 E27.32939
G1 X152.62 Y142.77 E27.34430
G1 X152.74 Y144.00 E27.37497
G1 X152.79 Y144.61 E27.39031
G1 X152.84 Y145.21 E27.40537
G1 X152.89 Y145.81 E27.42026
G1 X152.92 Y146.38 E27.43442
G1 X152.94 Y146.91 E27.44767
G1 X152.96 Y147.65 E27.46609
G1 X152.96 Y148.25 E27.48089
G1 X152.96 Y148.35 E27.48341
G1 X147.87 Y148.35 E27.61001
G1 X147.87 Y136.83 E27.89661
G1 X148.11 Y136.83 E27.90243
G1 X148.56 Y136.83 E27.91363
G1 X148.67 Y136.83 E27.91639
G1 X149.12 Y136.83 E27.92761
G1 X149.23 Y136.83 E27.93038
G1 X149.68 Y136.83 E27.94162
G1 X149.79 Y136.83 E27.94438
G1 X150.24 Y136.83 E27.95561
G1 X150.35 Y136.83 E27.95837
G1 X150.81 Y136.83 E27.96962
G1 X150.92 Y136.83 E27.97238
G1 X151.37 Y136.83 E27.98360
G1 X151.48 Y136.83 E27.98636
G1 X151.93 Y136.83 E27.99761
G1 X152.04 Y136.83 E28.00035
G1 X152.04 Y137.28 E28.01149
G0 F12000 X152.44 Y136.82
G1 F1440 X155.38 Y136.43 E28.08535
G1 X155.91 Y136.43 E28.09851
G1 X156.01 Y137.47 E28.12461
G1 X156.09 Y138.46 E28.14923
G1 X157.28 Y138.36 E28.17888
G1 X157.22 Y137.53 E28.19965
G1 X157.16 Y136.88 E28.21581
G1 X157.11 Y136.43 E28.22719
G1 X157.53 Y136.43 E28.23747
G1 X157.53 Y147.81 E28.52056
G1 X156.59 Y147.77 E28.54396
G1 X156.54 Y148.81 E28.56969
G1 X156.51 Y149.40 E28.58449
G1 X156.48 Y149.95 E28.59810
G1 X156.44 Y150.48 E28.61132
G1 X156.39 Y151.02 E28.62481
G1 X156.34 Y151.54 E28.63803
G1 X156.29 Y152.08 E28.65134
G1 X156.23 Y152.61 E28.66459
G1 X156.16 Y153.13 E28.67780
G1 X156.09 Y153.66 E28.69108
G1 X156.02 Y154.19 E28.70421
G1 X155.95 Y154.71 E28.71741
G1 X155.87 Y155.22 E28.73033
G1 X155.78 Y155.75 E28.74366
G1 X155.69 Y156.27 E28.75668
G1 X155.60 Y156.79 E28.76976
G1 X155.51 Y157.30 E28.78286
G1 X155.41 Y157.81 E28.79570
G1 X155.31 Y158.32 E28.80862
G1 X155.21 Y158.82 E28.82145
G1 X155.09 Y159.33 E28.83438
G1 X154.95 Y159.93 E28.84976
G1 X154.79 Y160.56 E28.86586
G1 X154.65 Y161.07 E28.87913
G1 X154.43 Y161.80 E28.89807
G1 X154.28 Y162.29 E28.91087
G1 X154.11 Y162.79 E28.92397
G1 X153.77 Y163.72 E28.94862
G1 X153.59 Y164.19 E28.96121
G1 X153.39 Y164.67 E28.97398
G1 X152.99 Y165.58 E28.99865
G1 X152.56 Y166.47 E29.02339
G1 X152.11 Y167.36 E29.04809
G1 X151.87 Y167.80 E29.06057
G1 X151.39 Y168.65 E29.08481
G1 X151.13 Y169.07 E29.09729
G1 X150.31 Y168.51 E29.12194
G1 X150.60 Y167.94 E29.13793
G1 X150.87 Y167.41 E29.15274
G1 X151.12 Y166.87 E29.16756
G1 X151.37 Y166.34 E29.18221
G1 X151.61 Y165.78 E29.19721
G1 X151.83 Y165.23 E29.21205
G1 X152.04 Y164.68 E29.22683
G1 X152.25 Y164.12 E29.24163
G1 X152.44 Y163.55 E29.25647
G1 X152.63 Y162.97 E29.27156
G1 X152.79 Y162.42 E29.28608
G1 X152.95 Y161.84 E29.30087
G1 X153.09 Y161.31 E29.31458
G1 X153.24 Y160.69 E29.33040
G1 X153.36 Y160.11 E29.34521
G1 X153.48 Y159.53 E29.35994
G1 X153.59 Y158.95 E29.37469
G1 X153.69 Y158.36 E29.38942
G1 X153.78 Y157.78 E29.40411
G1 X153.86 Y157.19 E29.41884
G1 X153.94 Y156.61 E29.43350
G1 X154.01 Y156.02 E29.44817
G1 X154.08 Y155.44 E29.46286
G1 X154.14 Y154.93 E29.47560
G1 X154.21 Y154.27 E29.49210
G1 X154.27 Y153.68 E29.50683
G1 X154.32 Y153.09 E29.52149
G1 X154.37 Y152.51 E29.53615
G1 X154.42 Y151.92 E29.55087
G1 X154.46 Y151.33 E29.56551
G1 X154.49 Y150.74 E29.58016
G1 X154.51 Y150.15 E29.59483
G1 X154.53 Y149.56 E29.60950
G1 X154.56 Y148.75 E29.62986
G1 X154.56 Y148.31 E29.64081
G1 X154.56 Y147.69 E29.65604
G1 X154.54 Y147.11 E29.67052
G1 X154.53 Y146.76 E29.67931
G1 X154.52 Y146.45 E29.68705
G1 X154.50 Y145.93 E29.69986
G1 X154.46 Y145.43 E29.71233
G1 X154.42 Y144.84 E29.72705
G1 X154.36 Y144.26 E29.74172
G1 X154.20 Y142.57 E29.78396
G1 X154.15 Y141.93 E29.79992
G1 X154.10 Y141.33 E29.81475
G1 X154.05 Y140.75 E29.82935
G1 X153.99 Y139.97 E29.84870
G1 X152.80 Y140.07 E29.87836
G1 X152.91 Y141.49 E29.91390
G1 X152.96 Y142.14 E29.92998
G1 X153.02 Y142.73 E29.94484
G1 X153.13 Y143.96 E29.97551
G1 X153.19 Y144.57 E29.99076
G1 X153.24 Y145.19 E30.00616
G1 X153.28 Y145.78 E30.02090
G1 X153.32 Y146.37 E30.03558
G1 X153.34 Y146.93 E30.04963
G1 X153.35 Y147.64 E30.06725
G1 X153.36 Y148.23 E30.08198
G1 X153.36 Y148.75 E30.09480
G1 X147.47 Y148.75 E30.24118
G1 X147.47 Y136.43 E30.54764
G1 X147.77 Y136.43 E30.55508
G1 X148.11 Y136.43 E30.56341
G1 X148.56 Y136.43 E30.57463
G1 X148.67 Y136.43 E30.57740
G1 X149.12 Y136.43 E30.58862
G1 X149.23 Y136.43 E30.59138
G1 X149.68 Y136.43 E30.60263
G1 X149.79 Y136.43 E30.60539
G1 X150.25 Y136.43 E30.61661
G1 X150.36 Y136.43 E30.61937
G1 X150.81 Y136.43 E30.63062
G1 X150.92 Y136.43 E30.63338
G1 X151.37 Y136.43 E30.64461
G1 X151.48 Y136.43 E30.64737
G1 X151.93 Y136.43 E30.65861
G1 X152.04 Y136.43 E30.66138
G1 X152.44 Y136.43 E30.67123
G1 X152.44 Y136.82 E30.68101
G0 F12000 X152.84 Y136.37
;TYPE:WALL-OUTER
G1 F1440 X155.36 Y136.03 E30.74427
G1 X155.42 Y136.03 E30.74576
G1 X155.87 Y136.03 E30.75706
G1 X155.98 Y136.03 E30.75977
G1 X156.27 Y136.03 E30.76684
G1 X156.30 Y136.34 E30.77466
G1 X156.70 Y136.30 E30.78457
G1 X156.67 Y136.03 E30.79129
G1 X157.56 Y136.03 E30.81348
G1 X157.67 Y136.03 E30.81629
G1 X157.93 Y136.03 E30.82259
G1 X157.93 Y149.15 E31.14893
G1 X157.33 Y149.15 E31.16386
G1 X157.34 Y148.77 E31.17310
G1 X156.95 Y148.75 E31.18296
G1 X156.91 Y149.43 E31.19966
G1 X156.88 Y149.97 E31.21327
G1 X156.84 Y150.51 E31.22672
G1 X156.79 Y151.05 E31.24015
G1 X156.74 Y151.59 E31.25360
G1 X156.68 Y152.12 E31.26701
G1 X156.62 Y152.65 E31.28033
G1 X156.56 Y153.19 E31.29370
G1 X156.42 Y154.24 E31.32018
G1 X156.34 Y154.77 E31.33348
G1 X156.26 Y155.29 E31.34650
G1 X156.18 Y155.82 E31.35986
G1 X156.09 Y156.34 E31.37295
G1 X155.91 Y157.37 E31.39913
G1 X155.81 Y157.89 E31.41223
G1 X155.70 Y158.40 E31.42520
G1 X155.60 Y158.91 E31.43824
G1 X155.48 Y159.43 E31.45126
G1 X155.34 Y160.03 E31.46677
G1 X155.18 Y160.65 E31.48276
G1 X155.03 Y161.19 E31.49653
G1 X154.81 Y161.93 E31.51570
G1 X154.65 Y162.42 E31.52866
G1 X154.49 Y162.92 E31.54176
G1 X154.32 Y163.40 E31.55441
G1 X154.14 Y163.87 E31.56699
G1 X153.96 Y164.35 E31.57960
G1 X153.76 Y164.82 E31.59229
G1 X153.35 Y165.75 E31.61753
G1 X153.14 Y166.20 E31.63008
G1 X152.92 Y166.66 E31.64258
G1 X152.69 Y167.11 E31.65516
G1 X152.22 Y167.99 E31.67996
G1 X151.73 Y168.85 E31.70478
G1 X151.25 Y169.64 E31.72773
G1 X149.79 Y168.64 E31.77174
G1 X150.25 Y167.76 E31.79641
G1 X150.51 Y167.24 E31.81105
G1 X150.76 Y166.70 E31.82571
G1 X151.00 Y166.17 E31.84018
G1 X151.24 Y165.63 E31.85497
G1 X151.46 Y165.08 E31.86962
G1 X151.67 Y164.54 E31.88421
G1 X151.87 Y163.98 E31.89883
G1 X152.06 Y163.43 E31.91348
G1 X152.25 Y162.86 E31.92834
G1 X152.41 Y162.31 E31.94267
G1 X152.57 Y161.74 E31.95728
G1 X152.70 Y161.21 E31.97081
G1 X152.85 Y160.60 E31.98646
G1 X152.97 Y160.03 E32.00107
G1 X153.09 Y159.45 E32.01564
G1 X153.19 Y158.88 E32.03023
G1 X153.29 Y158.30 E32.04485
G1 X153.38 Y157.72 E32.05943
G1 X153.47 Y157.14 E32.07403
G1 X153.54 Y156.56 E32.08859
G1 X153.62 Y155.97 E32.10322
G1 X153.69 Y155.39 E32.11783
G1 X153.82 Y154.23 E32.14695
G1 X153.87 Y153.64 E32.16157
G1 X153.93 Y153.06 E32.17619
G1 X153.97 Y152.48 E32.19074
G1 X154.02 Y151.89 E32.20537
G1 X154.06 Y151.31 E32.21993
G1 X154.09 Y150.72 E32.23448
G1 X154.12 Y150.14 E32.24905
G1 X154.14 Y149.55 E32.26362
G1 X154.15 Y149.15 E32.27375
G1 X147.07 Y149.15 E32.44972
G1 X147.07 Y136.03 E32.77598
G1 X147.16 Y136.03 E32.77815
G1 X147.27 Y136.03 E32.78081
G1 X147.77 Y136.03 E32.79340
G1 X148.11 Y136.03 E32.80171
G1 X148.56 Y136.03 E32.81299
G1 X148.67 Y136.03 E32.81570
G1 X149.12 Y136.03 E32.82697
G1 X149.23 Y136.03 E32.82968
G1 X149.69 Y136.03 E32.84098
G1 X149.79 Y136.03 E32.84369
G1 X150.25 Y136.03 E32.85496
G1 X150.36 Y136.03 E32.85768
G1 X150.81 Y136.03 E32.86897
G1 X150.92 Y136.03 E32.87168
G1 X151.37 Y136.03 E32.88296
G1 X151.48 Y136.03 E32.88567
G1 X151.94 Y136.03 E32.89697
G1 X152.04 Y136.03 E32.89968
G1 X152.50 Y136.03 E32.91095
G1 X152.61 Y136.03 E32.91366
G1 X152.84 Y136.03 E32.91943
G1 X152.84 Y136.37 E32.92780
G1 F2400 E32.42780
G0 F12000 X156.35 Y136.78
G1 F2400 E32.92780
G1 F1440 X156.41 Y137.44 E32.94426
G1 X156.46 Y138.03 E32.95897
G1 X156.85 Y138.00 E32.96885
G1 X156.76 Y136.94 E32.99537
G1 X156.73 Y136.73 E33.00049
G1 X156.35 Y136.78 E33.01003
G1 F2400 E32.51003
G0 F12000 X153.31 Y141.46
G1 F2400 E33.01003
G1 F1440 X153.36 Y142.10 E33.02606
G1 X153.41 Y142.70 E33.04084
G1 X153.59 Y144.54 E33.08683
G1 X153.64 Y145.16 E33.10242
G1 X153.68 Y145.75 E33.11726
G1 X153.72 Y146.40 E33.13336
G1 X154.11 Y146.38 E33.14318
G1 X154.06 Y145.46 E33.16610
G1 X154.02 Y144.88 E33.18068
G1 X153.75 Y141.96 E33.25350
G1 X153.31 Y141.46 E33.27009
G1 F2400 E32.77009
G0 F12000 X154.13 Y146.64
G1 F2400 E33.27009
G1 F1440 X153.74 Y146.86 E33.28121
G1 X154.13 Y146.85 E33.29091
G1 X154.13 Y146.64 E33.29614
G0 F12000 X154.13 Y146.86
G1 F1440 X153.74 Y146.87 E33.30597
G1 X153.75 Y147.58 E33.32359
G1 X153.76 Y148.07 E33.33586
G1 X154.15 Y148.07 E33.34574
G1 X154.15 Y147.51 E33.35952
G1 X154.13 Y146.86 E33.37585
G0 F12000 X154.16 Y148.09
G1 F1440 X153.76 Y148.09 E33.38573
G1 X153.76 Y148.65 E33.39969
G1 X154.15 Y148.66 E33.40954
G1 X154.16 Y148.09 E33.42355
G0 F12000 X154.15 Y148.70
G1 F1440 X153.76 Y148.69 E33.43343
G1 X153.75 Y148.96 E33.44010
G1 X154.15 Y148.97 E33.45001
G1 X154.15 Y148.70 E33.45668
G1 F2400 E32.95668
G0 F12000 X156.96 Y148.45
G1 F2400 E33.45668
G1 F1440 X157.36 Y148.47 E33.46659
G1 X157.37 Y148.20 E33.47323
G1 X156.97 Y148.19 E33.48309
G1 X156.96 Y148.45 E33.48974
G0 F12000 X156.02 Y148.28
;TYPE:FILL
G1 F1440 X155.09 Y148.96 E33.51842
G0 F12000 X155.10 Y148.46
G1 F1440 X156.04 Y147.77 E33.54741
G0 F12000 X156.07 Y147.26
G1 F1440 X155.10 Y147.97 E33.57713
G0 F12000 X155.09 Y147.47
G1 F1440 X156.99 Y146.10 E33.63529
G0 F12000 X156.99 Y146.59
G1 F1440 X156.13 Y147.22 E33.66169
G0 F12000 X156.78 Y147.24
G1 F1440 X156.99 Y147.09 E33.66819
G0 F12000 X156.99 Y145.61
G1 F1440 X155.08 Y146.99 E33.72678
G0 F12000 X155.06 Y146.51
G1 F1440 X156.99 Y145.11 E33.78604
G0 F12000 X156.99 Y144.62
G1 F1440 X155.04 Y146.03 E33.84579
G0 F12000 X155.02 Y145.56
G1 F1440 X156.99 Y144.13 E33.90633
G0 F12000 X156.99 Y143.63
G1 F1440 X154.98 Y145.09 E33.96803
G0 F12000 X154.94 Y144.63
G1 F1440 X156.99 Y143.14 E34.03099
G0 F12000 X156.99 Y142.65
G1 F1440 X154.90 Y144.17 E34.09521
G0 F12000 X154.86 Y143.70
G1 F1440 X156.99 Y142.16 E34.16067
G0 F12000 X156.99 Y141.66
G1 F1440 X154.82 Y143.24 E34.22739
G0 F12000 X154.78 Y142.77
G1 F1440 X156.99 Y141.17 E34.29535
G0 F12000 X156.99 Y140.68
G1 F1440 X154.74 Y142.31 E34.36459
G0 F12000 X154.70 Y141.85
G1 F1440 X156.99 Y140.18 E34.43506
G0 F12000 X156.99 Y139.69
G1 F1440 X154.66 Y141.38 E34.50678
G0 F12000 X154.62 Y140.92
G1 F1440 X156.99 Y139.20 E34.57973
G0 F12000 X156.64 Y138.96
G1 F1440 X154.57 Y140.46 E34.64325
G0 F12000 X154.53 Y139.99
G1 F1440 X155.88 Y139.02 E34.68455
G0 F12000 X155.57 Y138.74
G1 F1440 X154.49 Y139.53 E34.71783
G0 F12000 X153.94 Y139.44
G1 F1440 X155.53 Y138.28 E34.76691
G0 F12000 X155.50 Y137.81
G1 F1440 X153.18 Y139.50 E34.83825
G0 F12000 X152.41 Y139.56
G1 F1440 X155.45 Y137.35 E34.93181
G0 F12000 X155.28 Y136.99
G1 F1440 X148.01 Y142.26 E35.15526
G0 F12000 X148.01 Y141.77
G1 F1440 X154.44 Y137.10 E35.35312
G0 F12000 X153.61 Y137.21
G1 F1440 X148.01 Y141.28 E35.52539
G0 F12000 X148.01 Y140.78
G1 F1440 X152.78 Y137.32 E35.67211
G0 F12000 X151.95 Y137.43
G1 F1440 X148.01 Y140.29 E35.79323
G0 F12000 X148.01 Y139.80
G1 F1440 X151.90 Y136.97 E35.91285
G0 F12000 X151.23 Y136.97
G1 F1440 X148.01 Y139.31 E36.01179
G0 F12000 X148.01 Y138.81
G1 F1440 X150.55 Y136.97 E36.08985
G0 F12000 X149.87 Y136.97
G1 F1440 X148.01 Y138.32 E36.14702
G0 F12000 X148.01 Y137.83
G1 F1440 X149.19 Y136.97 E36.18330
G0 F12000 X148.51 Y136.97
G1 F1440 X148.01 Y137.33 E36.19868
G1 F2400 E35.69868
G0 F12000 X152.23 Y139.69
G1 F2400 E36.19868
G1 F1440 X148.01 Y142.76 E36.32844
G0 F12000 X148.01 Y143.25
G1 F1440 X152.27 Y140.16 E36.45941
G0 F12000 X152.31 Y140.62
G1 F1440 X148.01 Y143.74 E36.59159
G0 F12000 X148.01 Y144.24
G1 F1440 X152.35 Y141.09 E36.72500
G0 F12000 X152.39 Y141.55
G1 F1440 X148.01 Y144.73 E36.85962
G0 F12000 X148.01 Y145.22
G1 F1440 X152.43 Y142.01 E36.99544
G0 F12000 X152.47 Y142.48
G1 F1440 X148.01 Y145.72 E37.13252
G0 F12000 X148.01 Y146.21
G1 F1440 X152.51 Y142.94 E37.27081
G0 F12000 X152.55 Y143.41
G1 F1440 X148.01 Y146.70 E37.41033
G0 F12000 X148.01 Y147.20
G1 F1440 X152.59 Y143.87 E37.55109
G0 F12000 X152.63 Y144.34
G1 F1440 X148.01 Y147.69 E37.69309
G0 F12000 X148.01 Y148.18
G1 F1440 X152.67 Y144.80 E37.83632
G0 F12000 X152.71 Y145.26
G1 F1440 X148.66 Y148.21 E37.96087
G0 F12000 X149.34 Y148.21
G1 F1440 X152.74 Y145.74 E38.06544
G0 F12000 X152.77 Y146.21
G1 F1440 X150.01 Y148.21 E38.15005
G0 F12000 X150.69 Y148.21
G1 F1440 X152.79 Y146.69 E38.21443
G0 F12000 X152.80 Y147.17
G1 F1440 X151.37 Y148.21 E38.25838
G0 F12000 X152.05 Y148.21
G1 F1440 X152.81 Y147.65 E38.28184
G0 F12000 X152.82 Y148.14
G1 F1440 X152.73 Y148.21 E38.28459
G1 F2400 E37.78459
G0 F12000 X155.08 Y149.46
G1 F2400 E38.28459
G1 F1440 X156.00 Y148.79 E38.31295
G0 F12000 X155.98 Y149.30
G1 F1440 X155.06 Y149.97 E38.34118
G0 F12000 X155.04 Y150.48
G1 F1440 X155.95 Y149.82 E38.36911
G0 F12000 X155.91 Y150.34
G1 F1440 X155.01 Y150.99 E38.39658
G0 F12000 X154.98 Y151.50
G1 F1440 X155.86 Y150.86 E38.42375
G0 F12000 X155.81 Y151.39
G1 F1440 X154.95 Y152.02 E38.45032
G0 F12000 X154.91 Y152.54
G1 F1440 X155.76 Y151.92 E38.47660
G0 F12000 X155.70 Y152.46
G1 F1440 X154.86 Y153.07 E38.50234
G0 F12000 X154.82 Y153.59
G1 F1440 X155.63 Y153.00 E38.52747
G0 F12000 X155.56 Y153.55
G1 F1440 X154.76 Y154.13 E38.55193
G0 F12000 X154.71 Y154.66
G1 F1440 X155.48 Y154.10 E38.57586
G0 F12000 X155.41 Y154.65
G1 F1440 X154.65 Y155.20 E38.59917
G0 F12000 X154.59 Y155.73
G1 F1440 X155.32 Y155.20 E38.62175
G0 F12000 X155.23 Y155.76
G1 F1440 X154.52 Y156.28 E38.64350
G0 F12000 X154.45 Y156.82
G1 F1440 X155.13 Y156.33 E38.66437
G0 F12000 X155.03 Y156.89
G1 F1440 X154.38 Y157.37 E38.68449
G0 F12000 X154.93 Y157.46
G1 F1440 X154.56 Y157.98 E38.70397
G1 X154.45 Y158.54 E38.72251
G1 X154.34 Y159.12 E38.74052
G1 X154.22 Y159.70 E38.75766
G1 X154.08 Y160.29 E38.77399
G1 X153.93 Y160.90 E38.78950
G1 X153.77 Y161.51 E38.80395
G1 X153.59 Y162.13 E38.81745
G1 X153.39 Y162.77 E38.82987
G1 X153.17 Y163.42 E38.84102
G1 X152.93 Y164.09 E38.85076
G1 X152.66 Y164.78 E38.85919
G1 X152.41 Y165.21 E38.87131
G1 F2400 E38.37131
G0 F12000 X153.74 Y141.65
G1 F2400 E38.87131
G1 F1440 X153.70 Y141.41 E38.87782
G1 X153.88 Y140.95 E38.89022
G0 F12000 X153.84 Y140.43
G1 F1440 X153.07 Y141.20 E38.91751
G0 F12000 X153.03 Y140.68
G1 F1440 X153.51 Y140.19 E38.93458
;LAYER:2
M106 S25
G1 F2400 E38.43458
G0 F12000 X155.88 Y140.87 Z0.50
;TYPE:WALL-INNER
G1 F2400 E38.93458
G1 F2040 X155.97 Y142.10 E38.96533
G1 X156.05 Y143.24 E38.99380
G1 X157.13 Y143.16 E39.02067
G1 X157.13 Y143.32 E39.02451
G1 X156.07 Y143.38 E39.05093
G1 X156.16 Y144.85 E39.08746
G1 X156.19 Y145.49 E39.10340
G1 X156.21 Y145.99 E39.11600
G1 X156.22 Y146.66 E39.13247
G1 X156.22 Y147.36 E39.14999
G1 X156.19 Y148.66 E39.18223
G1 X156.14 Y149.50 E39.20328
G1 X156.10 Y150.07 E39.21742
G1 X156.06 Y150.63 E39.23160
G1 X156.01 Y151.20 E39.24579
G1 X155.95 Y151.77 E39.25999
G1 X155.89 Y152.34 E39.27421
G1 X155.82 Y152.90 E39.28831
G1 X155.75 Y153.46 E39.30229
G1 X155.68 Y153.98 E39.31547
G1 X155.60 Y154.51 E39.32862
G1 X155.53 Y155.03 E39.34171
G1 X155.44 Y155.55 E39.35486
G1 X155.36 Y156.07 E39.36797
G1 X155.27 Y156.59 E39.38103
G1 X155.18 Y157.11 E39.39422
G1 X155.08 Y157.61 E39.40692
G1 X154.98 Y158.12 E39.41988
G1 X154.88 Y158.64 E39.43297
G1 X154.76 Y159.17 E39.44667
G1 X154.57 Y159.96 E39.46683
G1 X154.07 Y160.42 E39.48376
G1 X154.00 Y161.02 E39.49870
G1 X154.10 Y161.40 E39.50842
G1 X154.15 Y161.48 E39.51089
G1 X153.96 Y162.08 E39.52657
G1 X153.80 Y162.57 E39.53939
G1 X153.63 Y163.05 E39.55204
G1 X153.46 Y163.53 E39.56472
G1 X153.09 Y164.46 E39.58968
G1 X152.69 Y165.38 E39.61450
G1 X152.27 Y166.26 E39.63887
G1 X151.82 Y167.15 E39.66361
G1 X151.58 Y167.59 E39.67626
G1 X151.08 Y168.46 E39.70113
G1 X151.04 Y168.53 E39.70310
G1 X150.79 Y168.36 E39.71068
G1 X151.19 Y167.57 E39.73275
G1 X151.45 Y167.02 E39.74775
G1 X151.70 Y166.47 E39.76277
G1 X151.94 Y165.92 E39.77773
G1 X152.16 Y165.36 E39.79271
G1 X152.37 Y164.84 E39.80677
G1 X152.59 Y164.24 E39.82265
G1 X152.78 Y163.67 E39.83766
G1 X152.97 Y163.08 E39.85292
G1 X153.14 Y162.52 E39.86763
G1 X153.30 Y161.94 E39.88260
G1 X153.45 Y161.35 E39.89756
G1 X153.59 Y160.77 E39.91250
G1 X153.72 Y160.18 E39.92742
G1 X153.84 Y159.60 E39.94232
G1 X153.94 Y159.06 E39.95586
G1 X154.04 Y158.46 E39.97113
G1 X154.13 Y157.89 E39.98531
G1 X154.21 Y157.32 E39.99974
G1 X154.30 Y156.66 E40.01644
G1 X154.38 Y156.07 E40.03112
G1 X154.45 Y155.48 E40.04583
G1 X154.51 Y154.89 E40.06061
G1 X154.58 Y154.31 E40.07532
G1 X154.64 Y153.72 E40.09005
G1 X154.69 Y153.13 E40.10474
G1 X154.74 Y152.53 E40.11957
G1 X154.78 Y151.94 E40.13434
G1 X154.82 Y151.34 E40.14928
G1 X154.85 Y150.82 E40.16239
G1 X154.88 Y150.18 E40.17828
G1 X154.90 Y149.57 E40.19335
G1 X154.91 Y149.05 E40.20644
G1 X154.93 Y148.35 E40.22388
G1 X154.93 Y147.88 E40.23551
G1 X152.95 Y147.84 E40.28498
G1 X152.94 Y148.35 E40.29750
G1 X147.87 Y148.35 E40.42348
G1 X147.87 Y136.61 E40.71558
G1 X148.47 Y136.61 E40.73056
G1 X148.57 Y136.61 E40.73300
G1 X149.04 Y136.61 E40.74454
G1 X149.13 Y136.61 E40.74698
G1 X149.60 Y136.61 E40.75855
G1 X149.70 Y136.61 E40.76099
G1 X150.16 Y136.61 E40.77254
G1 X150.26 Y136.61 E40.77498
G1 X150.72 Y136.61 E40.78655
G1 X150.82 Y136.61 E40.78898
G1 X151.29 Y136.61 E40.80053
G1 X151.38 Y136.61 E40.80297
G1 X151.85 Y136.61 E40.81454
G1 X152.01 Y136.61 E40.81860
G1 X152.01 Y137.28 E40.83539
G1 X154.32 Y136.97 E40.89336
G1 X154.94 Y136.89 E40.90892
G1 X155.18 Y136.86 E40.91485
G1 X155.59 Y136.81 E40.92509
G1 X155.65 Y137.36 E40.93900
G1 X157.13 Y137.19 E40.97596
G1 X157.13 Y140.78 E41.06527
G1 X155.88 Y140.87 E41.09637
G0 F12000 X156.31 Y141.24
G1 F2040 X156.36 Y142.07 E41.11717
G1 X156.42 Y142.81 E41.13569
G1 X157.53 Y142.73 E41.16333
G1 X157.53 Y143.69 E41.18714
G1 X156.49 Y143.76 E41.21297
G1 X156.56 Y144.85 E41.24017
G1 X156.59 Y145.46 E41.25535
G1 X156.61 Y145.99 E41.26856
G1 X156.62 Y146.64 E41.28489
G1 X156.62 Y147.34 E41.30223
G1 X156.59 Y148.66 E41.33509
G1 X156.54 Y149.53 E41.35667
G1 X156.50 Y150.10 E41.37111
G1 X156.46 Y150.67 E41.38521
G1 X156.40 Y151.25 E41.39962
G1 X156.35 Y151.81 E41.41380
G1 X156.29 Y152.39 E41.42812
G1 X156.22 Y152.95 E41.44233
G1 X156.15 Y153.51 E41.45638
G1 X156.07 Y154.04 E41.46961
G1 X156.00 Y154.57 E41.48283
G1 X155.92 Y155.09 E41.49602
G1 X155.84 Y155.62 E41.50930
G1 X155.75 Y156.14 E41.52241
G1 X155.66 Y156.66 E41.53551
G1 X155.57 Y157.18 E41.54863
G1 X155.47 Y157.69 E41.56158
G1 X155.37 Y158.20 E41.57463
G1 X155.27 Y158.72 E41.58771
G1 X155.15 Y159.26 E41.60169
G1 X154.90 Y160.27 E41.62745
G1 X154.78 Y160.31 E41.63063
G1 X154.45 Y160.61 E41.64187
G1 X154.41 Y160.99 E41.65121
G1 X154.47 Y161.24 E41.65781
G1 X154.58 Y161.43 E41.66322
G1 X154.34 Y162.21 E41.68346
G1 X154.18 Y162.70 E41.69643
G1 X154.00 Y163.20 E41.70948
G1 X153.65 Y164.13 E41.73429
G1 X153.46 Y164.60 E41.74696
G1 X153.26 Y165.07 E41.75951
G1 X153.06 Y165.53 E41.77212
G1 X152.85 Y165.99 E41.78461
G1 X152.63 Y166.44 E41.79719
G1 X152.40 Y166.89 E41.80966
G1 X152.17 Y167.34 E41.82220
G1 X151.94 Y167.77 E41.83453
G1 X151.69 Y168.22 E41.84716
G1 X151.43 Y168.66 E41.85987
G1 X151.16 Y169.10 E41.87269
G1 X150.52 Y168.66 E41.89204
G1 X150.27 Y168.49 E41.89963
G1 X150.57 Y167.92 E41.91546
G1 X150.83 Y167.39 E41.93024
G1 X151.09 Y166.85 E41.94505
G1 X151.33 Y166.31 E41.95988
G1 X151.57 Y165.77 E41.97465
G1 X151.79 Y165.22 E41.98947
G1 X152.00 Y164.69 E42.00342
G1 X152.21 Y164.10 E42.01900
G1 X152.41 Y163.54 E42.03384
G1 X152.59 Y162.96 E42.04888
G1 X152.76 Y162.41 E42.06341
G1 X152.92 Y161.83 E42.07818
G1 X153.06 Y161.26 E42.09295
G1 X153.20 Y160.68 E42.10771
G1 X153.33 Y160.10 E42.12245
G1 X153.44 Y159.52 E42.13720
G1 X153.54 Y158.99 E42.15059
G1 X153.55 Y158.94 E42.15203
G1 X153.64 Y158.40 E42.16561
G1 X153.74 Y157.81 E42.18042
G1 X153.82 Y157.25 E42.19440
G1 X153.91 Y156.60 E42.21072
G1 X153.98 Y156.02 E42.22534
G1 X154.05 Y155.44 E42.23999
G1 X154.12 Y154.85 E42.25468
G1 X154.18 Y154.26 E42.26932
G1 X154.24 Y153.68 E42.28398
G1 X154.29 Y153.09 E42.29862
G1 X154.34 Y152.50 E42.31333
G1 X154.38 Y151.91 E42.32800
G1 X154.42 Y151.33 E42.34264
G1 X154.45 Y150.80 E42.35582
G1 X154.46 Y150.73 E42.35754
G1 X154.48 Y150.17 E42.37149
G1 X154.50 Y149.56 E42.38663
G1 X154.51 Y149.04 E42.39957
G1 X154.53 Y148.27 E42.41873
G1 X153.34 Y148.25 E42.44840
G1 X153.33 Y148.75 E42.46074
G1 X147.47 Y148.75 E42.60640
G1 X147.47 Y136.21 E42.91838
G1 X148.47 Y136.21 E42.94327
G1 X148.57 Y136.21 E42.94563
G1 X149.03 Y136.21 E42.95725
G1 X149.13 Y136.21 E42.95962
G1 X149.60 Y136.21 E42.97126
G1 X149.69 Y136.21 E42.97362
G1 X150.16 Y136.21 E42.98524
G1 X150.25 Y136.21 E42.98761
G1 X150.72 Y136.21 E42.99925
G1 X150.82 Y136.21 E43.00162
G1 X151.28 Y136.21 E43.01324
G1 X151.38 Y136.21 E43.01560
G1 X151.85 Y136.21 E43.02725
G1 X151.94 Y136.21 E43.02961
G1 X152.41 Y136.21 E43.04126
G1 X152.41 Y136.83 E43.05661
G1 X154.89 Y136.50 E43.11879
G1 X155.12 Y136.46 E43.12462
G1 X155.93 Y136.36 E43.14500
G1 X156.00 Y136.92 E43.15903
G1 X157.18 Y136.78 E43.18861
G1 X157.12 Y136.21 E43.20302
G1 X157.53 Y136.21 E43.21317
G1 X157.53 Y141.58 E43.34672
G1 X157.50 Y141.16 E43.35722
G1 X156.31 Y141.24 E43.38693
G0 F12000 X156.74 Y141.81
;TYPE:WALL-OUTER
G1 F2040 X156.76 Y142.04 E43.39284
G1 X156.75 Y141.81 E43.39870
G1 X156.94 Y141.79 E43.40364
G1 X156.74 Y141.81 E43.40861
G1 F2400 E42.90861
G0 F12000 X157.35 Y144.67
G1 F2400 E43.40861
G1 F2040 X156.97 Y144.96 E43.42051
G1 X157.36 Y144.94 E43.43030
G1 X157.35 Y144.67 E43.43695
G0 F12000 X157.36 Y144.97
G1 F2040 X156.97 Y144.99 E43.44684
G1 X156.99 Y145.54 E43.46067
G1 X157.39 Y145.53 E43.47051
G1 X157.36 Y144.97 E43.48441
G0 F12000 X157.40 Y145.88
G1 F2040 X157.01 Y145.98 E43.49434
G1 X157.02 Y146.73 E43.51308
G1 X157.41 Y146.73 E43.52289
G1 X157.40 Y145.88 E43.54396
G0 F12000 X157.41 Y146.75
G1 F2040 X157.02 Y146.75 E43.55384
G1 X157.02 Y147.34 E43.56857
G1 X157.41 Y147.35 E43.57840
G1 X157.42 Y147.09 E43.58490
G1 X157.41 Y146.75 E43.59328
G0 F12000 X157.41 Y147.69
G1 F2040 X157.01 Y147.96 E43.60545
G1 X157.40 Y147.97 E43.61531
G1 X157.41 Y147.69 E43.62240
G0 F12000 X157.40 Y148.28
G1 F2040 X156.99 Y148.56 E43.63463
G1 X157.38 Y148.57 E43.64446
G1 X157.40 Y148.28 E43.65164
G0 F12000 X157.36 Y148.99
G1 F2040 X156.97 Y148.97 E43.66148
G1 X156.94 Y149.55 E43.67591
G1 X156.90 Y150.13 E43.69034
G1 X156.85 Y150.71 E43.70469
G1 X156.80 Y151.28 E43.71906
G1 X156.75 Y151.86 E43.73346
G1 X156.68 Y152.43 E43.74788
G1 X156.61 Y153.01 E43.76226
G1 X156.54 Y153.57 E43.77629
G1 X156.47 Y154.10 E43.78962
G1 X156.39 Y154.63 E43.80292
G1 X156.31 Y155.15 E43.81618
G1 X156.23 Y155.68 E43.82946
G1 X156.14 Y156.20 E43.84267
G1 X156.05 Y156.73 E43.85585
G1 X155.96 Y157.25 E43.86902
G1 X155.87 Y157.76 E43.88213
G1 X155.76 Y158.28 E43.89524
G1 X155.66 Y158.80 E43.90833
G1 X155.54 Y159.36 E43.92256
G1 X155.28 Y160.38 E43.94889
G1 X155.23 Y160.60 E43.95444
G1 X155.17 Y160.61 E43.95589
G1 X154.98 Y160.66 E43.96077
G1 X154.83 Y160.81 E43.96608
G1 X154.81 Y160.96 E43.96979
G1 X154.85 Y161.09 E43.97324
G1 X154.91 Y161.19 E43.97622
G1 X155.03 Y161.33 E43.98074
G1 X154.88 Y161.83 E43.99382
G1 X154.72 Y162.33 E44.00692
G1 X154.56 Y162.84 E44.02005
G1 X154.38 Y163.33 E44.03302
G1 X154.21 Y163.80 E44.04561
G1 X154.02 Y164.28 E44.05849
G1 X153.83 Y164.76 E44.07124
G1 X153.63 Y165.23 E44.08398
G1 X153.42 Y165.70 E44.09681
G1 X153.21 Y166.16 E44.10938
G1 X152.98 Y166.62 E44.12210
G1 X152.76 Y167.07 E44.13473
G1 X152.52 Y167.52 E44.14736
G1 X152.28 Y167.97 E44.15993
G1 X152.04 Y168.41 E44.17246
G1 X151.78 Y168.85 E44.18521
G1 X151.47 Y169.37 E44.20031
G1 X151.28 Y169.66 E44.20888
G1 X151.26 Y169.65 E44.20958
G1 X151.25 Y169.64 E44.20995
G1 X149.75 Y168.61 E44.25516
G1 X150.21 Y167.74 E44.27970
G1 X150.47 Y167.22 E44.29433
G1 X150.72 Y166.69 E44.30894
G1 X150.97 Y166.15 E44.32361
G1 X151.20 Y165.61 E44.33818
G1 X151.42 Y165.07 E44.35279
G1 X151.63 Y164.52 E44.36738
G1 X151.84 Y163.97 E44.38198
G1 X152.03 Y163.41 E44.39658
G1 X152.21 Y162.85 E44.41144
G1 X152.37 Y162.29 E44.42578
G1 X152.53 Y161.73 E44.44037
G1 X152.68 Y161.16 E44.45494
G1 X152.81 Y160.59 E44.46952
G1 X152.94 Y160.02 E44.48409
G1 X153.05 Y159.45 E44.49866
G1 X153.15 Y158.92 E44.51189
G1 X153.25 Y158.32 E44.52702
G1 X153.34 Y157.75 E44.54147
G1 X153.42 Y157.19 E44.55565
G1 X153.51 Y156.55 E44.57157
G1 X153.58 Y155.97 E44.58614
G1 X153.66 Y155.39 E44.60074
G1 X153.72 Y154.81 E44.61534
G1 X153.78 Y154.22 E44.62992
G1 X153.84 Y153.64 E44.64450
G1 X153.93 Y152.65 E44.66936
G1 X153.98 Y152.02 E44.68493
G1 X154.02 Y151.40 E44.70037
G1 X154.06 Y150.78 E44.71587
G1 X154.08 Y150.16 E44.73129
G1 X154.11 Y149.55 E44.74648
G1 X154.11 Y149.15 E44.75658
G1 X154.12 Y148.66 E44.76855
G1 X153.73 Y148.66 E44.77844
G1 X153.72 Y149.15 E44.79061
G1 X147.07 Y149.15 E44.95590
G1 X147.07 Y135.81 E45.28769
G1 X147.44 Y135.81 E45.29677
G1 X148.47 Y135.81 E45.32245
G1 X148.56 Y135.81 E45.32479
G1 X149.03 Y135.81 E45.33643
G1 X149.13 Y135.81 E45.33877
G1 X149.60 Y135.81 E45.35044
G1 X149.69 Y135.81 E45.35278
G1 X150.16 Y135.81 E45.36443
G1 X150.25 Y135.81 E45.36677
G1 X150.72 Y135.81 E45.37844
G1 X150.81 Y135.81 E45.38078
G1 X151.28 Y135.81 E45.39242
G1 X151.38 Y135.81 E45.39476
G1 X151.85 Y135.81 E45.40643
G1 X151.94 Y135.81 E45.40877
G1 X152.41 Y135.81 E45.42041
G1 X152.50 Y135.81 E45.42275
G1 X152.97 Y135.81 E45.43440
G1 X153.06 Y135.81 E45.43674
G1 X153.53 Y135.81 E45.44841
G1 X153.63 Y135.81 E45.45075
G1 X154.00 Y135.81 E45.45995
G1 X152.81 Y135.97 E45.48975
G1 X152.81 Y136.37 E45.49975
G1 X156.21 Y135.92 E45.58518
G1 X156.28 Y135.91 E45.58686
G1 X156.35 Y136.48 E45.60109
G1 X156.74 Y136.43 E45.61094
G1 X156.67 Y135.81 E45.62651
G1 X156.91 Y135.81 E45.63241
G1 X157.18 Y135.81 E45.63923
G1 X157.75 Y135.81 E45.65344
G1 X157.84 Y135.81 E45.65568
G1 X157.93 Y135.81 E45.65774
G1 X157.93 Y149.15 E45.98955
G1 X157.36 Y149.15 E46.00371
G1 X157.36 Y148.99 E46.00752
G0 F12000 X156.03 Y148.97
;TYPE:FILL
G1 F2040 X155.07 Y148.02 E46.04115
G0 F12000 X154.79 Y147.74
G1 F2040 X148.01 Y140.96 E46.27970
G0 F12000 X148.01 Y141.52
G1 F2040 X154.22 Y147.73 E46.49803
G0 F12000 X153.64 Y147.72
G1 F2040 X148.01 Y142.09 E46.69615
G0 F12000 X148.01 Y142.65
G1 F2040 X153.06 Y147.71 E46.87399
G0 F12000 X152.80 Y148.00
G1 F2040 X148.01 Y143.22 E47.04255
G0 F12000 X148.01 Y143.78
G1 F2040 X152.44 Y148.21 E47.19830
G0 F12000 X151.87 Y148.21
G1 F2040 X148.01 Y144.34 E47.33420
G0 F12000 X148.01 Y144.91
G1 F2040 X151.31 Y148.21 E47.45024
G0 F12000 X150.74 Y148.21
G1 F2040 X148.01 Y145.47 E47.54641
G0 F12000 X148.01 Y146.04
G1 F2040 X150.18 Y148.21 E47.62274
G0 F12000 X149.62 Y148.21
G1 F2040 X148.01 Y146.60 E47.67922
G0 F12000 X148.01 Y147.16
G1 F2040 X149.05 Y148.21 E47.71583
G0 F12000 X148.49 Y148.21
G1 F2040 X148.01 Y147.73 E47.73258
G1 F2400 E47.23258
G0 F12000 X155.06 Y148.57
G1 F2400 E47.73258
G1 F2040 X155.99 Y149.51 E47.76545
G0 F12000 X155.97 Y150.04
G1 F2040 X155.05 Y149.13 E47.79763
G0 F12000 X155.04 Y149.68
G1 F2040 X155.92 Y150.56 E47.82870
G0 F12000 X155.88 Y151.08
G1 F2040 X155.02 Y150.22 E47.85900
G0 F12000 X154.99 Y150.76
G1 F2040 X155.83 Y151.59 E47.88830
G0 F12000 X155.77 Y152.10
G1 F2040 X154.96 Y151.29 E47.91680
G0 F12000 X154.93 Y151.83
G1 F2040 X155.72 Y152.61 E47.94449
G0 F12000 X155.65 Y153.11
G1 F2040 X154.89 Y152.35 E47.97138
G0 F12000 X154.84 Y152.87
G1 F2040 X155.58 Y153.61 E47.99740
G0 F12000 X155.52 Y154.11
G1 F2040 X154.80 Y153.39 E48.02256
G0 F12000 X154.75 Y153.91
G1 F2040 X155.45 Y154.60 E48.04691
G0 F12000 X155.37 Y155.09
G1 F2040 X154.70 Y154.42 E48.07051
G0 F12000 X154.65 Y154.93
G1 F2040 X155.30 Y155.58 E48.09328
G0 F12000 X155.21 Y156.06
G1 F2040 X154.59 Y155.44 E48.11523
G0 F12000 X154.53 Y155.94
G1 F2040 X155.13 Y156.54 E48.13640
G0 F12000 X155.04 Y157.02
G1 F2040 X154.47 Y156.44 E48.15674
G0 F12000 X154.40 Y156.94
G1 F2040 X154.91 Y157.74 E48.17636
G1 X154.30 Y157.68 E48.19517
G1 X154.72 Y158.67 E48.21306
G1 X154.14 Y158.66 E48.23039
G1 X154.51 Y159.59 E48.24670
G1 X153.97 Y159.61 E48.26225
G1 X154.19 Y160.12 E48.27595
G0 F12000 X153.73 Y160.78
G1 F2040 X153.77 Y160.97 E48.28086
G1 X153.77 Y161.26 E48.28981
G1 X153.90 Y161.81 E48.30208
G1 X153.48 Y161.81 E48.31366
G1 X153.73 Y162.34 E48.32471
G1 X153.33 Y162.36 E48.33552
G1 X153.51 Y162.97 E48.34547
G1 X153.17 Y162.91 E48.35512
G1 X153.20 Y163.36 E48.36438
G1 X153.20 Y163.80 E48.37299
G1 X152.89 Y163.77 E48.38114
G1 X152.90 Y164.19 E48.38899
G1 X152.88 Y164.60 E48.39620
G1 X152.60 Y164.60 E48.40308
G1 X152.58 Y165.00 E48.40972
G1 X152.53 Y165.38 E48.41571
G1 X152.29 Y165.42 E48.42121
G1 X152.24 Y165.78 E48.42640
G1 X152.17 Y166.15 E48.43108
G1 X151.95 Y166.22 E48.43538
G1 X151.89 Y166.56 E48.43935
G1 X151.84 Y166.79 E48.44528
G1 F2400 E47.94528
G0 F12000 X156.05 Y148.43
G1 F2400 E48.44528
G1 F2040 X148.01 Y140.39 E48.72820
G0 F12000 X148.01 Y139.83
G1 F2040 X156.06 Y147.88 E49.01162
G0 F12000 X156.08 Y147.33
G1 F2040 X148.01 Y139.26 E49.29551
G0 F12000 X148.01 Y138.70
G1 F2040 X156.08 Y146.77 E49.57940
G0 F12000 X156.07 Y146.19
G1 F2040 X148.01 Y138.14 E49.86292
G0 F12000 X148.01 Y137.57
G1 F2040 X156.05 Y145.62 E50.14597
G0 F12000 X156.02 Y145.02
G1 F2040 X148.01 Y137.01 E50.42792
G0 F12000 X148.31 Y136.75
G1 F2040 X155.99 Y144.42 E50.69793
G0 F12000 X155.95 Y143.82
G1 F2040 X148.88 Y136.75 E50.94685
G0 F12000 X149.44 Y136.75
G1 F2040 X155.91 Y143.21 E51.17433
G0 F12000 X155.87 Y142.60
G1 F2040 X150.01 Y136.75 E51.38043
G0 F12000 X150.57 Y136.75
G1 F2040 X155.82 Y142.00 E51.56518
G0 F12000 X155.78 Y141.39
G1 F2040 X151.14 Y136.75 E51.72851
G0 F12000 X151.70 Y136.75
G1 F2040 X151.87 Y136.92 E51.73448
G0 F12000 X152.33 Y137.38
G1 F2040 X155.74 Y140.78 E51.85416
G0 F12000 X156.22 Y140.70
G1 F2040 X152.83 Y137.31 E51.97336
G0 F12000 X153.33 Y137.25
G1 F2040 X156.75 Y140.67 E52.09364
G0 F12000 X156.99 Y140.34
G1 F2040 X153.83 Y137.18 E52.20480
G0 F12000 X154.32 Y137.12
G1 F2040 X156.99 Y139.78 E52.29848
G0 F12000 X156.99 Y139.21
G1 F2040 X154.82 Y137.05 E52.37464
G0 F12000 X155.32 Y136.98
G1 F2040 X155.48 Y137.15 E52.38041
G0 F12000 X155.82 Y137.48
G1 F2040 X156.99 Y138.65 E52.42148
G0 F12000 X156.99 Y138.08
G1 F2040 X156.33 Y137.42 E52.44471
G0 F12000 X156.83 Y137.37
G1 F2040 X156.99 Y137.52 E52.45011
G1 F2400 E51.95011
G0 F12000 X156.89 Y141.38
G1 F2400 E52.45011
G1 F2040 X157.10 Y141.58 E52.45739
G0 F12000 X157.13 Y141.61
G1 F2040 X157.73 Y142.21 E52.47847
G0 F12000 X157.50 Y142.55
G1 F2040 X156.75 Y142.08 E52.49813
G1 X156.98 Y142.59 E52.51222
G0 F12000 X156.57 Y141.62
G1 F2040 X156.51 Y141.55 E52.51447
G1 F2400 E52.01447
G0 F12000 X157.15 Y143.89
G1 F2400 E52.51447
G1 F2040 X157.72 Y144.46 E52.53447
G0 F12000 X157.56 Y144.86
G1 F2040 X157.65 Y145.24 E52.54021
G1 X157.72 Y145.59 E52.54900
G0 F12000 X156.89 Y144.76
G1 F2040 X156.97 Y144.56 E52.55500
G1 X156.68 Y143.99 E52.57079
;LAYER:3
M106 S38
G0 F12000 X156.15 Y144.20 Z0.65
;TYPE:WALL-INNER
G1 F2640 X156.18 Y144.76 E52.58482
G1 X156.21 Y145.31 E52.59860
G1 X156.23 Y145.83 E52.61150
G1 X156.24 Y146.39 E52.62536
G1 X156.25 Y147.25 E52.64671
G1 X156.23 Y148.35 E52.67409
G1 X156.17 Y149.50 E52.70287
G1 X156.13 Y150.07 E52.71701
G1 X156.11 Y150.35 E52.72410
G1 X155.78 Y150.20 E52.73313
G1 X155.38 Y150.13 E52.74313
G1 X154.89 Y150.16 E52.75549
G1 X154.85 Y150.17 E52.75642
G1 X154.87 Y149.57 E52.77146
G1 X154.90 Y148.35 E52.80190
G1 X147.87 Y148.35 E52.97688
G1 X147.87 Y136.44 E53.27318
G1 X148.55 Y136.44 E53.29015
G1 X148.58 Y136.44 E53.29072
G1 X149.12 Y136.44 E53.30414
G1 X149.14 Y136.44 E53.30471
G1 X149.68 Y136.44 E53.31815
G1 X149.70 Y136.44 E53.31872
G1 X150.24 Y136.44 E53.33213
G1 X150.26 Y136.44 E53.33270
G1 X150.80 Y136.44 E53.34614
G1 X150.83 Y136.44 E53.34671
G1 X151.37 Y136.44 E53.36012
G1 X151.39 Y136.44 E53.36070
G1 X151.93 Y136.44 E53.37413
G1 X151.95 Y136.44 E53.37471
G1 X152.49 Y136.44 E53.38812
G1 X152.58 Y136.44 E53.39038
G1 X152.68 Y137.19 E53.40926
G1 X153.95 Y137.02 E53.44118
G1 X155.27 Y136.84 E53.47435
G1 X155.22 Y136.44 E53.48457
G1 X155.57 Y136.44 E53.49320
G1 X155.62 Y136.97 E53.50661
G1 X155.71 Y138.04 E53.53321
G1 X155.76 Y138.60 E53.54719
G1 X155.80 Y139.19 E53.56178
G1 X155.84 Y139.73 E53.57540
G1 X155.87 Y140.27 E53.58884
G1 X155.91 Y140.85 E53.60333
G1 X155.95 Y141.42 E53.61744
G1 X155.98 Y141.98 E53.63140
G1 X156.11 Y143.65 E53.67310
G1 X156.15 Y144.20 E53.68682
G1 F2400 E53.18682
G0 F12000 X155.88 Y152.68
G1 F2400 E53.68682
G1 F2640 X155.88 Y152.71 E53.68764
G1 X155.84 Y152.69 E53.68871
G1 X155.88 Y152.68 E53.68967
G0 F12000 X155.57 Y154.93
G1 F2640 X155.56 Y155.02 E53.69198
G1 X155.46 Y154.96 E53.69482
G1 X155.57 Y154.93 E53.69781
G0 F12000 X155.19 Y157.21
G1 F2640 X155.18 Y157.28 E53.69952
G1 X155.09 Y157.23 E53.70187
G1 X155.19 Y157.21 E53.70423
G0 F12000 X153.32 Y161.71
G1 F2640 X154.00 Y162.08 E53.72339
G1 X153.73 Y162.90 E53.74504
G1 X153.53 Y163.43 E53.75901
G1 X153.35 Y163.91 E53.77176
G1 X153.16 Y164.38 E53.78431
G1 X152.96 Y164.86 E53.79724
G1 X152.55 Y165.78 E53.82232
G1 X152.11 Y166.66 E53.84692
G1 X151.65 Y167.55 E53.87184
G1 X151.40 Y168.00 E53.88456
G1 X151.07 Y168.55 E53.90059
G1 X150.75 Y168.34 E53.91020
G1 X151.16 Y167.55 E53.93215
G1 X151.41 Y167.00 E53.94715
G1 X151.66 Y166.46 E53.96209
G1 X151.90 Y165.91 E53.97704
G1 X152.13 Y165.35 E53.99204
G1 X152.35 Y164.79 E54.00701
G1 X152.55 Y164.22 E54.02198
G1 X152.75 Y163.66 E54.03692
G1 X152.92 Y163.13 E54.05067
G1 X153.10 Y162.51 E54.06681
G1 X153.27 Y161.93 E54.08178
G1 X153.32 Y161.71 E54.08733
G0 F12000 X153.33 Y161.26
G1 F2640 X153.86 Y161.55 E54.10234
G1 X154.31 Y161.79 E54.11486
G1 X154.48 Y161.89 E54.11988
G1 X154.29 Y162.48 E54.13543
G1 X154.10 Y163.04 E54.15009
G1 X153.91 Y163.56 E54.16375
G1 X153.72 Y164.06 E54.17716
G1 X153.53 Y164.53 E54.18987
G1 X153.33 Y165.00 E54.20256
G1 X153.13 Y165.47 E54.21526
G1 X152.91 Y165.93 E54.22796
G1 X152.69 Y166.39 E54.24057
G1 X152.46 Y166.85 E54.25345
G1 X152.24 Y167.30 E54.26584
G1 X152.00 Y167.74 E54.27848
G1 X151.75 Y168.18 E54.29094
G1 X151.50 Y168.62 E54.30344
G1 X151.24 Y169.05 E54.31594
G1 X151.20 Y169.12 E54.31811
G1 X150.24 Y168.46 E54.34705
G1 X150.52 Y167.92 E54.36228
G1 X150.80 Y167.37 E54.37754
G1 X151.05 Y166.84 E54.39235
G1 X151.30 Y166.30 E54.40712
G1 X151.53 Y165.75 E54.42188
G1 X151.76 Y165.20 E54.43670
G1 X151.97 Y164.65 E54.45145
G1 X152.18 Y164.09 E54.46624
G1 X152.37 Y163.53 E54.48099
G1 X152.54 Y163.01 E54.49453
G1 X152.72 Y162.40 E54.51051
G1 X152.88 Y161.82 E54.52528
G1 X153.03 Y161.25 E54.54010
G1 X153.09 Y161.00 E54.54652
G1 X153.20 Y161.14 E54.55110
G1 X153.33 Y161.26 E54.55548
G1 F2400 E54.05548
G0 F12000 X153.38 Y159.69
G1 F2400 E54.55548
G1 F2640 X153.52 Y158.93 E54.57470
G1 X153.55 Y158.78 E54.57869
G1 X153.56 Y158.80 E54.57938
G1 X153.75 Y158.94 E54.58518
G1 X153.97 Y159.04 E54.59111
G1 X154.16 Y159.10 E54.59606
G1 X154.37 Y159.14 E54.60142
G1 X154.67 Y159.12 E54.60882
G1 X154.94 Y159.02 E54.61612
G1 X155.15 Y158.87 E54.62254
G1 X155.28 Y158.68 E54.62827
G1 X155.34 Y158.49 E54.63332
G1 X155.36 Y158.25 E54.63926
G1 X155.29 Y158.03 E54.64509
G1 X155.18 Y157.84 E54.65047
G1 X154.95 Y157.61 E54.65844
G1 X154.68 Y157.45 E54.66633
G1 X154.31 Y157.36 E54.67576
G1 X154.03 Y157.35 E54.68286
G1 X153.76 Y157.44 E54.68983
G1 X153.87 Y156.60 E54.71088
G1 X153.89 Y156.46 E54.71439
G1 X154.04 Y156.59 E54.71936
G1 X154.22 Y156.72 E54.72490
G1 X154.47 Y156.81 E54.73153
G1 X154.72 Y156.86 E54.73793
G1 X155.00 Y156.85 E54.74465
G1 X155.19 Y156.80 E54.74964
G1 X155.56 Y156.59 E54.76016
G1 X155.74 Y156.15 E54.77201
G1 X155.66 Y155.74 E54.78248
G1 X155.46 Y155.46 E54.79116
G1 X155.33 Y155.35 E54.79526
G1 X155.03 Y155.18 E54.80398
G1 X154.78 Y155.10 E54.81045
G1 X154.48 Y155.07 E54.81790
G1 X154.18 Y155.13 E54.82545
G1 X154.05 Y155.19 E54.82912
G1 X154.15 Y154.26 E54.85245
G1 X154.17 Y154.07 E54.85723
G1 X154.28 Y154.22 E54.86195
G1 X154.52 Y154.40 E54.86928
G1 X154.74 Y154.50 E54.87525
G1 X154.96 Y154.56 E54.88101
G1 X155.17 Y154.58 E54.88642
G1 X155.35 Y154.58 E54.89083
G1 X155.73 Y154.46 E54.90067
G1 X156.08 Y154.10 E54.91323
G1 X156.09 Y153.59 E54.92592
G1 X155.98 Y153.40 E54.93132
G1 X155.84 Y153.19 E54.93747
G1 X155.59 Y153.00 E54.94541
G1 X155.29 Y152.86 E54.95361
G1 X155.05 Y152.82 E54.95975
G1 X154.81 Y152.81 E54.96555
G1 X154.68 Y152.82 E54.96895
G1 X154.28 Y152.98 E54.97963
G1 X154.27 Y152.99 E54.97992
G1 X154.33 Y152.32 E54.99654
G1 X154.38 Y151.55 E55.01570
G1 X154.58 Y151.89 E55.02534
G1 X154.85 Y152.10 E55.03388
G1 X155.12 Y152.24 E55.04144
G1 X155.46 Y152.31 E55.05023
G1 X155.79 Y152.29 E55.05833
G1 X155.97 Y152.24 E55.06291
G1 X156.21 Y152.09 E55.06994
G1 X156.38 Y151.85 E55.07717
G1 X156.32 Y152.32 E55.08891
G1 X156.26 Y152.85 E55.10222
G1 X156.19 Y153.39 E55.11554
G1 X156.12 Y153.91 E55.12879
G1 X156.05 Y154.44 E55.14203
G1 X155.97 Y154.96 E55.15519
G1 X155.89 Y155.49 E55.16846
G1 X155.80 Y156.01 E55.18157
G1 X155.72 Y156.53 E55.19470
G1 X155.62 Y157.05 E55.20783
G1 X155.53 Y157.57 E55.22088
G1 X155.44 Y158.06 E55.23329
G1 X155.33 Y158.59 E55.24676
G1 X155.22 Y159.10 E55.25990
G1 X155.07 Y159.74 E55.27604
G1 X155.06 Y159.78 E55.27711
G1 X154.35 Y159.64 E55.29499
G1 X153.89 Y159.55 E55.30686
G1 X153.45 Y159.65 E55.31797
G1 X153.38 Y159.69 E55.32011
G1 F2400 E54.82011
G0 F12000 X154.41 Y151.01
G1 F2400 E55.32011
G1 F2640 X154.46 Y150.15 E55.34146
G1 X154.47 Y149.56 E55.35620
G1 X154.50 Y148.75 E55.37643
G1 X147.47 Y148.75 E55.55116
G1 X147.47 Y136.04 E55.86734
G1 X148.00 Y136.04 E55.88046
G1 X148.54 Y136.04 E55.89399
G1 X148.58 Y136.04 E55.89499
G1 X149.11 Y136.04 E55.90798
G1 X149.15 Y136.04 E55.90897
G1 X149.67 Y136.04 E55.92199
G1 X149.71 Y136.04 E55.92298
G1 X150.23 Y136.04 E55.93597
G1 X150.27 Y136.04 E55.93697
G1 X150.79 Y136.04 E55.94998
G1 X150.83 Y136.04 E55.95098
G1 X151.36 Y136.04 E55.96397
G1 X151.40 Y136.04 E55.96496
G1 X151.92 Y136.04 E55.97798
G1 X151.96 Y136.04 E55.97897
G1 X152.48 Y136.04 E55.99196
G1 X152.52 Y136.04 E55.99296
G1 X152.93 Y136.04 E56.00318
G1 X153.03 Y136.74 E56.02088
G1 X153.90 Y136.63 E56.04284
G1 X154.82 Y136.50 E56.06607
G1 X154.76 Y136.04 E56.07769
G1 X155.29 Y136.04 E56.09088
G1 X155.33 Y136.04 E56.09187
G1 X155.86 Y136.04 E56.10489
G1 X155.93 Y136.04 E56.10665
G1 X156.01 Y136.90 E56.12816
G1 X156.06 Y137.43 E56.14148
G1 X156.11 Y138.00 E56.15571
G1 X156.16 Y138.57 E56.16991
G1 X156.20 Y139.16 E56.18451
G1 X156.23 Y139.71 E56.19817
G1 X156.31 Y140.83 E56.22613
G1 X156.38 Y141.95 E56.25413
G1 X156.50 Y143.62 E56.29582
G1 X156.54 Y144.17 E56.30959
G1 X156.58 Y144.74 E56.32376
G1 X156.61 Y145.28 E56.33731
G1 X156.63 Y145.82 E56.35073
G1 X156.65 Y146.59 E56.36995
G1 X156.65 Y147.29 E56.38724
G1 X156.63 Y148.20 E56.40986
G1 X157.53 Y148.22 E56.43211
G1 X157.53 Y148.75 E56.44530
G1 X156.61 Y148.75 E56.46814
G1 X156.57 Y149.53 E56.48763
G1 X156.53 Y150.11 E56.50206
G1 X156.49 Y150.67 E56.51619
G1 X156.44 Y151.24 E56.53045
G1 X156.43 Y151.29 E56.53155
G1 X156.28 Y150.98 E56.54003
G1 X155.99 Y150.74 E56.54942
G1 X155.66 Y150.59 E56.55849
G1 X155.36 Y150.53 E56.56612
G1 X154.99 Y150.55 E56.57531
G1 X154.63 Y150.72 E56.58513
G1 X154.41 Y151.01 E56.59411
G1 F2400 E56.09411
G0 F12000 X157.53 Y141.14
G1 F2400 E56.59411
G1 F2640 X157.47 Y140.16 E56.61839
G1 X157.38 Y138.95 E56.64870
G1 X157.34 Y138.33 E56.66417
G1 X157.29 Y137.70 E56.67976
G1 X157.25 Y137.23 E56.69150
G1 X157.16 Y136.30 E56.71477
G1 X157.12 Y136.04 E56.72137
G1 X157.53 Y136.04 E56.73140
G1 X157.53 Y141.14 E56.85825
G0 F12000 X157.15 Y141.43
;TYPE:WALL-OUTER
G1 F2640 X157.07 Y140.19 E56.88927
G1 X156.94 Y138.36 E56.93497
G1 X156.89 Y137.74 E56.95049
G1 X156.84 Y137.11 E56.96603
G1 X156.46 Y137.40 E56.97772
G1 X156.51 Y137.97 E56.99200
G1 X156.55 Y138.54 E57.00625
G1 X156.67 Y140.22 E57.04803
G1 X156.78 Y141.92 E57.09052
G1 X156.94 Y144.15 E57.14603
G1 X156.98 Y144.72 E57.16029
G1 X157.01 Y145.27 E57.17400
G1 X157.03 Y145.81 E57.18757
G1 X157.05 Y146.66 E57.20863
G1 X157.44 Y146.65 E57.21846
G1 X157.42 Y145.71 E57.24190
G1 X157.40 Y145.08 E57.25769
G1 X157.36 Y144.46 E57.27309
G1 X157.32 Y143.85 E57.28818
G1 X157.19 Y142.04 E57.33352
G1 X157.15 Y141.43 E57.34858
G1 F2400 E56.84858
G0 F12000 X156.81 Y136.88
G1 F2400 E57.34858
G1 F2640 X156.74 Y136.19 E57.36564
G1 X156.35 Y136.24 E57.37546
G1 X156.42 Y136.91 E57.39239
G1 X156.81 Y136.88 E57.40227
G0 F12000 X156.46 Y135.64
G1 F2640 X157.93 Y135.64 E57.43865
G1 X157.93 Y149.15 E57.77471
G1 X156.99 Y149.15 E57.79808
G1 X156.93 Y150.13 E57.82271
G1 X156.88 Y150.71 E57.83708
G1 X156.83 Y151.28 E57.85145
G1 X156.78 Y151.84 E57.86545
G1 X156.72 Y152.37 E57.87864
G1 X156.66 Y152.91 E57.89209
G1 X156.59 Y153.44 E57.90541
G1 X156.52 Y153.97 E57.91874
G1 X156.44 Y154.50 E57.93203
G1 X156.37 Y155.03 E57.94529
G1 X156.28 Y155.55 E57.95857
G1 X156.20 Y156.08 E57.97180
G1 X156.11 Y156.60 E57.98500
G1 X156.02 Y157.12 E57.99816
G1 X155.92 Y157.64 E58.01134
G1 X155.83 Y158.14 E58.02385
G1 X155.72 Y158.67 E58.03742
G1 X155.60 Y159.19 E58.05071
G1 X155.46 Y159.83 E58.06697
G1 X155.36 Y160.24 E58.07751
G1 X154.78 Y160.13 E58.09201
G1 X154.28 Y160.04 E58.10474
G1 X153.89 Y159.96 E58.11463
G1 X153.60 Y160.02 E58.12200
G1 X153.43 Y160.13 E58.12715
G1 X153.31 Y160.29 E58.13196
G1 X153.29 Y160.49 E58.13698
G1 X153.35 Y160.69 E58.14216
G1 X153.50 Y160.88 E58.14808
G1 X153.57 Y160.94 E58.15034
G1 X154.05 Y161.20 E58.16408
G1 X154.96 Y161.69 E58.18972
G1 X154.84 Y162.06 E58.19944
G1 X154.67 Y162.61 E58.21369
G1 X154.48 Y163.17 E58.22854
G1 X154.29 Y163.70 E58.24241
G1 X154.09 Y164.21 E58.25598
G1 X153.90 Y164.69 E58.26893
G1 X153.70 Y165.16 E58.28170
G1 X153.49 Y165.64 E58.29457
G1 X153.27 Y166.10 E58.30741
G1 X153.05 Y166.57 E58.32027
G1 X152.82 Y167.03 E58.33300
G1 X152.59 Y167.49 E58.34576
G1 X152.34 Y167.94 E58.35851
G1 X152.10 Y168.38 E58.37114
G1 X151.84 Y168.82 E58.38382
G1 X151.58 Y169.26 E58.39646
G1 X151.32 Y169.69 E58.40902
G1 X149.72 Y168.59 E58.45728
G1 X150.17 Y167.74 E58.48125
G1 X150.44 Y167.20 E58.49632
G1 X150.69 Y166.67 E58.51093
G1 X150.93 Y166.13 E58.52554
G1 X151.17 Y165.60 E58.54013
G1 X151.39 Y165.05 E58.55471
G1 X151.60 Y164.51 E58.56930
G1 X151.80 Y163.96 E58.58388
G1 X151.99 Y163.40 E58.59845
G1 X152.16 Y162.89 E58.61181
G1 X152.34 Y162.28 E58.62758
G1 X152.50 Y161.72 E58.64216
G1 X152.64 Y161.15 E58.65676
G1 X152.78 Y160.58 E58.67131
G1 X152.91 Y160.01 E58.68586
G1 X153.02 Y159.44 E58.70040
G1 X153.13 Y158.86 E58.71498
G1 X153.23 Y158.29 E58.72954
G1 X153.32 Y157.71 E58.74410
G1 X153.40 Y157.13 E58.75871
G1 X153.54 Y156.03 E58.78626
G1 X153.62 Y155.39 E58.80241
G1 X153.69 Y154.84 E58.81601
G1 X153.81 Y153.64 E58.84618
G1 X153.86 Y153.12 E58.85905
G1 X153.91 Y152.56 E58.87321
G1 X154.00 Y151.30 E58.90442
G1 X154.03 Y150.72 E58.91900
G1 X154.06 Y150.13 E58.93354
G1 X154.09 Y149.15 E58.95819
G1 X147.07 Y149.15 E59.13269
G1 X147.07 Y135.64 E59.46876
G1 X148.56 Y135.64 E59.50563
G1 X148.59 Y135.64 E59.50648
G1 X149.12 Y135.64 E59.51962
G1 X149.15 Y135.64 E59.52046
G1 X149.68 Y135.64 E59.53363
G1 X149.72 Y135.64 E59.53447
G1 X150.24 Y135.64 E59.54761
G1 X150.28 Y135.64 E59.54846
G1 X150.81 Y135.64 E59.56162
G1 X150.84 Y135.64 E59.56247
G1 X151.37 Y135.64 E59.57561
G1 X151.40 Y135.64 E59.57645
G1 X151.93 Y135.64 E59.58961
G1 X151.97 Y135.64 E59.59046
G1 X152.49 Y135.64 E59.60360
G1 X152.53 Y135.64 E59.60445
G1 X153.06 Y135.64 E59.61758
G1 X153.09 Y135.64 E59.61843
G1 X153.62 Y135.64 E59.63159
G1 X153.65 Y135.64 E59.63244
G1 X154.18 Y135.64 E59.64558
G1 X154.21 Y135.64 E59.64642
G1 X154.74 Y135.64 E59.65959
G1 X154.78 Y135.64 E59.66043
G1 X155.31 Y135.64 E59.67357
G1 X155.34 Y135.64 E59.67442
G1 X155.87 Y135.64 E59.68758
G1 X155.90 Y135.64 E59.68843
G1 X156.43 Y135.64 E59.70157
G1 X156.46 Y135.64 E59.70241
G1 F2400 E59.20241
G0 F12000 X157.04 Y146.68
G1 F2400 E59.70241
G1 F2640 X157.04 Y147.27 E59.71712
G1 X157.04 Y147.81 E59.73053
G1 X157.43 Y147.81 E59.74039
G1 X157.44 Y147.27 E59.75395
G1 X157.44 Y146.98 E59.76121
G1 X157.44 Y146.68 E59.76875
G1 X157.04 Y146.68 E59.77861
G1 F2400 E59.27861
G0 F12000 X155.54 Y150.97
G1 F2400 E59.77861
G1 F2640 X155.33 Y150.93 E59.78383
G1 X155.09 Y150.95 E59.78983
G1 X154.89 Y151.04 E59.79534
G1 X154.76 Y151.21 E59.80075
G1 X154.77 Y151.35 E59.80412
G1 X154.77 Y151.42 E59.80599
G1 X154.88 Y151.62 E59.81166
G1 X155.06 Y151.76 E59.81735
G1 X155.25 Y151.86 E59.82267
G1 X155.50 Y151.91 E59.82883
G1 X155.72 Y151.90 E59.83437
G1 X155.80 Y151.87 E59.83652
G1 X155.93 Y151.79 E59.84033
G1 X156.05 Y151.63 E59.84530
G1 X156.06 Y151.43 E59.85026
G1 X155.96 Y151.23 E59.85569
G1 X155.78 Y151.08 E59.86167
G1 X155.54 Y150.97 E59.86813
G1 F2400 E59.36813
G0 F12000 X155.17 Y153.25
G1 F2400 E59.86813
G1 F2640 X155.00 Y153.22 E59.87233
G1 X154.83 Y153.21 E59.87662
G1 X154.77 Y153.22 E59.87804
G1 X154.54 Y153.30 E59.88425
G1 X154.41 Y153.50 E59.89011
G1 X154.42 Y153.74 E59.89596
G1 X154.57 Y153.94 E59.90217
G1 X154.72 Y154.05 E59.90696
G1 X154.87 Y154.12 E59.91113
G1 X155.03 Y154.17 E59.91529
G1 X155.19 Y154.18 E59.91917
G1 X155.28 Y154.18 E59.92148
G1 X155.51 Y154.11 E59.92751
G1 X155.68 Y153.93 E59.93358
G1 X155.69 Y153.69 E59.93965
G1 X155.64 Y153.60 E59.94209
G1 X155.55 Y153.47 E59.94616
G1 X155.39 Y153.34 E59.95120
G1 X155.17 Y153.25 E59.95716
G1 F2400 E59.45716
G0 F12000 X154.70 Y155.50
G1 F2400 E59.95716
G1 F2640 X154.50 Y155.48 E59.96214
G1 X154.30 Y155.52 E59.96720
G1 X154.22 Y155.55 E59.96927
G1 X154.08 Y155.69 E59.97434
G1 X154.03 Y155.91 E59.97983
G1 X154.12 Y156.13 E59.98577
G1 X154.29 Y156.28 E59.99143
G1 X154.41 Y156.36 E59.99499
G1 X154.58 Y156.42 E59.99950
G1 X154.75 Y156.46 E60.00401
G1 X154.94 Y156.45 E60.00877
G1 X155.04 Y156.43 E60.01128
G1 X155.24 Y156.31 E60.01694
G1 X155.33 Y156.11 E60.02250
G1 X155.29 Y155.90 E60.02782
G1 X155.16 Y155.73 E60.03293
G1 X155.10 Y155.68 E60.03506
G1 X154.87 Y155.55 E60.04157
G1 X154.70 Y155.50 E60.04606
G1 F2400 E59.54606
G0 F12000 X154.26 Y157.76
G1 F2400 E60.04606
G1 F2640 X154.08 Y157.75 E60.05046
G1 X153.87 Y157.82 E60.05606
G1 X153.77 Y157.89 E60.05897
G1 X153.70 Y157.98 E60.06180
G1 X153.66 Y158.10 E60.06485
G1 X153.68 Y158.29 E60.06964
G1 X153.75 Y158.41 E60.07301
G1 X153.84 Y158.50 E60.07620
G1 X154.01 Y158.62 E60.08139
G1 X154.11 Y158.67 E60.08413
G1 X154.40 Y158.74 E60.09152
G1 X154.58 Y158.73 E60.09613
G1 X154.75 Y158.67 E60.10063
G1 X154.86 Y158.59 E60.10383
G1 X154.92 Y158.50 E60.10648
G1 X154.95 Y158.41 E60.10896
G1 X154.96 Y158.29 E60.11175
G1 X154.92 Y158.19 E60.11457
G1 X154.86 Y158.08 E60.11776
G1 X154.71 Y157.94 E60.12279
G1 X154.53 Y157.83 E60.12812
G1 X154.26 Y157.76 E60.13504
G1 F2400 E59.63504
G0 F12000 X153.66 Y162.05
;TYPE:FILL
G1 F2400 E60.13504
G1 F2640 X153.27 Y162.44 E60.14875
G0 F12000 X153.68 Y162.59
G1 F2640 X153.03 Y163.25 E60.17178
G0 F12000 X153.05 Y163.16
G1 F2640 X153.71 Y162.51 E60.19490
G0 F12000 X153.37 Y163.47
G1 F2640 X152.75 Y164.09 E60.21672
G0 F12000 X153.04 Y164.31
G1 F2640 X152.45 Y164.90 E60.23751
G0 F12000 X152.42 Y164.99
G1 F2640 X153.00 Y164.40 E60.25806
G0 F12000 X152.56 Y165.41
G1 F2640 X152.07 Y166.16 E60.27595
G1 X151.62 Y166.89 E60.29183
G1 X152.04 Y166.49 E60.30641
G0 F12000 X151.41 Y167.69
G1 F2640 X151.07 Y168.03 E60.31841
G1 F2400 E59.81841
G0 F12000 X155.00 Y149.99
G1 F2400 E60.31841
G1 F2640 X156.06 Y148.93 E60.35553
G0 F12000 X156.09 Y148.33
G1 F2640 X155.01 Y149.41 E60.39336
G0 F12000 X155.03 Y148.83
G1 F2640 X156.10 Y147.76 E60.43096
G0 F12000 X156.10 Y147.19
G1 F2640 X155.04 Y148.25 E60.46828
G0 F12000 X154.53 Y148.21
G1 F2640 X156.10 Y146.63 E60.52363
G0 F12000 X156.09 Y146.07
G1 F2640 X153.96 Y148.21 E60.59862
G0 F12000 X153.40 Y148.21
G1 F2640 X156.08 Y145.53 E60.69295
G0 F12000 X156.05 Y144.99
G1 F2640 X152.83 Y148.21 E60.80615
G0 F12000 X152.27 Y148.21
G1 F2640 X156.02 Y144.46 E60.93811
G0 F12000 X155.98 Y143.93
G1 F2640 X151.70 Y148.21 E61.08874
G0 F12000 X151.14 Y148.21
G1 F2640 X155.95 Y143.40 E61.25795
G0 F12000 X155.91 Y142.87
G1 F2640 X150.57 Y148.21 E61.44572
G0 F12000 X150.01 Y148.21
G1 F2640 X155.87 Y142.34 E61.65204
G0 F12000 X155.84 Y141.81
G1 F2640 X149.45 Y148.21 E61.87692
G0 F12000 X148.88 Y148.21
G1 F2640 X155.80 Y141.29 E62.12037
G0 F12000 X155.76 Y140.76
G1 F2640 X148.32 Y148.21 E62.38240
G0 F12000 X148.01 Y147.95
G1 F2640 X155.73 Y140.23 E62.65392
G0 F12000 X155.69 Y139.70
G1 F2640 X148.01 Y147.38 E62.92417
G0 F12000 X148.01 Y146.82
G1 F2640 X155.66 Y139.18 E63.19316
G0 F12000 X155.62 Y138.65
G1 F2640 X148.01 Y146.25 E63.46085
G0 F12000 X148.01 Y145.69
G1 F2640 X155.58 Y138.13 E63.72702
G0 F12000 X155.53 Y137.61
G1 F2640 X148.01 Y145.13 E63.99165
G0 F12000 X148.01 Y144.56
G1 F2640 X155.49 Y137.09 E64.25474
G0 F12000 X154.99 Y137.02
G1 F2640 X148.01 Y144.00 E64.50019
G0 F12000 X148.01 Y143.43
G1 F2640 X154.34 Y137.11 E64.72271
G0 F12000 X153.69 Y137.20
G1 F2640 X148.01 Y142.87 E64.92234
G0 F12000 X148.01 Y142.31
G1 F2640 X153.03 Y137.28 E65.09904
G0 F12000 X152.54 Y137.21
G1 F2640 X148.01 Y141.74 E65.25842
G0 F12000 X148.01 Y141.18
G1 F2640 X152.48 Y136.71 E65.41550
G0 F12000 X152.05 Y136.58
G1 F2640 X148.01 Y140.61 E65.55749
G0 F12000 X148.01 Y140.05
G1 F2640 X151.48 Y136.58 E65.67960
G0 F12000 X150.92 Y136.58
G1 F2640 X148.01 Y139.48 E65.78186
G0 F12000 X148.01 Y138.92
G1 F2640 X150.35 Y136.58 E65.86427
G0 F12000 X149.79 Y136.58
G1 F2640 X148.01 Y138.36 E65.92682
G0 F12000 X148.01 Y137.79
G1 F2640 X149.22 Y136.58 E65.96951
G0 F12000 X148.66 Y136.58
G1 F2640 X148.01 Y137.23 E65.99235
G0 F12000 X148.01 Y136.66
G1 F2640 X148.10 Y136.58 E65.99534
G1 F2400 E65.49534
G0 F12000 X153.09 Y135.86
G1 F2400 E65.99534
G1 F2640 X153.79 Y136.46 E66.01492
G1 X153.82 Y135.84 E66.03331
G1 X154.47 Y136.37 E66.05414
G1 F2400 E65.55414
G0 F12000 X157.46 Y141.32
G1 F2400 E66.05414
G1 F2640 X157.53 Y141.53 E66.05827
G1 X157.55 Y142.07 E66.07033
G1 X157.57 Y142.62 E66.08109
G1 X157.59 Y143.17 E66.09060
G1 X157.61 Y143.71 E66.09881
G1 X157.63 Y144.26 E66.10572
G1 X157.64 Y144.80 E66.11134
G1 X157.60 Y145.13 E66.11958
G1 F2400 E65.61958
G0 F12000 X156.02 Y149.53
G1 F2400 E66.11958
G1 F2640 X155.54 Y150.02 E66.13660
;LAYER:4
M106 S53
G0 F12000 X155.64 Y149.84 Z0.80
;TYPE:WALL-INNER
G1 F3300 X155.17 Y149.78 E66.14834
G1 X154.84 Y149.79 E66.15656
G1 X154.86 Y149.05 E66.17513
G1 X154.88 Y148.35 E66.19252
G1 X154.87 Y147.72 E66.20820
G1 X154.87 Y147.30 E66.21865
G1 X154.86 Y147.29 E66.21893
G1 X154.85 Y146.57 E66.23683
G1 X154.84 Y146.57 E66.23710
G1 X154.82 Y145.96 E66.25238
G1 X154.81 Y145.96 E66.25266
G1 X154.74 Y144.91 E66.27871
G1 X152.76 Y145.03 E66.32807
G1 X152.83 Y146.32 E66.36033
G1 X152.85 Y146.87 E66.37396
G1 X152.87 Y147.59 E66.39198
G1 X152.87 Y148.27 E66.40875
G1 X152.87 Y148.35 E66.41076
G1 X147.87 Y148.35 E66.53520
G1 X147.87 Y136.30 E66.83496
G1 X148.02 Y136.30 E66.83872
G1 X148.55 Y136.30 E66.85186
G1 X148.57 Y136.30 E66.85243
G1 X149.11 Y136.30 E66.86584
G1 X149.14 Y136.30 E66.86642
G1 X149.68 Y136.30 E66.87985
G1 X149.70 Y136.30 E66.88043
G1 X150.24 Y136.30 E66.89384
G1 X150.26 Y136.30 E66.89441
G1 X150.80 Y136.30 E66.90785
G1 X150.82 Y136.30 E66.90842
G1 X151.36 Y136.30 E66.92183
G1 X151.39 Y136.30 E66.92240
G1 X151.93 Y136.30 E66.93584
G1 X151.95 Y136.30 E66.93641
G1 X152.36 Y136.30 E66.94672
G1 X152.48 Y137.22 E66.96970
G1 X153.97 Y137.02 E67.00704
G1 X154.57 Y136.94 E67.02198
G1 X155.63 Y136.80 E67.04867
G1 X155.71 Y137.56 E67.06783
G1 X157.13 Y137.42 E67.10332
G1 X157.13 Y145.89 E67.31406
G1 X156.27 Y145.90 E67.33548
G1 X156.28 Y148.04 E67.38883
G1 X157.13 Y148.04 E67.40993
G1 X157.13 Y148.35 E67.41762
G1 X156.26 Y148.35 E67.43924
G1 X156.20 Y149.49 E67.46765
G1 X156.16 Y150.00 E67.48047
G1 X156.16 Y150.03 E67.48112
G1 X155.92 Y149.92 E67.48757
G1 X155.64 Y149.84 E67.49496
G1 F2400 E66.99496
G0 F12000 X153.22 Y161.97
G1 F2400 E67.49496
G1 F3300 X153.52 Y162.10 E67.50302
G1 X153.97 Y162.30 E67.51518
G1 X153.77 Y162.88 E67.53066
G1 X153.42 Y163.82 E67.55556
G1 X153.23 Y164.30 E67.56831
G1 X153.03 Y164.78 E67.58136
G1 X152.83 Y165.24 E67.59362
G1 X152.62 Y165.71 E67.60662
G1 X152.17 Y166.62 E67.63178
G1 X151.95 Y167.06 E67.64393
G1 X151.71 Y167.52 E67.65694
G1 X151.22 Y168.38 E67.68146
G1 X151.10 Y168.57 E67.68719
G1 X150.72 Y168.31 E67.69858
G1 X151.12 Y167.53 E67.72042
G1 X151.38 Y166.99 E67.73537
G1 X151.62 Y166.46 E67.74987
G1 X151.87 Y165.89 E67.76525
G1 X152.10 Y165.34 E67.78023
G1 X152.32 Y164.78 E67.79519
G1 X152.52 Y164.21 E67.81014
G1 X152.72 Y163.64 E67.82508
G1 X152.91 Y163.06 E67.84029
G1 X153.08 Y162.50 E67.85498
G1 X153.22 Y161.97 E67.86866
G0 F12000 X152.85 Y161.81
G1 F3300 X152.97 Y161.34 E67.88085
G1 X153.32 Y161.57 E67.89113
G1 X154.00 Y161.87 E67.90977
G1 X154.45 Y162.08 E67.92211
G1 X154.14 Y163.02 E67.94666
G1 X153.97 Y163.50 E67.95923
G1 X153.79 Y163.98 E67.97220
G1 X153.60 Y164.45 E67.98482
G1 X153.40 Y164.94 E67.99787
G1 X153.19 Y165.40 E68.01043
G1 X152.98 Y165.87 E68.02317
G1 X152.76 Y166.33 E68.03596
G1 X152.53 Y166.80 E68.04889
G1 X152.30 Y167.24 E68.06135
G1 X152.06 Y167.70 E68.07437
G1 X151.56 Y168.58 E68.09936
G1 X151.30 Y169.02 E68.11203
G1 X151.23 Y169.14 E68.11567
G1 X150.21 Y168.44 E68.14645
G1 X150.50 Y167.89 E68.16210
G1 X150.76 Y167.36 E68.17683
G1 X151.02 Y166.82 E68.19162
G1 X151.26 Y166.30 E68.20594
G1 X151.50 Y165.74 E68.22112
G1 X151.73 Y165.19 E68.23590
G1 X151.94 Y164.63 E68.25067
G1 X152.15 Y164.08 E68.26544
G1 X152.34 Y163.52 E68.28017
G1 X152.52 Y162.94 E68.29520
G1 X152.69 Y162.39 E68.30967
G1 X152.85 Y161.81 E68.32444
G1 F2400 E67.82444
G0 F12000 X153.42 Y159.30
G1 F2400 E68.32444
G1 F3300 X153.45 Y159.14 E68.32850
G1 X153.74 Y159.29 E68.33657
G1 X153.56 Y159.28 E68.34091
G1 X153.42 Y159.30 E68.34459
G0 F12000 X154.75 Y159.49
G1 F3300 X154.82 Y159.49 E68.34628
G1 X155.08 Y159.44 E68.35280
G1 X155.18 Y159.41 E68.35531
G1 X155.14 Y159.59 E68.35986
G1 X154.75 Y159.49 E68.36966
G1 F2400 E67.86966
G0 F12000 X155.54 Y157.65
G1 F2400 E68.36966
G1 F3300 X155.35 Y157.47 E68.37628
G1 X155.16 Y157.34 E68.38188
G1 X154.88 Y157.21 E68.38975
G1 X155.09 Y157.21 E68.39507
G1 X155.33 Y157.19 E68.40107
G1 X155.65 Y157.10 E68.40930
G1 X155.58 Y157.46 E68.41850
G1 X155.54 Y157.65 E68.42327
G1 F2400 E67.92327
G0 F12000 X154.14 Y157.01
G1 F2400 E68.42327
G1 F3300 X153.95 Y157.00 E68.42789
G1 X153.79 Y157.01 E68.43196
G1 X153.81 Y156.85 E68.43593
G1 X153.86 Y156.89 E68.43744
G1 X154.14 Y157.01 E68.44496
G1 F2400 E67.94496
G0 F12000 X154.07 Y154.75
G1 F2400 E68.44496
G1 F3300 X154.09 Y154.52 E68.45069
G1 X154.47 Y154.74 E68.46151
G1 X154.29 Y154.73 E68.46591
G1 X154.16 Y154.73 E68.46910
G1 X154.07 Y154.75 E68.47150
G0 F12000 X155.26 Y154.93
G1 F3300 X155.42 Y154.94 E68.47556
G1 X155.50 Y154.94 E68.47757
G1 X155.72 Y154.91 E68.48306
G1 X156.02 Y154.82 E68.49073
G1 X156.02 Y154.85 E68.49126
G1 X155.94 Y155.37 E68.50435
G1 X155.93 Y155.39 E68.50493
G1 X155.93 Y155.38 E68.50530
G1 X155.54 Y155.08 E68.51739
G1 X155.26 Y154.93 E68.52529
G1 F2400 E68.02529
G0 F12000 X156.26 Y153.07
G1 F2400 E68.52529
G1 F3300 X156.16 Y152.97 E68.52886
G1 X155.69 Y152.68 E68.54268
G1 X155.62 Y152.66 E68.54441
G1 X155.76 Y152.66 E68.54795
G1 X156.08 Y152.64 E68.55588
G1 X156.32 Y152.56 E68.56219
G1 X156.26 Y153.07 E68.57508
G0 F12000 X154.90 Y152.47
G1 F3300 X154.61 Y152.45 E68.58231
G1 X154.28 Y152.49 E68.59043
G1 X154.31 Y152.17 E68.59852
G1 X154.56 Y152.32 E68.60588
G1 X154.90 Y152.47 E68.61499
G1 F2400 E68.11499
G0 F12000 X154.42 Y150.26
G1 F2400 E68.61499
G1 F3300 X154.44 Y149.68 E68.62968
G1 X154.47 Y148.75 E68.65281
G1 X154.47 Y148.65 E68.65525
G1 X154.47 Y148.02 E68.67095
G1 X154.47 Y147.69 E68.67896
G1 X154.46 Y146.97 E68.69693
G1 X154.43 Y146.37 E68.71207
G1 X154.37 Y145.33 E68.73782
G1 X153.18 Y145.40 E68.76741
G1 X153.23 Y146.29 E68.78963
G1 X153.25 Y146.87 E68.80385
G1 X153.27 Y147.58 E68.82162
G1 X153.27 Y148.24 E68.83807
G1 X153.27 Y148.75 E68.85066
G1 X147.47 Y148.75 E68.99488
G1 X147.47 Y135.90 E69.31448
G1 X147.94 Y135.90 E69.32600
G1 X148.03 Y135.90 E69.32821
G1 X148.54 Y135.90 E69.34110
G1 X148.58 Y135.90 E69.34205
G1 X149.10 Y135.90 E69.35509
G1 X149.14 Y135.90 E69.35603
G1 X149.67 Y135.90 E69.36910
G1 X149.71 Y135.90 E69.37004
G1 X150.23 Y135.90 E69.38308
G1 X150.27 Y135.90 E69.38403
G1 X150.79 Y135.90 E69.39709
G1 X150.83 Y135.90 E69.39803
G1 X151.35 Y135.90 E69.41107
G1 X151.39 Y135.90 E69.41202
G1 X151.92 Y135.90 E69.42508
G1 X151.96 Y135.90 E69.42603
G1 X152.48 Y135.90 E69.43907
G1 X152.71 Y135.90 E69.44487
G1 X152.83 Y136.77 E69.46660
G1 X153.92 Y136.63 E69.49400
G1 X154.51 Y136.55 E69.50891
G1 X155.98 Y136.35 E69.54581
G1 X156.06 Y137.13 E69.56525
G1 X157.25 Y137.01 E69.59497
G1 X157.17 Y136.23 E69.61443
G1 X157.13 Y135.90 E69.62259
G1 X157.53 Y135.90 E69.63235
G1 X157.53 Y146.28 E69.89073
G1 X156.67 Y146.29 E69.91210
G1 X156.68 Y147.64 E69.94567
G1 X157.53 Y147.64 E69.96682
G1 X157.53 Y148.75 E69.99439
G1 X156.64 Y148.75 E70.01654
G1 X156.59 Y149.50 E70.03538
G1 X156.59 Y149.55 E70.03667
G1 X156.52 Y150.57 E70.06202
G1 X156.51 Y150.70 E70.06519
G1 X156.22 Y150.49 E70.07392
G1 X155.79 Y150.30 E70.08578
G1 X155.55 Y150.24 E70.09182
G1 X155.15 Y150.18 E70.10201
G1 X154.72 Y150.20 E70.11264
G1 X154.47 Y150.25 E70.11914
G1 X154.42 Y150.26 E70.12033
G0 F12000 X154.58 Y150.63
;TYPE:WALL-OUTER
G1 F3300 X154.38 Y150.71 E70.12549
G1 X154.25 Y150.81 E70.12966
G1 X154.15 Y150.92 E70.13341
G1 X154.09 Y151.06 E70.13708
G1 X154.07 Y151.21 E70.14095
G1 X154.10 Y151.37 E70.14484
G1 X154.17 Y151.51 E70.14892
G1 X154.21 Y151.57 E70.15055
G1 X154.57 Y151.87 E70.16214
G1 X154.74 Y151.97 E70.16714
G1 X155.24 Y152.18 E70.18065
G1 X155.62 Y152.26 E70.19035
G1 X155.76 Y152.26 E70.19386
G1 X156.00 Y152.25 E70.19985
G1 X156.31 Y152.15 E70.20787
G1 X156.43 Y152.05 E70.21163
G1 X156.52 Y151.95 E70.21514
G1 X156.59 Y151.82 E70.21876
G1 X156.62 Y151.68 E70.22229
G1 X156.61 Y151.53 E70.22588
G1 X156.56 Y151.36 E70.23036
G1 X156.34 Y151.07 E70.23944
G1 X156.03 Y150.84 E70.24909
G1 X155.66 Y150.68 E70.25916
G1 X155.47 Y150.63 E70.26391
G1 X155.13 Y150.58 E70.27248
G1 X154.77 Y150.59 E70.28145
G1 X154.58 Y150.63 E70.28634
G0 F12000 X154.02 Y150.42
G1 F3300 X154.04 Y149.66 E70.30529
G1 X154.06 Y149.15 E70.31816
G1 X154.07 Y148.39 E70.33685
G1 X154.07 Y148.09 E70.34437
G1 X154.06 Y147.38 E70.36218
G1 X154.05 Y146.77 E70.37717
G1 X154.02 Y146.05 E70.39527
G1 X154.00 Y145.75 E70.40258
G1 X153.60 Y145.78 E70.41243
G1 X153.63 Y146.28 E70.42488
G1 X153.65 Y146.90 E70.44035
G1 X153.67 Y147.60 E70.45775
G1 X153.67 Y148.25 E70.47404
G1 X153.66 Y149.15 E70.49627
G1 X147.07 Y149.15 E70.66017
G1 X147.07 Y135.50 E70.99964
G1 X147.18 Y135.50 E71.00238
G1 X147.94 Y135.50 E71.02119
G1 X148.03 Y135.50 E71.02336
G1 X148.56 Y135.50 E71.03652
G1 X148.59 Y135.50 E71.03732
G1 X149.12 Y135.50 E71.05050
G1 X149.15 Y135.50 E71.05130
G1 X149.68 Y135.50 E71.06451
G1 X149.71 Y135.50 E71.06531
G1 X150.24 Y135.50 E71.07850
G1 X150.28 Y135.50 E71.07930
G1 X150.81 Y135.50 E71.09251
G1 X150.84 Y135.50 E71.09330
G1 X151.37 Y135.50 E71.10649
G1 X151.40 Y135.50 E71.10729
G1 X151.93 Y135.50 E71.12050
G1 X151.96 Y135.50 E71.12130
G1 X152.49 Y135.50 E71.13449
G1 X152.53 Y135.50 E71.13528
G1 X153.06 Y135.50 E71.14847
G1 X153.09 Y135.50 E71.14927
G1 X153.62 Y135.50 E71.16248
G1 X153.65 Y135.50 E71.16328
G1 X154.18 Y135.50 E71.17646
G1 X154.21 Y135.50 E71.17726
G1 X154.74 Y135.50 E71.19047
G1 X154.78 Y135.50 E71.19127
G1 X155.31 Y135.50 E71.20446
G1 X155.34 Y135.50 E71.20526
G1 X155.87 Y135.50 E71.21847
G1 X155.90 Y135.50 E71.21926
G1 X156.28 Y135.50 E71.22882
G1 X156.38 Y136.28 E71.24839
G1 X156.38 Y136.31 E71.24917
G1 X156.78 Y136.27 E71.25908
G1 X156.71 Y135.68 E71.27376
G1 X156.69 Y135.50 E71.27830
G1 X157.00 Y135.50 E71.28598
G1 X157.06 Y135.50 E71.28743
G1 X157.56 Y135.50 E71.29987
G1 X157.59 Y135.50 E71.30067
G1 X157.84 Y135.50 E71.30699
G1 X157.93 Y135.50 E71.30910
G1 X157.93 Y149.15 E71.64855
G1 X157.01 Y149.15 E71.67122
G1 X156.92 Y150.60 E71.70760
G1 X156.87 Y151.15 E71.72117
G1 X156.82 Y151.66 E71.73396
G1 X156.76 Y152.25 E71.74885
G1 X156.70 Y152.77 E71.76175
G1 X156.63 Y153.31 E71.77521
G1 X156.56 Y153.84 E71.78859
G1 X156.49 Y154.37 E71.80195
G1 X156.41 Y154.90 E71.81533
G1 X156.33 Y155.43 E71.82867
G1 X156.17 Y156.41 E71.85333
G1 X156.07 Y157.00 E71.86831
G1 X155.97 Y157.53 E71.88174
G1 X155.87 Y158.06 E71.89496
G1 X155.77 Y158.57 E71.90793
G1 X155.66 Y159.09 E71.92127
G1 X155.51 Y159.76 E71.93831
G1 X155.43 Y160.07 E71.94636
G1 X154.56 Y159.85 E71.96860
G1 X154.08 Y159.72 E71.98114
G1 X154.03 Y159.70 E71.98225
G1 X153.59 Y159.68 E71.99342
G1 X153.25 Y159.73 E72.00185
G1 X153.06 Y159.81 E72.00682
G1 X152.92 Y159.91 E72.01126
G1 X152.88 Y159.97 E72.01291
G1 X153.07 Y158.99 E72.03773
G1 X153.16 Y158.47 E72.05093
G1 X153.19 Y158.33 E72.05439
G1 X153.34 Y158.54 E72.06097
G1 X153.45 Y158.66 E72.06496
G1 X153.67 Y158.81 E72.07155
G1 X153.90 Y158.92 E72.07792
G1 X154.13 Y159.01 E72.08410
G1 X154.51 Y159.08 E72.09361
G1 X154.65 Y159.09 E72.09705
G1 X154.78 Y159.09 E72.10051
G1 X155.02 Y159.04 E72.10650
G1 X155.15 Y159.00 E72.10995
G1 X155.28 Y158.91 E72.11362
G1 X155.32 Y158.88 E72.11502
G1 X155.38 Y158.81 E72.11741
G1 X155.46 Y158.68 E72.12121
G1 X155.50 Y158.53 E72.12514
G1 X155.50 Y158.44 E72.12716
G1 X155.48 Y158.29 E72.13101
G1 X155.42 Y158.13 E72.13531
G1 X155.31 Y157.97 E72.14014
G1 X155.10 Y157.78 E72.14712
G1 X154.96 Y157.69 E72.15126
G1 X154.62 Y157.53 E72.16076
G1 X154.27 Y157.43 E72.16958
G1 X153.96 Y157.40 E72.17756
G1 X153.70 Y157.42 E72.18386
G1 X153.56 Y157.46 E72.18761
G1 X153.35 Y157.57 E72.19346
G1 X153.30 Y157.62 E72.19524
G1 X153.43 Y156.66 E72.21927
G1 X153.52 Y155.97 E72.23654
G1 X153.53 Y155.99 E72.23706
G1 X153.62 Y156.16 E72.24186
G1 X153.77 Y156.33 E72.24749
G1 X154.06 Y156.54 E72.25644
G1 X154.47 Y156.72 E72.26753
G1 X154.90 Y156.81 E72.27857
G1 X155.08 Y156.81 E72.28290
G1 X155.26 Y156.80 E72.28748
G1 X155.46 Y156.74 E72.29271
G1 X155.58 Y156.69 E72.29591
G1 X155.71 Y156.59 E72.29995
G1 X155.81 Y156.45 E72.30424
G1 X155.86 Y156.32 E72.30782
G1 X155.88 Y156.17 E72.31161
G1 X155.85 Y156.01 E72.31556
G1 X155.78 Y155.84 E72.32018
G1 X155.64 Y155.66 E72.32581
G1 X155.33 Y155.41 E72.33571
G1 X155.09 Y155.29 E72.34218
G1 X154.68 Y155.16 E72.35307
G1 X154.38 Y155.13 E72.36054
G1 X154.30 Y155.13 E72.36260
G1 X154.20 Y155.13 E72.36494
G1 X154.02 Y155.16 E72.36955
G1 X153.87 Y155.21 E72.37356
G1 X153.73 Y155.29 E72.37761
G1 X153.61 Y155.39 E72.38146
G1 X153.59 Y155.43 E72.38252
G1 X153.66 Y154.80 E72.39831
G1 X153.78 Y153.63 E72.42742
G1 X153.84 Y153.05 E72.44202
G1 X153.89 Y152.47 E72.45660
G1 X153.93 Y151.94 E72.46970
G1 X153.97 Y151.30 E72.48566
G1 X154.02 Y150.42 E72.50756
G1 F2400 E72.00756
G0 F12000 X154.38 Y152.88
G1 F2400 E72.50756
G1 F3300 X154.21 Y152.95 E72.51215
G1 X154.06 Y153.04 E72.51660
G1 X153.95 Y153.16 E72.52060
G1 X153.88 Y153.31 E72.52474
G1 X153.85 Y153.48 E72.52893
G1 X153.88 Y153.66 E72.53358
G1 X153.94 Y153.80 E72.53719
G1 X154.05 Y153.96 E72.54220
G1 X154.24 Y154.14 E72.54868
G1 X154.64 Y154.38 E72.56023
G1 X155.04 Y154.50 E72.57059
G1 X155.32 Y154.54 E72.57756
G1 X155.43 Y154.54 E72.58033
G1 X155.48 Y154.54 E72.58157
G1 X155.64 Y154.52 E72.58575
G1 X155.87 Y154.45 E72.59156
G1 X156.02 Y154.36 E72.59604
G1 X156.14 Y154.25 E72.60011
G1 X156.21 Y154.11 E72.60403
G1 X156.25 Y153.94 E72.60829
G1 X156.23 Y153.78 E72.61236
G1 X156.16 Y153.59 E72.61725
G1 X156.07 Y153.45 E72.62159
G1 X155.90 Y153.28 E72.62749
G1 X155.80 Y153.21 E72.63048
G1 X155.52 Y153.04 E72.63859
G1 X155.07 Y152.89 E72.65050
G1 X154.78 Y152.85 E72.65765
G1 X154.63 Y152.85 E72.66145
G1 X154.38 Y152.88 E72.66767
G1 F2400 E72.16767
G0 F12000 X157.07 Y147.24
G1 F2400 E72.66767
G1 F3300 X157.47 Y147.24 E72.67755
G1 X157.47 Y146.98 E72.68407
G1 X157.07 Y147.24 E72.69593
G1 F2400 E72.19593
G0 F12000 X152.78 Y160.44
G1 F2400 E72.69593
G1 F3300 X152.79 Y160.51 E72.69789
G1 X152.84 Y160.61 E72.70049
G1 X152.95 Y160.78 E72.70559
G1 X153.15 Y160.97 E72.71248
G1 X153.51 Y161.22 E72.72337
G1 X154.16 Y161.51 E72.74112
G1 X154.94 Y161.87 E72.76236
G1 X154.72 Y162.55 E72.77998
G1 X154.52 Y163.16 E72.79596
G1 X154.34 Y163.64 E72.80866
G1 X154.16 Y164.12 E72.82153
G1 X153.97 Y164.61 E72.83459
G1 X153.76 Y165.09 E72.84758
G1 X153.56 Y165.57 E72.86063
G1 X153.34 Y166.04 E72.87342
G1 X153.12 Y166.51 E72.88644
G1 X152.89 Y166.97 E72.89922
G1 X152.66 Y167.43 E72.91209
G1 X152.41 Y167.89 E72.92509
G1 X152.16 Y168.34 E72.93776
G1 X151.91 Y168.78 E72.95054
G1 X151.64 Y169.22 E72.96334
G1 X151.35 Y169.70 E72.97716
G1 X151.35 Y169.71 E72.97742
G1 X149.68 Y168.57 E73.02759
G1 X150.14 Y167.71 E73.05197
G1 X150.41 Y167.18 E73.06655
G1 X150.66 Y166.65 E73.08114
G1 X150.89 Y166.13 E73.09528
G1 X151.13 Y165.58 E73.11028
G1 X151.36 Y165.04 E73.12487
G1 X151.57 Y164.49 E73.13944
G1 X151.77 Y163.94 E73.15400
G1 X151.96 Y163.39 E73.16855
G1 X152.14 Y162.82 E73.18339
G1 X152.31 Y162.27 E73.19768
G1 X152.47 Y161.71 E73.21223
G1 X152.61 Y161.15 E73.22678
G1 X152.73 Y160.65 E73.23957
G1 X152.78 Y160.44 E73.24487
G1 F2400 E72.74487
G0 F12000 X153.49 Y162.24
;TYPE:FILL
G1 F2400 E73.24487
G1 F3300 X153.68 Y162.71 E73.25401
G1 X153.18 Y162.64 E73.26774
G1 X153.49 Y163.23 E73.28119
G1 X153.01 Y163.17 E73.29431
G1 X153.26 Y163.85 E73.30681
G1 X152.84 Y163.72 E73.31881
G1 X153.06 Y164.34 E73.33044
G1 X152.62 Y164.34 E73.34137
G1 X152.84 Y164.85 E73.35203
G1 X152.44 Y164.85 E73.36236
G1 X152.58 Y165.44 E73.37210
G1 X152.23 Y165.37 E73.38147
G1 X152.36 Y165.91 E73.39051
G1 X151.99 Y165.97 E73.39890
G1 X152.13 Y166.39 E73.40699
G1 X151.78 Y166.45 E73.41486
G1 X151.84 Y166.96 E73.42211
G1 X151.55 Y166.95 E73.42913
G1 X151.60 Y167.40 E73.43589
G1 X151.28 Y167.52 E73.44193
G1 X151.34 Y167.87 E73.44757
G1 X151.05 Y167.98 E73.45303
G1 X151.10 Y168.31 E73.46132
G1 F2400 E72.96132
G0 F12000 X155.46 Y149.68
G1 F2400 E73.46132
G1 F3300 X156.07 Y149.24 E73.47999
G0 F12000 X156.10 Y148.72
G1 F3300 X154.99 Y149.53 E73.51416
G0 F12000 X155.00 Y149.03
G1 F3300 X156.14 Y148.20 E73.54923
G0 F12000 X156.14 Y147.71
G1 F3300 X155.01 Y148.52 E73.58383
G0 F12000 X155.01 Y148.03
G1 F3300 X156.13 Y147.21 E73.61825
G0 F12000 X156.13 Y146.72
G1 F3300 X155.01 Y147.54 E73.65272
G0 F12000 X155.00 Y147.05
G1 F3300 X156.13 Y146.23 E73.68751
G0 F12000 X156.79 Y145.75
G1 F3300 X156.99 Y145.61 E73.69362
G0 F12000 X156.99 Y145.11
G1 F3300 X154.99 Y146.56 E73.75506
G0 F12000 X154.97 Y146.09
G1 F3300 X156.99 Y144.62 E73.81725
G0 F12000 X156.99 Y144.13
G1 F3300 X154.93 Y145.62 E73.88051
G0 F12000 X154.90 Y145.15
G1 F3300 X156.99 Y143.63 E73.94475
G0 F12000 X156.99 Y143.14
G1 F3300 X154.75 Y144.77 E74.01367
G0 F12000 X154.01 Y144.81
G1 F3300 X156.99 Y142.65 E74.10529
G0 F12000 X156.99 Y142.16
G1 F3300 X153.27 Y144.86 E74.21962
G0 F12000 X152.63 Y145.32
G1 F3300 X148.66 Y148.21 E74.34195
G0 F12000 X148.01 Y148.18
G1 F3300 X156.99 Y141.66 E74.61799
G0 F12000 X156.99 Y141.17
G1 F3300 X148.01 Y147.69 E74.89406
G0 F12000 X148.01 Y147.20
G1 F3300 X156.99 Y140.68 E75.17012
G0 F12000 X156.99 Y140.18
G1 F3300 X148.01 Y146.70 E75.44617
G0 F12000 X148.01 Y146.21
G1 F3300 X156.99 Y139.69 E75.72218
G0 F12000 X156.99 Y139.20
G1 F3300 X148.01 Y145.72 E75.99821
G0 F12000 X148.01 Y145.22
G1 F3300 X156.99 Y138.70 E76.27422
G0 F12000 X156.99 Y138.21
G1 F3300 X148.01 Y144.73 E76.55023
G0 F12000 X148.01 Y144.24
G1 F3300 X156.99 Y137.72 E76.82626
G0 F12000 X156.43 Y137.63
G1 F3300 X148.01 Y143.74 E77.08505
G0 F12000 X148.01 Y143.25
G1 F3300 X155.63 Y137.71 E77.31953
G0 F12000 X155.54 Y137.29
G1 F3300 X148.01 Y142.76 E77.55103
G0 F12000 X148.01 Y142.26
G1 F3300 X155.28 Y136.99 E77.77447
G0 F12000 X155.18 Y136.28
G1 F3300 X154.60 Y135.70 E77.79467
G0 F12000 X154.04 Y135.70
G1 F3300 X154.68 Y136.34 E77.81716
G0 F12000 X154.18 Y136.41
G1 F3300 X153.48 Y135.70 E77.84197
G0 F12000 X152.91 Y135.70
G1 F3300 X153.68 Y136.47 E77.86911
G0 F12000 X153.18 Y136.54
G1 F3300 X152.94 Y136.30 E77.87751
G0 F12000 X152.27 Y136.70
G1 F3300 X148.01 Y139.80 E78.00862
G0 F12000 X148.01 Y140.29
G1 F3300 X152.33 Y137.15 E78.14151
G0 F12000 X152.79 Y137.32
G1 F3300 X148.01 Y140.78 E78.28837
G0 F12000 X148.01 Y141.28
G1 F3300 X153.62 Y137.21 E78.46076
G0 F12000 X154.45 Y137.10
G1 F3300 X148.01 Y141.77 E78.65868
G1 F2400 E78.15868
G0 F12000 X148.01 Y139.31
G1 F2400 E78.65868
G1 F3300 X151.95 Y136.44 E78.77994
G0 F12000 X151.28 Y136.44
G1 F3300 X148.01 Y138.81 E78.88039
G0 F12000 X148.01 Y138.32
G1 F3300 X150.60 Y136.44 E78.95995
G0 F12000 X149.92 Y136.44
G1 F3300 X148.01 Y137.83 E79.01863
G0 F12000 X148.01 Y137.33
G1 F3300 X149.24 Y136.44 E79.05640
G0 F12000 X148.56 Y136.44
G1 F3300 X148.01 Y136.84 E79.07332
G1 F2400 E78.57332
G0 F12000 X155.17 Y135.70
G1 F2400 E79.07332
G1 F3300 X155.92 Y136.17 E79.09113
G1 X155.73 Y135.70 E79.10356
G1 F2400 E78.60356
G0 F12000 X152.66 Y145.79
G1 F2400 E79.10356
G1 F3300 X149.34 Y148.21 E79.20576
G0 F12000 X150.01 Y148.21
G1 F3300 X152.68 Y146.27 E79.28783
G0 F12000 X152.71 Y146.74
G1 F3300 X150.69 Y148.21 E79.34973
G0 F12000 X151.37 Y148.21
G1 F3300 X152.72 Y147.23 E79.39109
G0 F12000 X152.72 Y147.72
G1 F3300 X152.05 Y148.21 E79.41179
;LAYER:5
M106 S66
G0 F12000 X152.86 Y148.35 Z0.95
;TYPE:WALL-INNER
G1 F3300 X147.87 Y148.35 E79.53581
G1 X147.87 Y136.19 E79.83833
G1 X148.01 Y136.19 E79.84167
G1 X148.51 Y136.19 E79.85416
G1 X148.58 Y136.19 E79.85588
G1 X149.07 Y136.19 E79.86817
G1 X149.14 Y136.19 E79.86986
G1 X149.63 Y136.19 E79.88215
G1 X149.70 Y136.19 E79.88387
G1 X150.20 Y136.19 E79.89616
G1 X150.26 Y136.19 E79.89786
G1 X150.76 Y136.19 E79.91015
G1 X150.83 Y136.19 E79.91186
G1 X151.32 Y136.19 E79.92416
G1 X151.39 Y136.19 E79.92585
G1 X151.88 Y136.19 E79.93814
G1 X152.09 Y136.19 E79.94322
G1 X152.23 Y137.25 E79.96990
G1 X153.99 Y137.02 E80.01413
G1 X154.57 Y136.94 E80.02874
G1 X155.66 Y136.80 E80.05595
G1 X155.76 Y137.98 E80.08559
G1 X155.76 Y138.01 E80.08631
G1 X156.75 Y137.94 E80.11113
G1 X157.13 Y137.91 E80.12045
G1 X157.13 Y140.79 E80.19216
G1 X155.96 Y140.87 E80.22129
G1 X156.00 Y141.52 E80.23745
G1 X156.08 Y142.68 E80.26623
G1 X157.13 Y142.60 E80.29231
G1 X157.13 Y144.65 E80.34322
G1 X156.25 Y144.68 E80.36518
G1 X156.29 Y146.04 E80.39899
G1 X156.31 Y147.59 E80.43751
G1 X157.13 Y147.58 E80.45777
G1 X157.13 Y148.35 E80.47688
G1 X156.28 Y148.35 E80.49790
G1 X156.22 Y149.50 E80.52674
G1 X156.20 Y149.86 E80.53566
G1 X155.96 Y149.76 E80.54219
G1 X155.37 Y149.62 E80.55715
G1 X155.13 Y149.59 E80.56332
G1 X154.82 Y149.58 E80.57094
G1 X154.86 Y148.35 E80.60166
G1 X154.84 Y148.35 E80.60193
G1 X154.85 Y148.04 E80.60964
G1 X152.86 Y148.00 E80.65907
G1 X152.86 Y148.35 E80.66773
G1 F2400 E80.16773
G0 F12000 X153.15 Y162.11
G1 F2400 E80.66773
G1 F3300 X153.83 Y162.38 E80.68586
G1 X153.95 Y162.44 E80.68916
G1 X153.65 Y163.30 E80.71193
G1 X153.48 Y163.76 E80.72415
