;-- START GCODE --
;Sliced for Type A Machines Series 1
;Sliced at: Mon 05-10-2015 20:21:52
;Basic settings: Layer height: 0.15 Walls: 0.8 Fill: 25
;Print Speed: 100 Support: 0
;Retraction Speed: 60 Retraction Distance: 1.4
;Print time: 2 hours 6 minutes
;Filament used: 11.113m 33.0g
;Filament cost: None
G21        ;metric values
G90        ;absolute positioning
G28     ;move to endstops
G29		;allows for auto-levelling
G1 X150 Y5  Z15.0 F12000 ;center and move the platform down 15mm
M109 S220 ;Heat To temp
G1 X150 Y5 Z0.3 ;move the platform to purge extrusion
G92 E0 ;zero the extruded length
G1 F200 X250 E30 ;extrude 30mm of feed stock
G92 E0 ;zero the extruded length again
G1 X150 Y150  Z25 F12000 ;recenter and begin
G1 F12000

;Layer count: 57
;LAYER:0
M107
G0 F12000 X131.25 Y79.35 Z0.20
;TYPE:SKIRT
G1 F2700 X136.12 Y78.38 E0.16530
G1 X138.60 Y77.96 E0.24891
G1 X141.01 Y77.61 E0.32991
G1 X143.42 Y77.34 E0.41050
G1 X145.82 Y77.13 E0.49069
G1 X148.22 Y76.98 E0.57047
G1 X150.60 Y76.90 E0.64981
G1 X152.97 Y76.88 E0.72854
G1 X155.33 Y76.92 E0.80698
G1 X157.67 Y77.03 E0.88488
G1 X159.98 Y77.19 E0.96217
G1 X162.28 Y77.41 E1.03889
G1 X164.56 Y77.69 E1.11512
G1 X166.80 Y78.02 E1.19067
G1 X169.02 Y78.41 E1.26568
G1 X173.75 Y79.35 E1.42595
G1 X173.75 Y152.50 E3.85900
G1 X176.47 Y157.22 E4.04017
G1 X189.96 Y180.58 E4.93715
G1 X190.28 Y181.13 E4.95833
G1 X194.47 Y188.39 E5.23717
G1 X194.60 Y188.62 E5.24601
G1 X203.30 Y193.64 E5.58014
G1 X210.98 Y189.21 E5.87506
G1 X211.47 Y188.92 E5.89411
G1 X219.69 Y184.18 E6.20963
G1 X220.36 Y183.83 E6.23466
G1 X221.04 Y183.61 E6.25860
G1 X221.71 Y183.48 E6.28112
G1 X222.41 Y183.44 E6.30448
G1 X223.10 Y183.50 E6.32771
G1 X223.77 Y183.64 E6.35039
G1 X224.48 Y183.89 E6.37553
G1 X227.78 Y185.78 E6.50183
G1 X238.90 Y192.20 E6.92902
G1 X237.39 Y196.68 E7.08632
G1 X236.60 Y198.84 E7.16272
G1 X235.77 Y200.94 E7.23773
G1 X234.88 Y203.03 E7.31335
G1 X233.93 Y205.12 E7.38970
G1 X232.92 Y207.20 E7.46672
G1 X231.85 Y209.28 E7.54442
G1 X230.71 Y211.34 E7.62274
G1 X229.51 Y213.38 E7.70158
G1 X228.25 Y215.41 E7.78104
G1 X226.92 Y217.42 E7.86109
G1 X225.53 Y219.40 E7.94167
G1 X224.08 Y221.37 E8.02280
G1 X222.57 Y223.30 E8.10444
G1 X221.00 Y225.20 E8.18648
G1 X217.66 Y229.01 E8.35499
G1 X207.88 Y223.36 E8.73058
G1 X207.21 Y222.97 E8.75641
G1 X185.37 Y210.37 E9.59509
G1 X176.79 Y205.41 E9.92454
G1 X154.30 Y192.43 E10.78824
G1 X112.62 Y192.43 E12.17436
G1 X108.22 Y194.96 E12.34318
G1 X103.91 Y197.44 E12.50865
G1 X103.90 Y201.55 E12.64522
G1 X103.90 Y216.38 E13.13847
G1 X103.87 Y217.12 E13.16317
G1 X103.72 Y217.83 E13.18734
G1 X103.49 Y218.49 E13.21034
G1 X103.18 Y219.10 E13.23327
G1 X102.78 Y219.68 E13.25659
G1 X102.32 Y220.19 E13.27945
G1 X101.75 Y220.68 E13.30451
G1 X95.63 Y224.22 E13.53962
G1 X89.96 Y227.50 E13.75756
G1 X87.34 Y229.01 E13.85795
G1 X84.15 Y225.36 E14.01909
G1 X82.61 Y223.52 E14.09907
G1 X81.16 Y221.68 E14.17710
G1 X79.75 Y219.79 E14.25523
G1 X78.39 Y217.87 E14.33354
G1 X77.08 Y215.91 E14.41199
G1 X75.81 Y213.91 E14.49056
G1 X74.60 Y211.88 E14.56919
G1 X73.45 Y209.82 E14.64786
G1 X72.34 Y207.73 E14.72661
G1 X71.30 Y205.60 E14.80528
G1 X70.31 Y203.46 E14.88403
G1 X69.37 Y201.28 E14.96266
G1 X68.50 Y199.09 E15.04119
G1 X67.68 Y196.88 E15.11964
G1 X66.10 Y192.20 E15.28382
G1 X68.82 Y190.63 E15.38833
G1 X76.10 Y186.43 E15.66795
G1 X76.54 Y186.17 E15.68513
G1 X98.38 Y173.56 E16.52381
G1 X106.96 Y168.61 E16.85326
G1 X129.45 Y155.62 E17.71694
G1 X149.46 Y120.96 E19.04811
G1 X150.31 Y119.49 E19.10485
G1 X150.31 Y119.44 E19.10625
G1 X150.31 Y109.47 E19.43785
G1 X139.97 Y103.50 E19.83525
G1 X133.97 Y100.04 E20.06557
G1 X133.28 Y99.60 E20.09266
G1 X132.74 Y99.12 E20.11678
G1 X132.29 Y98.60 E20.13957
G1 X131.91 Y98.01 E20.16308
G1 X131.61 Y97.39 E20.18589
G1 X131.41 Y96.75 E20.20831
G1 X131.27 Y96.02 E20.23295
G1 X131.25 Y88.92 E20.46906
G1 X131.25 Y79.35 E20.78746
G1 F3600 E19.38746
G0 F12000 X135.05 Y82.47
;TYPE:WALL-INNER
G1 F3600 E20.78746
G1 F2700 X136.82 Y82.12 E20.84758
G1 X139.18 Y81.71 E20.92721
G1 X141.50 Y81.38 E21.00509
G1 X143.80 Y81.12 E21.08196
G1 X146.11 Y80.92 E21.15932
G1 X148.39 Y80.78 E21.23516
G1 X150.69 Y80.70 E21.31167
G1 X152.95 Y80.68 E21.38677
G1 X155.22 Y80.72 E21.46222
G1 X157.44 Y80.82 E21.53630
G1 X159.68 Y80.98 E21.61085
G1 X161.86 Y81.19 E21.68382
G1 X164.04 Y81.45 E21.75701
G1 X166.21 Y81.77 E21.82970
G1 X168.33 Y82.14 E21.90150
G1 X169.95 Y82.47 E21.95632
G1 X169.95 Y153.52 E24.31965
G1 X191.48 Y190.81 E25.75186
G1 X191.66 Y191.08 E25.76253
G1 X191.90 Y191.35 E25.77473
G1 X192.17 Y191.58 E25.78631
G1 X201.87 Y197.21 E26.15939
G1 X202.31 Y197.43 E26.17598
G1 X202.64 Y197.54 E26.18751
G1 X202.98 Y197.61 E26.19895
G1 X203.33 Y197.63 E26.21058
G1 X203.68 Y197.60 E26.22209
G1 X204.01 Y197.53 E26.23356
G1 X204.33 Y197.41 E26.24469
G1 X221.53 Y187.51 E26.90480
G1 X221.83 Y187.35 E26.91626
G1 X222.00 Y187.29 E26.92209
G1 X222.18 Y187.26 E26.92823
G1 X222.37 Y187.25 E26.93449
G1 X222.55 Y187.26 E26.94060
G1 X222.74 Y187.30 E26.94688
G1 X222.89 Y187.36 E26.95232
G1 X225.88 Y189.07 E27.06712
G1 X234.31 Y193.93 E27.39049
G1 X233.81 Y195.41 E27.44242
G1 X233.04 Y197.49 E27.51609
G1 X232.25 Y199.50 E27.58794
G1 X231.41 Y201.49 E27.65989
G1 X230.50 Y203.50 E27.73303
G1 X229.53 Y205.49 E27.80679
G1 X228.49 Y207.49 E27.88172
G1 X227.41 Y209.45 E27.95624
G1 X226.25 Y211.42 E28.03227
G1 X225.05 Y213.35 E28.10784
G1 X223.78 Y215.28 E28.18448
G1 X222.44 Y217.19 E28.26221
G1 X221.06 Y219.06 E28.33936
G1 X219.61 Y220.91 E28.41754
G1 X218.10 Y222.74 E28.49670
G1 X216.85 Y224.16 E28.55937
G1 X155.32 Y188.63 E30.92272
G1 X112.26 Y188.63 E32.35490
G1 X111.91 Y188.65 E32.36637
G1 X111.58 Y188.72 E32.37779
G1 X111.24 Y188.84 E32.38967
G1 X106.33 Y191.66 E32.57798
G1 X101.53 Y194.43 E32.76240
G1 X101.11 Y194.70 E32.77902
G1 X100.85 Y194.93 E32.79061
G1 X100.62 Y195.19 E32.80205
G1 X100.43 Y195.49 E32.81368
G1 X100.28 Y195.80 E32.82516
G1 X100.18 Y196.12 E32.83649
G1 X100.12 Y196.45 E32.84753
G1 X100.10 Y201.54 E33.01676
G1 X100.10 Y216.30 E33.50788
G1 X100.08 Y216.65 E33.51930
G1 X100.05 Y216.82 E33.52517
G1 X99.99 Y216.99 E33.53124
G1 X99.90 Y217.16 E33.53764
G1 X99.68 Y217.45 E33.54964
G1 X99.55 Y217.56 E33.55544
G1 X93.73 Y220.93 E33.77905
G1 X88.14 Y224.16 E33.99354
G1 X87.03 Y222.89 E34.04970
G1 X85.56 Y221.13 E34.12588
G1 X84.16 Y219.35 E34.20109
G1 X82.83 Y217.56 E34.27542
G1 X81.51 Y215.71 E34.35094
G1 X80.26 Y213.83 E34.42606
G1 X79.05 Y211.92 E34.50133
G1 X77.89 Y209.97 E34.57663
G1 X76.79 Y208.01 E34.65149
G1 X75.73 Y205.99 E34.72741
G1 X74.72 Y203.96 E34.80278
G1 X73.77 Y201.90 E34.87816
G1 X72.88 Y199.82 E34.95349
G1 X72.05 Y197.74 E35.02818
G1 X71.26 Y195.60 E35.10383
G1 X70.69 Y193.93 E35.16245
G1 X132.23 Y158.40 E37.52583
G1 X153.78 Y121.08 E38.95923
G1 X153.94 Y120.75 E38.97142
G1 X154.03 Y120.45 E38.98185
G1 X154.10 Y120.11 E38.99353
G1 X154.12 Y119.49 E39.01396
G1 X154.12 Y108.93 E39.36529
G1 X154.09 Y108.43 E39.38177
G1 X154.02 Y108.09 E39.39341
G1 X153.91 Y107.77 E39.40487
G1 X153.75 Y107.45 E39.41647
G1 X153.54 Y107.15 E39.42891
G1 X153.29 Y106.88 E39.44087
G1 X152.85 Y106.55 E39.45947
G1 X135.93 Y96.78 E40.10926
G1 X135.59 Y96.56 E40.12271
G1 X135.45 Y96.44 E40.12864
G1 X135.33 Y96.31 E40.13473
G1 X135.23 Y96.14 E40.14107
G1 X135.09 Y95.81 E40.15315
G1 X135.07 Y95.66 E40.15822
G1 X135.05 Y88.92 E40.38246
G1 X135.05 Y82.47 E40.59692
G1 F3600 E39.19692
G0 F12000 X163.57 Y124.30
G1 F3600 E40.59692
G1 F2700 X163.16 Y124.61 E40.61399
G1 X162.79 Y125.04 E40.63277
G1 X162.49 Y125.55 E40.65259
G1 X162.36 Y125.87 E40.66402
G1 X162.24 Y126.43 E40.68302
G1 X162.22 Y126.77 E40.69439
G1 X162.27 Y127.36 E40.71390
G1 X162.34 Y127.64 E40.72359
G1 X162.45 Y127.95 E40.73461
G1 X162.71 Y128.43 E40.75258
G1 X163.02 Y128.83 E40.76965
G1 X163.43 Y129.20 E40.78791
G1 X163.70 Y129.37 E40.79847
G1 X163.97 Y129.51 E40.80884
G1 X164.28 Y129.63 E40.81964
G1 X164.84 Y129.75 E40.83868
G1 X165.18 Y129.78 E40.85011
G1 X165.76 Y129.72 E40.86955
G1 X166.04 Y129.65 E40.87928
G1 X166.36 Y129.54 E40.89027
G1 X166.83 Y129.29 E40.90819
G1 X167.23 Y128.98 E40.92480
G1 X167.45 Y128.75 E40.93546
G1 X167.78 Y128.30 E40.95418
G1 X168.03 Y127.75 E40.97396
G1 X168.16 Y127.16 E40.99432
G1 X168.18 Y126.83 E41.00522
G1 X168.17 Y126.51 E41.01600
G1 X168.06 Y125.96 E41.03439
G1 X167.95 Y125.64 E41.04577
G1 X167.75 Y125.24 E41.06069
G1 X167.39 Y124.77 E41.08029
G1 X167.16 Y124.55 E41.09111
G1 X166.71 Y124.22 E41.10931
G1 X166.43 Y124.08 E41.12013
G1 X166.13 Y123.96 E41.13055
G1 X165.83 Y123.88 E41.14095
G1 X165.55 Y123.83 E41.15047
G1 X165.22 Y123.81 E41.16144
G1 X164.64 Y123.86 E41.18088
G1 X164.35 Y123.94 E41.19061
G1 X164.04 Y124.05 E41.20159
G1 X163.57 Y124.30 E41.21956
G1 F3600 E39.81956
G0 F12000 X165.15 Y149.21
G1 F3600 E41.21956
G1 F2700 X164.61 Y149.27 E41.23761
G1 X164.31 Y149.35 E41.24773
G1 X164.05 Y149.44 E41.25694
G1 X163.76 Y149.58 E41.26749
G1 X163.28 Y149.91 E41.28720
G1 X163.04 Y150.14 E41.29809
G1 X162.85 Y150.36 E41.30764
G1 X162.70 Y150.57 E41.31631
G1 X162.52 Y150.89 E41.32866
G1 X162.34 Y151.37 E41.34547
G1 X162.32 Y151.43 E41.34777
G1 X162.26 Y151.68 E41.35631
G1 X162.22 Y152.23 E41.37462
G1 X162.22 Y152.33 E41.37782
G1 X162.28 Y152.79 E41.39329
G1 X162.36 Y153.10 E41.40389
G1 X162.57 Y153.60 E41.42214
G1 X162.74 Y153.88 E41.43290
G1 X162.90 Y154.09 E41.44157
G1 X163.14 Y154.35 E41.45362
G1 X163.36 Y154.54 E41.46336
G1 X163.58 Y154.69 E41.47198
G1 X163.90 Y154.88 E41.48435
G1 X164.42 Y155.07 E41.50284
G1 X164.68 Y155.13 E41.51185
G1 X165.24 Y155.18 E41.53026
G1 X165.33 Y155.17 E41.53346
G1 X165.79 Y155.12 E41.54900
G1 X166.35 Y154.94 E41.56825
G1 X166.62 Y154.81 E41.57825
G1 X166.88 Y154.65 E41.58856
G1 X167.15 Y154.45 E41.59949
G1 X167.54 Y154.04 E41.61848
G1 X167.88 Y153.50 E41.63995
G1 X168.06 Y153.02 E41.65676
G1 X168.08 Y152.96 E41.65907
G1 X168.14 Y152.71 E41.66760
G1 X168.18 Y152.16 E41.68588
G1 X168.18 Y152.06 E41.68908
G1 X168.12 Y151.60 E41.70455
G1 X168.04 Y151.29 E41.71515
G1 X167.83 Y150.79 E41.73340
G1 X167.66 Y150.51 E41.74416
G1 X167.50 Y150.30 E41.75286
G1 X167.26 Y150.03 E41.76495
G1 X167.03 Y149.84 E41.77462
G1 X166.82 Y149.70 E41.78324
G1 X166.51 Y149.52 E41.79515
G1 X166.23 Y149.40 E41.80545
G1 X165.97 Y149.31 E41.81460
G1 X165.72 Y149.25 E41.82313
G1 X165.15 Y149.21 E41.84218
G1 F3600 E40.44218
G0 F12000 X170.51 Y160.38
G1 F3600 E41.84218
G1 F2700 X169.97 Y160.65 E41.86226
G1 X169.52 Y160.99 E41.88115
G1 X169.28 Y161.24 E41.89263
G1 X168.99 Y161.65 E41.90918
G1 X168.75 Y162.12 E41.92687
G1 X168.60 Y162.68 E41.94600
G1 X168.57 Y163.00 E41.95664
G1 X168.56 Y163.31 E41.96692
G1 X168.60 Y163.63 E41.97785
G1 X168.73 Y164.18 E41.99677
G1 X168.86 Y164.49 E42.00771
G1 X169.15 Y164.97 E42.02637
G1 X169.36 Y165.22 E42.03725
G1 X169.61 Y165.45 E42.04840
G1 X170.05 Y165.76 E42.06632
G1 X170.49 Y165.97 E42.08257
G1 X171.04 Y166.12 E42.10168
G1 X171.36 Y166.16 E42.11229
G1 X171.66 Y166.16 E42.12254
G1 X171.98 Y166.13 E42.13299
G1 X172.29 Y166.07 E42.14345
G1 X172.58 Y165.98 E42.15354
G1 X173.11 Y165.72 E42.17320
G1 X173.38 Y165.53 E42.18447
G1 X173.80 Y165.14 E42.20343
G1 X174.06 Y164.78 E42.21803
G1 X174.13 Y164.66 E42.22276
G1 X174.34 Y164.24 E42.23824
G1 X174.48 Y163.69 E42.25733
G1 X174.52 Y163.37 E42.26794
G1 X174.52 Y163.06 E42.27825
G1 X174.49 Y162.75 E42.28871
G1 X174.43 Y162.44 E42.29909
G1 X174.35 Y162.17 E42.30865
G1 X174.22 Y161.86 E42.31960
G1 X173.90 Y161.35 E42.33955
G1 X173.50 Y160.93 E42.35926
G1 X173.04 Y160.61 E42.37766
G1 X172.60 Y160.39 E42.39394
G1 X172.05 Y160.24 E42.41302
G1 X171.73 Y160.21 E42.42359
G1 X171.42 Y160.20 E42.43390
G1 X171.11 Y160.23 E42.44443
G1 X170.80 Y160.29 E42.45478
G1 X170.51 Y160.38 E42.46487
G1 F3600 E41.06487
G0 F12000 X160.25 Y182.55
G1 F3600 E42.46487
G1 F2700 X159.79 Y182.35 E42.48146
G1 X159.50 Y182.27 E42.49151
G1 X159.23 Y182.22 E42.50070
G1 X158.93 Y182.20 E42.51077
G1 X158.62 Y182.21 E42.52105
G1 X158.01 Y182.32 E42.54157
G1 X157.46 Y182.54 E42.56131
G1 X157.17 Y182.71 E42.57259
G1 X156.74 Y183.06 E42.59102
G1 X156.51 Y183.32 E42.60256
G1 X156.21 Y183.78 E42.62051
G1 X156.01 Y184.25 E42.63758
G1 X155.89 Y184.78 E42.65583
G1 X155.86 Y185.10 E42.66641
G1 X155.87 Y185.41 E42.67672
G1 X155.91 Y185.72 E42.68718
G1 X155.99 Y186.04 E42.69816
G1 X156.20 Y186.57 E42.71704
G1 X156.38 Y186.86 E42.72827
G1 X156.71 Y187.26 E42.74577
G1 X156.99 Y187.51 E42.75818
G1 X157.44 Y187.81 E42.77620
G1 X157.90 Y188.01 E42.79280
G1 X158.46 Y188.14 E42.81198
G1 X158.76 Y188.16 E42.82209
G1 X159.07 Y188.15 E42.83237
G1 X159.68 Y188.04 E42.85288
G1 X160.23 Y187.82 E42.87262
G1 X160.52 Y187.65 E42.88393
G1 X160.95 Y187.29 E42.90228
G1 X161.18 Y187.04 E42.91366
G1 X161.43 Y186.67 E42.92862
G1 X161.68 Y186.12 E42.94867
G1 X161.80 Y185.58 E42.96717
G1 X161.83 Y185.26 E42.97774
G1 X161.82 Y184.95 E42.98802
G1 X161.78 Y184.64 E42.99849
G1 X161.70 Y184.32 E43.00947
G1 X161.48 Y183.78 E43.02881
G1 X161.18 Y183.32 E43.04700
G1 X160.95 Y183.07 E43.05836
G1 X160.70 Y182.84 E43.06955
G1 X160.25 Y182.55 E43.08750
G1 F3600 E41.68750
G0 F12000 X149.06 Y184.51
G1 F3600 E43.08750
G1 F2700 X148.97 Y184.19 E43.09855
G1 X148.74 Y183.70 E43.11648
G1 X148.47 Y183.29 E43.13278
G1 X148.06 Y182.89 E43.15180
G1 X147.79 Y182.69 E43.16290
G1 X147.27 Y182.41 E43.18260
G1 X146.94 Y182.30 E43.19405
G1 X146.41 Y182.21 E43.21220
G1 X146.06 Y182.20 E43.22381
G1 X145.75 Y182.22 E43.23402
G1 X145.48 Y182.28 E43.24326
G1 X145.16 Y182.37 E43.25421
G1 X144.67 Y182.59 E43.27214
G1 X144.28 Y182.86 E43.28796
G1 X144.03 Y183.09 E43.29933
G1 X143.67 Y183.53 E43.31813
G1 X143.39 Y184.07 E43.33830
G1 X143.28 Y184.38 E43.34924
G1 X143.22 Y184.66 E43.35887
G1 X143.18 Y184.97 E43.36918
G1 X143.17 Y185.28 E43.37950
G1 X143.20 Y185.58 E43.38968
G1 X143.25 Y185.85 E43.39884
G1 X143.34 Y186.17 E43.40972
G1 X143.52 Y186.58 E43.42465
G1 X143.84 Y187.06 E43.44393
G1 X144.25 Y187.47 E43.46317
G1 X144.52 Y187.67 E43.47429
G1 X145.04 Y187.95 E43.49398
G1 X145.37 Y188.06 E43.50541
G1 X145.90 Y188.15 E43.52349
G1 X146.25 Y188.16 E43.53514
G1 X146.56 Y188.13 E43.54535
G1 X146.83 Y188.08 E43.55459
G1 X147.15 Y187.99 E43.56554
G1 X147.64 Y187.77 E43.58347
G1 X148.03 Y187.50 E43.59932
G1 X148.27 Y187.28 E43.61017
G1 X148.46 Y187.07 E43.61935
G1 X148.65 Y186.82 E43.62996
G1 X148.92 Y186.29 E43.64965
G1 X149.03 Y185.98 E43.66059
G1 X149.09 Y185.70 E43.67021
G1 X149.13 Y185.39 E43.68053
G1 X149.14 Y185.08 E43.69088
G1 X149.11 Y184.78 E43.70103
G1 X149.06 Y184.51 E43.71019
G1 F3600 E42.31019
G0 F12000 X135.03 Y165.71
G1 F3600 E43.71019
G1 F2700 X135.44 Y165.41 E43.72719
G1 X135.82 Y165.00 E43.74552
G1 X136.00 Y164.74 E43.75605
G1 X136.14 Y164.47 E43.76629
G1 X136.26 Y164.19 E43.77641
G1 X136.41 Y163.61 E43.79626
G1 X136.44 Y163.29 E43.80714
G1 X136.43 Y162.96 E43.81795
G1 X136.34 Y162.42 E43.83633
G1 X136.23 Y162.09 E43.84785
G1 X135.99 Y161.61 E43.86584
G1 X135.68 Y161.19 E43.88286
G1 X135.28 Y160.82 E43.90120
G1 X134.75 Y160.50 E43.92195
G1 X134.47 Y160.38 E43.93201
G1 X133.89 Y160.23 E43.95186
G1 X133.56 Y160.20 E43.96277
G1 X133.24 Y160.21 E43.97362
G1 X132.69 Y160.30 E43.99196
G1 X132.36 Y160.41 E44.00350
G1 X131.88 Y160.65 E44.02150
G1 X131.47 Y160.96 E44.03850
G1 X131.09 Y161.36 E44.05681
G1 X130.91 Y161.63 E44.06779
G1 X130.65 Y162.16 E44.08720
G1 X130.50 Y162.75 E44.10756
G1 X130.48 Y163.08 E44.11845
G1 X130.48 Y163.40 E44.12926
G1 X130.57 Y163.95 E44.14764
G1 X130.68 Y164.28 E44.15917
G1 X130.92 Y164.76 E44.17708
G1 X131.19 Y165.12 E44.19195
G1 X131.44 Y165.38 E44.20416
G1 X131.88 Y165.72 E44.22256
G1 X132.17 Y165.87 E44.23326
G1 X132.44 Y165.99 E44.24335
G1 X133.02 Y166.13 E44.26320
G1 X133.35 Y166.16 E44.27412
G1 X133.68 Y166.16 E44.28493
G1 X134.22 Y166.07 E44.30325
G1 X134.55 Y165.96 E44.31479
G1 X135.03 Y165.71 E44.33281
G1 F3600 E42.93281
G0 F12000 X138.89 Y155.03
G1 F3600 E44.33281
G1 F2700 X139.25 Y155.12 E44.34504
G1 X139.75 Y155.18 E44.36170
G1 X140.30 Y155.13 E44.38024
G1 X140.84 Y154.99 E44.39858
G1 X141.12 Y154.87 E44.40905
G1 X141.41 Y154.71 E44.41995
G1 X141.88 Y154.34 E44.43973
G1 X142.08 Y154.11 E44.44980
G1 X142.28 Y153.85 E44.46068
G1 X142.55 Y153.36 E44.47933
G1 X142.65 Y153.06 E44.48990
G1 X142.73 Y152.74 E44.50078
G1 X142.78 Y152.25 E44.51737
G1 X142.74 Y151.69 E44.53588
G1 X142.59 Y151.15 E44.55469
G1 X142.32 Y150.60 E44.57510
G1 X141.94 Y150.12 E44.59538
G1 X141.72 Y149.91 E44.60543
G1 X141.47 Y149.72 E44.61586
G1 X141.21 Y149.56 E44.62618
G1 X140.91 Y149.43 E44.63683
G1 X140.39 Y149.27 E44.65507
G1 X139.85 Y149.21 E44.67300
G1 X139.31 Y149.25 E44.69111
G1 X139.00 Y149.32 E44.70175
G1 X138.49 Y149.52 E44.71994
G1 X138.21 Y149.67 E44.73072
G1 X137.95 Y149.86 E44.74121
G1 X137.72 Y150.06 E44.75156
G1 X137.51 Y150.28 E44.76165
G1 X137.17 Y150.79 E44.78180
G1 X136.95 Y151.31 E44.80071
G1 X136.87 Y151.65 E44.81210
G1 X136.82 Y152.14 E44.82869
G1 X136.86 Y152.69 E44.84717
G1 X137.00 Y153.23 E44.86550
G1 X137.13 Y153.52 E44.87600
G1 X137.29 Y153.80 E44.88683
G1 X137.64 Y154.25 E44.90580
G1 X137.89 Y154.49 E44.91726
G1 X138.39 Y154.82 E44.93736
G1 X138.89 Y155.03 E44.95541
G1 F3600 E43.55541
G0 F12000 X113.88 Y174.15
G1 F3600 E44.95541
G1 F2700 X113.52 Y173.72 E44.97408
G1 X113.26 Y173.51 E44.98532
G1 X112.84 Y173.24 E45.00183
G1 X112.33 Y173.03 E45.02003
G1 X112.05 Y172.96 E45.02982
G1 X111.50 Y172.90 E45.04802
G1 X111.16 Y172.92 E45.05960
G1 X110.84 Y172.97 E45.07004
G1 X110.57 Y173.04 E45.07956
G1 X110.27 Y173.15 E45.08999
G1 X109.72 Y173.46 E45.11108
G1 X109.31 Y173.82 E45.12937
G1 X109.08 Y174.08 E45.14070
G1 X108.79 Y174.56 E45.15946
G1 X108.61 Y175.00 E45.17541
G1 X108.54 Y175.29 E45.18536
G1 X108.49 Y175.56 E45.19448
G1 X108.48 Y175.87 E45.20458
G1 X108.49 Y176.19 E45.21533
G1 X108.60 Y176.72 E45.23341
G1 X108.73 Y177.09 E45.24642
G1 X109.01 Y177.58 E45.26527
G1 X109.21 Y177.84 E45.27596
G1 X109.41 Y178.05 E45.28586
G1 X109.66 Y178.26 E45.29668
G1 X110.09 Y178.53 E45.31356
G1 X110.59 Y178.73 E45.33138
G1 X110.87 Y178.81 E45.34113
G1 X111.41 Y178.87 E45.35933
G1 X111.76 Y178.85 E45.37091
G1 X112.07 Y178.80 E45.38135
G1 X112.35 Y178.73 E45.39087
G1 X112.64 Y178.62 E45.40130
G1 X113.19 Y178.31 E45.42239
G1 X113.61 Y177.95 E45.44064
G1 X113.82 Y177.71 E45.45123
G1 X114.11 Y177.26 E45.46897
G1 X114.31 Y176.75 E45.48711
G1 X114.42 Y176.22 E45.50539
G1 X114.44 Y175.90 E45.51595
G1 X114.43 Y175.58 E45.52663
G1 X114.32 Y175.04 E45.54474
G1 X114.19 Y174.67 E45.55788
G1 X113.88 Y174.15 E45.57804
G1 F3600 E44.17804
G0 F12000 X178.12 Y196.66
G1 F3600 E45.57804
G1 F2700 X177.94 Y197.18 E45.59632
G1 X177.88 Y197.49 E45.60683
G1 X177.86 Y198.01 E45.62395
G1 X177.94 Y198.56 E45.64272
G1 X178.11 Y199.09 E45.66097
G1 X178.26 Y199.38 E45.67207
G1 X178.62 Y199.87 E45.69218
G1 X179.05 Y200.26 E45.71160
G1 X179.34 Y200.45 E45.72295
G1 X179.84 Y200.69 E45.74161
G1 X180.14 Y200.78 E45.75199
G1 X180.44 Y200.84 E45.76204
G1 X180.96 Y200.86 E45.77949
G1 X181.50 Y200.79 E45.79748
G1 X181.81 Y200.70 E45.80806
G1 X182.32 Y200.47 E45.82679
G1 X182.79 Y200.14 E45.84602
G1 X183.05 Y199.88 E45.85825
G1 X183.40 Y199.42 E45.87731
G1 X183.56 Y199.11 E45.88886
G1 X183.66 Y198.85 E45.89814
G1 X183.74 Y198.56 E45.90812
G1 X183.80 Y198.27 E45.91819
G1 X183.82 Y197.79 E45.93417
G1 X183.82 Y197.71 E45.93667
G1 X183.75 Y197.19 E45.95407
G1 X183.57 Y196.68 E45.97229
G1 X183.42 Y196.38 E45.98341
G1 X183.06 Y195.89 E46.00353
G1 X182.63 Y195.50 E46.02291
G1 X182.35 Y195.31 E46.03425
G1 X181.84 Y195.07 E46.05291
G1 X181.54 Y194.98 E46.06329
G1 X181.24 Y194.93 E46.07338
G1 X180.71 Y194.90 E46.09110
G1 X180.17 Y194.97 E46.10929
G1 X179.62 Y195.16 E46.12836
G1 X179.36 Y195.29 E46.13818
G1 X178.86 Y195.65 E46.15869
G1 X178.63 Y195.88 E46.16965
G1 X178.29 Y196.34 E46.18863
G1 X178.12 Y196.66 E46.20066
G0 F12000 X178.49 Y196.82
;TYPE:WALL-OUTER
G1 F2700 X178.33 Y197.28 E46.21694
G1 X178.28 Y197.54 E46.22560
G1 X178.26 Y197.99 E46.24058
G1 X178.33 Y198.47 E46.25687
G1 X178.48 Y198.93 E46.27288
G1 X178.61 Y199.17 E46.28200
G1 X178.92 Y199.60 E46.29969
G1 X179.30 Y199.95 E46.31674
G1 X179.53 Y200.10 E46.32609
G1 X179.98 Y200.32 E46.34268
G1 X180.24 Y200.39 E46.35141
G1 X180.49 Y200.44 E46.35994
G1 X180.95 Y200.46 E46.37523
G1 X181.42 Y200.40 E46.39107
G1 X181.67 Y200.32 E46.39971
G1 X182.12 Y200.12 E46.41615
G1 X182.53 Y199.83 E46.43304
G1 X182.75 Y199.62 E46.44318
G1 X183.06 Y199.21 E46.46013
G1 X183.19 Y198.94 E46.46994
G1 X183.28 Y198.72 E46.47793
G1 X183.35 Y198.47 E46.48656
G1 X183.40 Y198.22 E46.49508
G1 X183.42 Y197.79 E46.50950
G1 X183.42 Y197.75 E46.51076
G1 X183.35 Y197.29 E46.52631
G1 X183.20 Y196.83 E46.54231
G1 X183.08 Y196.59 E46.55143
G1 X182.76 Y196.16 E46.56915
G1 X182.38 Y195.81 E46.58617
G1 X182.15 Y195.66 E46.59552
G1 X181.70 Y195.44 E46.61211
G1 X181.45 Y195.37 E46.62084
G1 X181.19 Y195.32 E46.62937
G1 X180.73 Y195.30 E46.64496
G1 X180.26 Y195.36 E46.66066
G1 X179.78 Y195.53 E46.67745
G1 X179.34 Y195.78 E46.69447
G1 X179.13 Y195.95 E46.70344
G1 X178.93 Y196.15 E46.71268
G1 X178.63 Y196.55 E46.72958
G1 X178.49 Y196.82 E46.73955
G1 F3600 E45.33955
G0 F12000 X191.82 Y190.60
G1 F3600 E46.73955
G1 F2700 X191.97 Y190.84 E46.74888
G1 X192.18 Y191.07 E46.75926
G1 X192.40 Y191.26 E46.76896
G1 X202.06 Y196.85 E47.14025
G1 X202.47 Y197.06 E47.15548
G1 X202.75 Y197.16 E47.16509
G1 X203.03 Y197.21 E47.17481
G1 X203.33 Y197.23 E47.18460
G1 X203.62 Y197.20 E47.19435
G1 X203.90 Y197.14 E47.20403
G1 X204.17 Y197.05 E47.21351
G1 X204.39 Y196.94 E47.22180
G1 X221.32 Y187.16 E47.87172
G1 X221.68 Y186.98 E47.88531
G1 X221.90 Y186.91 E47.89294
G1 X222.13 Y186.86 E47.90066
G1 X222.38 Y186.85 E47.90899
G1 X222.60 Y186.87 E47.91660
G1 X222.85 Y186.92 E47.92497
G1 X223.06 Y186.99 E47.93220
G1 X234.79 Y193.75 E48.38259
G1 X234.18 Y195.55 E48.44572
G1 X233.42 Y197.63 E48.51928
G1 X232.62 Y199.64 E48.59145
G1 X231.77 Y201.66 E48.66421
G1 X230.86 Y203.67 E48.73771
G1 X229.88 Y205.67 E48.81180
G1 X228.85 Y207.67 E48.88654
G1 X227.75 Y209.65 E48.96194
G1 X226.60 Y211.62 E49.03777
G1 X225.38 Y213.58 E49.11441
G1 X224.11 Y215.50 E49.19124
G1 X222.77 Y217.42 E49.26881
G1 X221.38 Y219.31 E49.34704
G1 X219.92 Y221.16 E49.42537
G1 X218.40 Y222.99 E49.50455
G1 X216.94 Y224.67 E49.57853
G1 X155.21 Y189.03 E51.94923
G1 X112.27 Y189.03 E53.37739
G1 X111.97 Y189.05 E53.38749
G1 X111.69 Y189.11 E53.39712
G1 X111.41 Y189.21 E53.40691
G1 X101.74 Y194.78 E53.77810
G1 X101.35 Y195.02 E53.79332
G1 X101.13 Y195.22 E53.80298
G1 X100.94 Y195.44 E53.81267
G1 X100.78 Y195.68 E53.82248
G1 X100.66 Y195.95 E53.83222
G1 X100.57 Y196.22 E53.84184
G1 X100.52 Y196.49 E53.85081
G1 X100.50 Y216.29 E54.50956
G1 X100.48 Y216.70 E54.52308
G1 X100.44 Y216.92 E54.53069
G1 X100.36 Y217.15 E54.53862
G1 X100.25 Y217.37 E54.54674
G1 X100.11 Y217.56 E54.55478
G1 X99.95 Y217.74 E54.56243
G1 X99.78 Y217.89 E54.57021
G1 X88.06 Y224.67 E55.02045
G1 X86.73 Y223.16 E55.08737
G1 X85.25 Y221.37 E55.16459
G1 X83.85 Y219.60 E55.23963
G1 X82.50 Y217.79 E55.31481
G1 X81.19 Y215.94 E55.39019
G1 X79.92 Y214.06 E55.46564
G1 X78.71 Y212.13 E55.54125
G1 X77.55 Y210.18 E55.61689
G1 X76.43 Y208.19 E55.69263
G1 X75.37 Y206.18 E55.76837
G1 X74.37 Y204.14 E55.84392
G1 X73.41 Y202.07 E55.91985
G1 X72.51 Y199.98 E55.99551
G1 X71.67 Y197.87 E56.07107
G1 X70.89 Y195.74 E56.14654
G1 X70.21 Y193.75 E56.21643
G1 X131.94 Y158.11 E58.58716
G1 X153.43 Y120.90 E60.01642
G1 X153.56 Y120.60 E60.02724
G1 X153.65 Y120.35 E60.03603
G1 X153.70 Y120.06 E60.04575
G1 X153.72 Y119.49 E60.06491
G1 X153.72 Y108.94 E60.41577
G1 X153.69 Y108.48 E60.43092
G1 X153.64 Y108.20 E60.44059
G1 X153.54 Y107.92 E60.45029
G1 X153.41 Y107.66 E60.46007
G1 X153.23 Y107.40 E60.47064
G1 X153.03 Y107.18 E60.48050
G1 X152.63 Y106.88 E60.49711
G1 X135.74 Y97.13 E61.14578
G1 X135.34 Y96.88 E61.16121
G1 X135.17 Y96.72 E61.16913
G1 X135.01 Y96.55 E61.17684
G1 X134.88 Y96.35 E61.18486
G1 X134.78 Y96.12 E61.19303
G1 X134.71 Y95.91 E61.20066
G1 X134.67 Y95.70 E61.20777
G1 X134.65 Y82.14 E61.65868
G1 X136.74 Y81.72 E61.72954
G1 X139.13 Y81.32 E61.81005
G1 X141.44 Y80.99 E61.88796
G1 X143.77 Y80.72 E61.96570
G1 X146.07 Y80.52 E62.04269
G1 X148.38 Y80.38 E62.11960
G1 X150.68 Y80.30 E62.19598
G1 X152.95 Y80.28 E62.27165
G1 X155.22 Y80.32 E62.34703
G1 X157.47 Y80.42 E62.42197
G1 X159.70 Y80.58 E62.49652
G1 X161.91 Y80.79 E62.57020
G1 X164.10 Y81.06 E62.64368
G1 X166.26 Y81.38 E62.71641
G1 X168.40 Y81.75 E62.78855
G1 X170.35 Y82.14 E62.85459
G1 X170.35 Y153.42 E65.22527
G1 X191.82 Y190.60 E66.65346
G1 F3600 E65.25346
G0 F12000 X161.40 Y185.52
G1 F3600 E66.65346
G1 F2700 X161.43 Y185.25 E66.66240
G1 X161.42 Y184.98 E66.67128
G1 X161.38 Y184.71 E66.68034
G1 X161.32 Y184.44 E66.68961
G1 X161.12 Y183.97 E66.70661
G1 X160.86 Y183.57 E66.72254
G1 X160.67 Y183.35 E66.73218
G1 X160.46 Y183.16 E66.74161
G1 X160.06 Y182.90 E66.75744
G1 X159.66 Y182.73 E66.77196
G1 X159.18 Y182.62 E66.78838
G1 X158.91 Y182.60 E66.79712
G1 X158.65 Y182.60 E66.80600
G1 X158.38 Y182.64 E66.81506
G1 X158.13 Y182.70 E66.82350
G1 X157.64 Y182.90 E66.84115
G1 X157.40 Y183.04 E66.85041
G1 X157.02 Y183.35 E66.86679
G1 X156.83 Y183.57 E66.87631
G1 X156.57 Y183.97 E66.89218
G1 X156.39 Y184.37 E66.90686
G1 X156.28 Y184.84 E66.92292
G1 X156.26 Y185.11 E66.93183
G1 X156.27 Y185.38 E66.94074
G1 X156.31 Y185.65 E66.94980
G1 X156.37 Y185.92 E66.95907
G1 X156.56 Y186.39 E66.97594
G1 X156.71 Y186.63 E66.98515
G1 X157.00 Y186.99 E67.00068
G1 X157.23 Y187.20 E67.01104
G1 X157.63 Y187.46 E67.02690
G1 X158.03 Y187.63 E67.04143
G1 X158.51 Y187.74 E67.05781
G1 X158.78 Y187.76 E67.06658
G1 X159.04 Y187.75 E67.07546
G1 X159.31 Y187.72 E67.08452
G1 X159.56 Y187.66 E67.09296
G1 X160.05 Y187.46 E67.11061
G1 X160.29 Y187.32 E67.11991
G1 X160.67 Y187.01 E67.13623
G1 X160.86 Y186.79 E67.14572
G1 X161.08 Y186.47 E67.15868
G1 X161.30 Y185.99 E67.17624
G1 X161.40 Y185.52 E67.19238
G1 F3600 E65.79238
G0 F12000 X148.73 Y185.36
G1 F3600 E67.19238
G1 F2700 X148.74 Y185.09 E67.20133
G1 X148.71 Y184.83 E67.21014
G1 X148.67 Y184.60 E67.21798
G1 X148.59 Y184.33 E67.22737
G1 X148.39 Y183.90 E67.24318
G1 X148.16 Y183.55 E67.25712
G1 X147.80 Y183.19 E67.27396
G1 X147.58 Y183.03 E67.28300
G1 X147.11 Y182.78 E67.30063
G1 X146.84 Y182.69 E67.31004
G1 X146.37 Y182.61 E67.32616
G1 X146.07 Y182.60 E67.33604
G1 X145.57 Y182.66 E67.35274
G1 X145.30 Y182.74 E67.36207
G1 X144.87 Y182.94 E67.37791
G1 X144.53 Y183.18 E67.39166
G1 X144.32 Y183.37 E67.40113
G1 X144.00 Y183.75 E67.41758
G1 X143.76 Y184.22 E67.43534
G1 X143.67 Y184.49 E67.44460
G1 X143.61 Y184.73 E67.45285
G1 X143.58 Y185.00 E67.46183
G1 X143.57 Y185.26 E67.47075
G1 X143.64 Y185.76 E67.48742
G1 X143.72 Y186.03 E67.49674
G1 X143.88 Y186.39 E67.50967
G1 X144.15 Y186.81 E67.52651
G1 X144.51 Y187.17 E67.54339
G1 X144.73 Y187.33 E67.55248
G1 X145.20 Y187.58 E67.57007
G1 X145.47 Y187.67 E67.57946
G1 X145.94 Y187.75 E67.59559
G1 X146.24 Y187.76 E67.60547
G1 X146.74 Y187.69 E67.62217
G1 X147.01 Y187.62 E67.63149
G1 X147.44 Y187.42 E67.64733
G1 X147.78 Y187.18 E67.66111
G1 X147.99 Y187.00 E67.67041
G1 X148.15 Y186.82 E67.67828
G1 X148.31 Y186.60 E67.68720
G1 X148.55 Y186.14 E67.70478
G1 X148.64 Y185.87 E67.71404
G1 X148.70 Y185.63 E67.72229
G1 X148.73 Y185.36 E67.73127
G1 F3600 E66.33127
G0 F12000 X134.82 Y165.37
G1 F3600 E67.73127
G1 F2700 X135.18 Y165.11 E67.74592
G1 X135.50 Y164.75 E67.76205
G1 X135.66 Y164.53 E67.77092
G1 X135.78 Y164.30 E67.77985
G1 X135.88 Y164.07 E67.78824
G1 X136.01 Y163.55 E67.80599
G1 X136.03 Y163.27 E67.81518
G1 X136.03 Y163.00 E67.82426
G1 X135.95 Y162.51 E67.84061
G1 X135.86 Y162.24 E67.85015
G1 X135.65 Y161.82 E67.86601
G1 X135.38 Y161.46 E67.88065
G1 X135.03 Y161.13 E67.89678
G1 X134.81 Y160.98 E67.90568
G1 X134.57 Y160.86 E67.91456
G1 X134.34 Y160.76 E67.92295
G1 X133.82 Y160.63 E67.94072
G1 X133.55 Y160.60 E67.94990
G1 X133.27 Y160.61 E67.95901
G1 X132.79 Y160.69 E67.97533
G1 X132.52 Y160.78 E67.98487
G1 X132.09 Y160.99 E68.00074
G1 X131.74 Y161.26 E68.01539
G1 X131.41 Y161.61 E68.03152
G1 X131.25 Y161.84 E68.04051
G1 X131.03 Y162.29 E68.05753
G1 X130.90 Y162.82 E68.07545
G1 X130.88 Y163.09 E68.08463
G1 X130.88 Y163.37 E68.09371
G1 X130.96 Y163.85 E68.11007
G1 X131.05 Y164.12 E68.11961
G1 X131.27 Y164.55 E68.13544
G1 X131.50 Y164.86 E68.14835
G1 X131.71 Y165.09 E68.15863
G1 X132.10 Y165.38 E68.17495
G1 X132.34 Y165.51 E68.18401
G1 X132.57 Y165.61 E68.19240
G1 X133.09 Y165.74 E68.21019
G1 X133.37 Y165.76 E68.21937
G1 X133.64 Y165.76 E68.22846
G1 X134.12 Y165.68 E68.24478
G1 X134.40 Y165.59 E68.25434
G1 X134.82 Y165.37 E68.27018
G1 F3600 E66.87018
G0 F12000 X139.02 Y154.65
G1 F3600 E68.27018
G1 F2700 X139.32 Y154.73 E68.28047
G1 X139.75 Y154.78 E68.29502
G1 X140.24 Y154.74 E68.31107
G1 X140.70 Y154.61 E68.32716
G1 X140.95 Y154.51 E68.33603
G1 X141.19 Y154.37 E68.34514
G1 X141.60 Y154.04 E68.36289
G1 X141.78 Y153.86 E68.37127
G1 X141.94 Y153.64 E68.38045
G1 X142.18 Y153.20 E68.39709
G1 X142.27 Y152.95 E68.40593
G1 X142.34 Y152.67 E68.41523
G1 X142.38 Y152.24 E68.42975
G1 X142.35 Y151.76 E68.44576
G1 X142.22 Y151.29 E68.46203
G1 X141.98 Y150.81 E68.47968
G1 X141.65 Y150.39 E68.49757
G1 X141.46 Y150.22 E68.50595
G1 X141.25 Y150.06 E68.51500
G1 X141.02 Y149.92 E68.52393
G1 X140.77 Y149.80 E68.53289
G1 X140.31 Y149.66 E68.54898
G1 X139.85 Y149.61 E68.56444
G1 X139.37 Y149.65 E68.58035
G1 X139.12 Y149.71 E68.58904
G1 X138.66 Y149.88 E68.60530
G1 X138.42 Y150.01 E68.61439
G1 X138.20 Y150.17 E68.62348
G1 X137.99 Y150.35 E68.63248
G1 X137.82 Y150.53 E68.64088
G1 X137.52 Y150.98 E68.65866
G1 X137.33 Y151.44 E68.67519
G1 X137.27 Y151.71 E68.68466
G1 X137.22 Y152.15 E68.69918
G1 X137.25 Y152.63 E68.71516
G1 X137.38 Y153.09 E68.73129
G1 X137.49 Y153.34 E68.74015
G1 X137.62 Y153.58 E68.74924
G1 X137.94 Y153.98 E68.76617
G1 X138.14 Y154.17 E68.77558
G1 X138.58 Y154.47 E68.79329
G1 X139.02 Y154.65 E68.80901
G1 F3600 E67.40901
G0 F12000 X162.62 Y152.24
G1 F3600 E68.80901
G1 F2700 X162.67 Y152.72 E68.82507
G1 X162.74 Y152.97 E68.83376
G1 X162.93 Y153.42 E68.85005
G1 X163.07 Y153.65 E68.85914
G1 X163.20 Y153.83 E68.86651
G1 X163.42 Y154.06 E68.87717
G1 X163.79 Y154.35 E68.89282
G1 X164.07 Y154.51 E68.90349
G1 X164.53 Y154.69 E68.91989
G1 X164.76 Y154.74 E68.92760
G1 X165.24 Y154.77 E68.94370
G1 X165.72 Y154.72 E68.95980
G1 X165.97 Y154.66 E68.96836
G1 X166.19 Y154.58 E68.97625
G1 X166.43 Y154.46 E68.98492
G1 X166.66 Y154.32 E68.99387
G1 X166.88 Y154.16 E69.00308
G1 X167.23 Y153.79 E69.02002
G1 X167.36 Y153.60 E69.02756
G1 X167.52 Y153.32 E69.03821
G1 X167.69 Y152.86 E69.05482
G1 X167.74 Y152.63 E69.06239
G1 X167.78 Y152.15 E69.07843
G1 X167.73 Y151.67 E69.09449
G1 X167.66 Y151.42 E69.10317
G1 X167.47 Y150.97 E69.11947
G1 X167.33 Y150.74 E69.12859
G1 X167.20 Y150.56 E69.13595
G1 X166.98 Y150.32 E69.14661
G1 X166.61 Y150.03 E69.16225
G1 X166.33 Y149.88 E69.17275
G1 X166.09 Y149.77 E69.18162
G1 X165.86 Y149.70 E69.18950
G1 X165.64 Y149.65 E69.19704
G1 X165.15 Y149.61 E69.21339
G1 X164.68 Y149.67 E69.22922
G1 X164.43 Y149.73 E69.23777
G1 X164.21 Y149.81 E69.24569
G1 X163.97 Y149.93 E69.25454
G1 X163.53 Y150.23 E69.27217
G1 X163.33 Y150.42 E69.28140
G1 X163.17 Y150.60 E69.28963
G1 X163.04 Y150.78 E69.29700
G1 X162.88 Y151.06 E69.30765
G1 X162.71 Y151.53 E69.32426
G1 X162.66 Y151.75 E69.33183
G1 X162.62 Y152.24 E69.34790
G1 F3600 E67.94790
G0 F12000 X169.79 Y161.29
G1 F3600 E69.34790
G1 F2700 X169.59 Y161.50 E69.35743
G1 X169.33 Y161.85 E69.37193
G1 X169.13 Y162.26 E69.38718
G1 X169.00 Y162.75 E69.40403
G1 X168.97 Y163.02 E69.41300
G1 X168.97 Y163.29 E69.42189
G1 X168.99 Y163.56 E69.43111
G1 X169.12 Y164.06 E69.44801
G1 X169.22 Y164.31 E69.45721
G1 X169.35 Y164.55 E69.46613
G1 X169.47 Y164.72 E69.47332
G1 X169.66 Y164.94 E69.48281
G1 X169.86 Y165.14 E69.49222
G1 X170.25 Y165.41 E69.50806
G1 X170.63 Y165.60 E69.52196
G1 X171.12 Y165.73 E69.53880
G1 X171.38 Y165.76 E69.54774
G1 X171.65 Y165.76 E69.55662
G1 X171.92 Y165.74 E69.56567
G1 X172.19 Y165.68 E69.57473
G1 X172.43 Y165.61 E69.58315
G1 X172.91 Y165.38 E69.60075
G1 X173.13 Y165.22 E69.60994
G1 X173.50 Y164.87 E69.62674
G1 X173.73 Y164.56 E69.63955
G1 X173.96 Y164.10 E69.65669
G1 X174.09 Y163.61 E69.67350
G1 X174.12 Y163.35 E69.68244
G1 X174.12 Y163.08 E69.69136
G1 X174.10 Y162.81 E69.70041
G1 X174.04 Y162.54 E69.70947
G1 X173.86 Y162.05 E69.72687
G1 X173.59 Y161.60 E69.74442
G1 X173.23 Y161.23 E69.76148
G1 X172.84 Y160.95 E69.77749
G1 X172.46 Y160.77 E69.79141
G1 X171.97 Y160.64 E69.80823
G1 X171.71 Y160.61 E69.81713
G1 X171.44 Y160.60 E69.82608
G1 X171.17 Y160.63 E69.83517
G1 X170.90 Y160.68 E69.84416
G1 X170.66 Y160.76 E69.85258
G1 X170.18 Y160.99 E69.87029
G1 X169.79 Y161.29 E69.88683
G1 F3600 E68.48683
G0 F12000 X165.69 Y129.33
G1 F3600 E69.88683
G1 F2700 X165.93 Y129.27 E69.89488
G1 X166.19 Y129.18 E69.90426
G1 X166.61 Y128.95 E69.92006
G1 X166.96 Y128.68 E69.93461
G1 X167.14 Y128.50 E69.94333
G1 X167.43 Y128.09 E69.95975
G1 X167.64 Y127.63 E69.97690
G1 X167.76 Y127.10 E69.99481
G1 X167.78 Y126.83 E70.00397
G1 X167.77 Y126.55 E70.01309
G1 X167.68 Y126.07 E70.02944
G1 X167.58 Y125.80 E70.03891
G1 X167.40 Y125.46 E70.05182
G1 X167.09 Y125.04 E70.06924
G1 X166.90 Y124.85 E70.07804
G1 X166.50 Y124.57 E70.09427
G1 X166.26 Y124.44 E70.10343
G1 X166.01 Y124.34 E70.11243
G1 X165.75 Y124.27 E70.12149
G1 X165.50 Y124.23 E70.12969
G1 X165.22 Y124.21 E70.13892
G1 X164.71 Y124.26 E70.15629
G1 X164.47 Y124.32 E70.16437
G1 X164.21 Y124.41 E70.17370
G1 X163.78 Y124.64 E70.18954
G1 X163.44 Y124.91 E70.20423
G1 X163.11 Y125.27 E70.22044
G1 X162.85 Y125.73 E70.23796
G1 X162.75 Y125.99 E70.24731
G1 X162.64 Y126.49 E70.26427
G1 X162.62 Y126.77 E70.27357
G1 X162.66 Y127.29 E70.29101
G1 X162.72 Y127.52 E70.29906
G1 X162.82 Y127.79 E70.30842
G1 X163.04 Y128.21 E70.32425
G1 X163.31 Y128.56 E70.33895
G1 X163.68 Y128.88 E70.35500
G1 X163.90 Y129.02 E70.36388
G1 X164.39 Y129.25 E70.38197
G1 X164.89 Y129.36 E70.39897
G1 X165.17 Y129.38 E70.40834
G1 X165.69 Y129.33 E70.42570
G1 F3600 E69.02570
G0 F12000 X113.56 Y174.38
G1 F3600 E70.42570
G1 F2700 X113.23 Y174.01 E70.44211
G1 X113.03 Y173.84 E70.45103
G1 X112.65 Y173.59 E70.46581
G1 X112.21 Y173.41 E70.48186
G1 X111.98 Y173.35 E70.48979
G1 X111.49 Y173.30 E70.50605
G1 X111.19 Y173.31 E70.51587
G1 X110.93 Y173.36 E70.52493
G1 X110.43 Y173.51 E70.54212
G1 X110.19 Y173.63 E70.55117
G1 X109.96 Y173.78 E70.56018
G1 X109.59 Y174.10 E70.57648
G1 X109.41 Y174.32 E70.58589
G1 X109.15 Y174.73 E70.60197
G1 X108.99 Y175.13 E70.61629
G1 X108.89 Y175.61 E70.63259
G1 X108.88 Y175.87 E70.64135
G1 X108.89 Y176.14 E70.65037
G1 X108.98 Y176.61 E70.66645
G1 X109.09 Y176.92 E70.67737
G1 X109.34 Y177.36 E70.69408
G1 X109.51 Y177.57 E70.70310
G1 X109.69 Y177.76 E70.71169
G1 X109.89 Y177.93 E70.72049
G1 X110.27 Y178.18 E70.73564
G1 X110.71 Y178.35 E70.75134
G1 X110.94 Y178.41 E70.75924
G1 X111.43 Y178.46 E70.77549
G1 X111.72 Y178.45 E70.78532
G1 X111.99 Y178.41 E70.79437
G1 X112.48 Y178.25 E70.81157
G1 X112.73 Y178.13 E70.82061
G1 X112.96 Y177.99 E70.82963
G1 X113.33 Y177.67 E70.84590
G1 X113.50 Y177.47 E70.85460
G1 X113.75 Y177.07 E70.87016
G1 X113.93 Y176.64 E70.88586
G1 X114.03 Y176.16 E70.90190
G1 X114.04 Y175.90 E70.91082
G1 X114.03 Y175.63 E70.91984
G1 X113.93 Y175.15 E70.93592
G1 X113.82 Y174.84 E70.94689
G1 X113.56 Y174.38 E70.96459
G0 F12000 X114.24 Y174.48
;TYPE:FILL
G1 F2700 X128.24 Y188.49 E71.62332
G0 F12000 X128.81 Y188.49
G1 F2700 X111.09 Y170.77 E72.45672
G0 F12000 X110.73 Y170.98
G1 F2700 X112.84 Y173.09 E72.55599
G0 F12000 X112.00 Y172.81
G1 F2700 X110.37 Y171.18 E72.63257
G0 F12000 X110.02 Y171.39
G1 F2700 X111.39 Y172.76 E72.69715
G0 F12000 X110.88 Y172.82
G1 F2700 X109.66 Y171.60 E72.75446
G0 F12000 X109.30 Y171.81
G1 F2700 X110.43 Y172.94 E72.80764
G0 F12000 X110.04 Y173.12
G1 F2700 X108.94 Y172.01 E72.85952
G0 F12000 X108.58 Y172.22
G1 F2700 X109.68 Y173.32 E72.91124
G0 F12000 X109.37 Y173.57
G1 F2700 X108.22 Y172.43 E72.96526
G0 F12000 X107.86 Y172.63
G1 F2700 X109.09 Y173.86 E73.02283
G0 F12000 X108.85 Y174.19
G1 F2700 X107.50 Y172.84 E73.08621
G0 F12000 X107.15 Y173.05
G1 F2700 X108.64 Y174.54 E73.15663
G0 F12000 X108.48 Y174.95
G1 F2700 X106.79 Y173.25 E73.23626
G0 F12000 X106.43 Y173.46
G1 F2700 X108.38 Y175.41 E73.32789
G0 F12000 X108.34 Y175.94
G1 F2700 X106.07 Y173.67 E73.43462
G0 F12000 X105.71 Y173.88
G1 F2700 X108.43 Y176.59 E73.56246
G0 F12000 X108.84 Y177.57
G1 F2700 X105.35 Y174.08 E73.72648
G0 F12000 X104.99 Y174.29
G1 F2700 X119.19 Y188.49 E74.39431
G0 F12000 X119.76 Y188.49
G1 F2700 X109.76 Y178.49 E74.86470
G0 F12000 X110.76 Y178.92
G1 F2700 X120.32 Y188.49 E75.31471
G0 F12000 X120.89 Y188.49
G1 F2700 X111.41 Y179.00 E75.76080
G0 F12000 X111.93 Y178.97
G1 F2700 X121.45 Y188.49 E76.20874
G0 F12000 X122.02 Y188.49
G1 F2700 X112.39 Y178.86 E76.66156
G0 F12000 X112.79 Y178.69
G1 F2700 X122.59 Y188.49 E77.12219
G0 F12000 X123.15 Y188.49
G1 F2700 X113.15 Y178.49 E77.59242
G0 F12000 X113.48 Y178.25
G1 F2700 X123.72 Y188.49 E78.07408
G0 F12000 X124.28 Y188.49
G1 F2700 X113.77 Y177.98 E78.56853
G0 F12000 X114.02 Y177.66
G1 F2700 X124.85 Y188.49 E79.07804
G0 F12000 X125.41 Y188.49
G1 F2700 X114.23 Y177.31 E79.60386
G0 F12000 X114.40 Y176.91
G1 F2700 X125.98 Y188.49 E80.14857
G0 F12000 X126.55 Y188.49
G1 F2700 X114.52 Y176.46 E80.71443
G0 F12000 X114.58 Y175.95
G1 F2700 X127.11 Y188.49 E81.30399
G0 F12000 X127.68 Y188.49
G1 F2700 X114.52 Y175.33 E81.92290
G1 F3600 E80.52290
G0 F12000 X111.81 Y170.36
G1 F3600 E81.92290
G1 F2700 X129.94 Y188.49 E82.77577
G0 F12000 X130.50 Y188.49
G1 F2700 X112.17 Y170.15 E83.63838
G0 F12000 X112.53 Y169.94
G1 F2700 X131.07 Y188.49 E84.51073
G0 F12000 X131.64 Y188.49
G1 F2700 X112.88 Y169.74 E85.39284
G0 F12000 X113.24 Y169.53
G1 F2700 X132.20 Y188.49 E86.28464
G0 F12000 X132.77 Y188.49
G1 F2700 X113.60 Y169.32 E87.18619
G0 F12000 X113.96 Y169.11
G1 F2700 X133.33 Y188.49 E88.09749
G0 F12000 X133.90 Y188.49
G1 F2700 X114.32 Y168.91 E89.01852
G0 F12000 X114.68 Y168.70
G1 F2700 X134.47 Y188.49 E89.94928
G0 F12000 X135.03 Y188.49
G1 F2700 X115.03 Y168.49 E90.88983
G0 F12000 X115.39 Y168.29
G1 F2700 X135.60 Y188.49 E91.84007
G0 F12000 X136.16 Y188.49
G1 F2700 X115.75 Y168.08 E92.80005
G0 F12000 X116.11 Y167.87
G1 F2700 X136.73 Y188.49 E93.76979
G0 F12000 X137.29 Y188.49
G1 F2700 X116.47 Y167.66 E94.74926
G0 F12000 X116.83 Y167.46
G1 F2700 X137.86 Y188.49 E95.73850
G0 F12000 X138.43 Y188.49
G1 F2700 X117.19 Y167.25 E96.73742
G0 F12000 X117.55 Y167.04
G1 F2700 X138.99 Y188.49 E97.74610
G0 F12000 X139.56 Y188.49
G1 F2700 X117.91 Y166.84 E98.76452
G0 F12000 X118.26 Y166.63
G1 F2700 X140.12 Y188.49 E99.79270
G0 F12000 X140.69 Y188.49
G1 F2700 X118.62 Y166.42 E100.83062
G0 F12000 X118.98 Y166.22
G1 F2700 X141.25 Y188.49 E101.87827
G0 F12000 X141.82 Y188.49
G1 F2700 X119.34 Y166.01 E102.93566
G0 F12000 X119.70 Y165.80
G1 F2700 X142.38 Y188.49 E104.00279
G0 F12000 X142.95 Y188.49
G1 F2700 X120.06 Y165.59 E105.07965
G0 F12000 X120.42 Y165.39
G1 F2700 X143.52 Y188.49 E106.16625
G0 F12000 X144.08 Y188.49
G1 F2700 X120.77 Y165.18 E107.26261
G0 F12000 X121.13 Y164.97
G1 F2700 X144.65 Y188.49 E108.36871
G0 F12000 X145.21 Y188.49
G1 F2700 X144.59 Y187.87 E108.39778
G0 F12000 X145.51 Y188.22
G1 F2700 X145.97 Y188.39 E108.41019
G1 X146.51 Y188.37 E108.41911
G1 X147.02 Y188.31 E108.43008
G1 X147.50 Y188.23 E108.44633
G1 X148.04 Y188.49 E108.46627
G0 F12000 X148.61 Y188.49
G1 F2700 X147.88 Y187.77 E108.50023
G0 F12000 X148.21 Y187.53
G1 F2700 X149.17 Y188.49 E108.54552
G0 F12000 X149.74 Y188.49
G1 F2700 X148.49 Y187.24 E108.60408
G0 F12000 X148.74 Y186.93
G1 F2700 X150.30 Y188.49 E108.67758
G0 F12000 X150.87 Y188.49
G1 F2700 X148.94 Y186.56 E108.76831
G0 F12000 X149.11 Y186.16
G1 F2700 X151.44 Y188.49 E108.87758
G0 F12000 X152.00 Y188.49
G1 F2700 X149.23 Y185.72 E109.00797
G0 F12000 X149.27 Y185.19
G1 F2700 X152.57 Y188.49 E109.16291
G0 F12000 X153.13 Y188.49
G1 F2700 X149.21 Y184.57 E109.34727
G0 F12000 X148.89 Y183.68
G1 F2700 X153.70 Y188.49 E109.57356
G0 F12000 X154.26 Y188.49
G1 F2700 X127.23 Y161.45 E110.84521
G0 F12000 X126.87 Y161.66
G1 F2700 X147.68 Y182.47 E111.82395
G0 F12000 X146.77 Y182.13
G1 F2700 X126.51 Y161.87 E112.77701
G0 F12000 X126.15 Y162.07
G1 F2700 X146.14 Y182.06 E113.71705
G0 F12000 X145.62 Y182.11
G1 F2700 X125.80 Y162.28 E114.64955
G0 F12000 X125.44 Y162.49
G1 F2700 X145.17 Y182.22 E115.57766
G0 F12000 X144.77 Y182.39
G1 F2700 X125.08 Y162.69 E116.50410
G0 F12000 X124.72 Y162.90
G1 F2700 X144.41 Y182.60 E117.43059
G0 F12000 X144.09 Y182.84
G1 F2700 X124.36 Y163.11 E118.35872
G0 F12000 X124.00 Y163.32
G1 F2700 X143.81 Y183.13 E119.29069
G0 F12000 X143.56 Y183.44
G1 F2700 X123.64 Y163.52 E120.22752
G0 F12000 X123.28 Y163.73
G1 F2700 X143.36 Y183.81 E121.17198
G0 F12000 X143.19 Y184.21
G1 F2700 X122.92 Y163.94 E122.12537
G0 F12000 X122.57 Y164.14
G1 F2700 X143.08 Y184.66 E123.09021
G0 F12000 X143.04 Y185.18
G1 F2700 X122.21 Y164.35 E124.06992
G0 F12000 X121.85 Y164.56
G1 F2700 X143.10 Y185.81 E125.06946
G0 F12000 X143.45 Y186.73
G1 F2700 X121.49 Y164.77 E126.10248
G1 F3600 E124.70248
G0 F12000 X127.59 Y161.25
G1 F3600 E126.10248
G1 F2700 X130.49 Y164.15 E126.23908
G0 F12000 X130.34 Y163.44
G1 F2700 X127.95 Y161.04 E126.35187
G0 F12000 X128.31 Y160.83
G1 F2700 X130.35 Y162.88 E126.44818
G0 F12000 X130.44 Y162.41
G1 F2700 X128.66 Y160.62 E126.53200
G0 F12000 X129.02 Y160.42
G1 F2700 X130.58 Y161.98 E126.60545
G0 F12000 X130.77 Y161.60
G1 F2700 X129.38 Y160.21 E126.67067
G0 F12000 X129.74 Y160.00
G1 F2700 X131.00 Y161.26 E126.72977
G0 F12000 X131.27 Y160.97
G1 F2700 X130.10 Y159.80 E126.78480
G0 F12000 X130.46 Y159.59
G1 F2700 X131.57 Y160.70 E126.83725
G0 F12000 X131.91 Y160.48
G1 F2700 X130.81 Y159.38 E126.88880
G0 F12000 X131.17 Y159.18
G1 F2700 X132.29 Y160.29 E126.94115
G0 F12000 X132.72 Y160.15
G1 F2700 X131.53 Y158.97 E126.99680
G0 F12000 X131.89 Y158.76
G1 F2700 X133.20 Y160.07 E127.05832
G0 F12000 X133.78 Y160.08
G1 F2700 X132.25 Y158.55 E127.13010
G0 F12000 X132.49 Y158.23
G1 F2700 X134.50 Y160.24 E127.22455
G1 F3600 E125.82455
G0 F12000 X136.39 Y162.13
G1 F3600 E127.22455
G1 F2700 X156.96 Y182.70 E128.19215
G0 F12000 X156.65 Y182.96
G1 F2700 X136.56 Y162.86 E129.13740
G0 F12000 X136.56 Y163.43
G1 F2700 X156.39 Y183.26 E130.06991
G0 F12000 X156.16 Y183.60
G1 F2700 X136.48 Y163.91 E130.99590
G0 F12000 X136.35 Y164.35
G1 F2700 X155.97 Y183.97 E131.91907
G0 F12000 X155.83 Y184.40
G1 F2700 X136.16 Y164.73 E132.84431
G0 F12000 X135.94 Y165.07
G1 F2700 X155.74 Y184.87 E133.77571
G0 F12000 X155.73 Y185.43
G1 F2700 X135.67 Y165.37 E134.71944
G0 F12000 X135.37 Y165.64
G1 F2700 X155.88 Y186.14 E135.68393
G1 F3600 E134.28393
G0 F12000 X155.45 Y188.54
G1 F3600 E135.68393
G1 F2700 X133.20 Y166.29 E136.73064
G0 F12000 X133.76 Y166.29
G1 F2700 X156.79 Y189.31 E137.81386
G1 F3600 E136.41386
G0 F12000 X158.13 Y190.09
G1 F3600 E137.81386
G1 F2700 X134.24 Y166.20 E138.93724
G0 F12000 X134.66 Y166.06
G1 F2700 X159.46 Y190.86 E140.10392
G1 F3600 E138.70392
G0 F12000 X160.80 Y191.63
G1 F3600 E140.10392
G1 F2700 X135.04 Y165.87 E141.31592
G1 F3600 E139.91592
G0 F12000 X132.49 Y166.14
G1 F3600 E141.31592
G1 F2700 X154.83 Y188.49 E142.36691
G1 F3600 E140.96691
G0 F12000 X157.88 Y188.15
G1 F3600 E142.36691
G1 F2700 X162.14 Y192.41 E142.56715
G1 F3600 E141.16715
G0 F12000 X163.48 Y193.18
G1 F3600 E142.56715
G1 F2700 X158.59 Y188.29 E142.79728
G0 F12000 X159.15 Y188.28
G1 F2700 X164.82 Y193.95 E143.06391
G1 F3600 E141.66391
G0 F12000 X166.16 Y194.72
G1 F3600 E143.06391
G1 F2700 X159.63 Y188.19 E143.37096
G0 F12000 X160.04 Y188.05
G1 F2700 X167.50 Y195.50 E143.72137
G1 F3600 E142.32137
G0 F12000 X168.83 Y196.27
G1 F3600 E143.72137
G1 F2700 X160.43 Y187.86 E144.11669
G0 F12000 X160.76 Y187.63
G1 F2700 X170.17 Y197.04 E144.55935
G1 F3600 E143.15935
G0 F12000 X171.51 Y197.81
G1 F3600 E144.55935
G1 F2700 X161.06 Y187.37 E145.05065
G0 F12000 X161.32 Y187.06
G1 F2700 X172.85 Y198.59 E145.59266
G1 F3600 E144.19266
G0 F12000 X174.19 Y199.36
G1 F3600 E145.59266
G1 F2700 X161.55 Y186.73 E146.18692
G0 F12000 X161.73 Y186.34
G1 F2700 X175.53 Y200.13 E146.83585
G1 F3600 E145.43585
G0 F12000 X176.86 Y200.91
G1 F3600 E146.83585
G1 F2700 X161.87 Y185.91 E147.54119
G0 F12000 X161.95 Y185.43
G1 F2700 X178.20 Y201.68 E148.30554
G1 F3600 E146.90554
G0 F12000 X179.54 Y202.45
G1 F3600 E148.30554
G1 F2700 X161.95 Y184.86 E149.13313
G0 F12000 X161.77 Y184.11
G1 F2700 X180.88 Y203.22 E150.03208
G1 F3600 E148.63208
G0 F12000 X182.22 Y204.00
G1 F3600 E150.03208
G1 F2700 X133.94 Y155.72 E152.30278
G0 F12000 X133.74 Y156.08
G1 F2700 X159.90 Y182.25 E153.53360
G0 F12000 X159.17 Y182.08
G1 F2700 X133.53 Y156.44 E154.73956
G0 F12000 X133.32 Y156.80
G1 F2700 X158.59 Y182.07 E155.92818
G0 F12000 X158.11 Y182.15
G1 F2700 X133.11 Y157.16 E157.10401
G0 F12000 X132.91 Y157.51
G1 F2700 X157.69 Y182.29 E158.26961
G0 F12000 X157.30 Y182.47
G1 F2700 X132.70 Y157.87 E159.42667
G1 F3600 E158.02667
G0 F12000 X134.15 Y155.36
G1 F3600 E159.42667
G1 F2700 X178.04 Y199.26 E161.49140
G0 F12000 X177.78 Y198.42
G1 F2700 X134.35 Y155.00 E163.53372
G0 F12000 X134.56 Y154.64
G1 F2700 X177.73 Y197.81 E165.56414
G0 F12000 X177.78 Y197.29
G1 F2700 X134.77 Y154.29 E167.58715
G0 F12000 X134.98 Y153.93
G1 F2700 X177.91 Y196.86 E169.60638
G0 F12000 X178.07 Y196.45
G1 F2700 X135.18 Y153.57 E171.62360
G0 F12000 X135.39 Y153.21
G1 F2700 X178.29 Y196.10 E173.64125
G0 F12000 X178.53 Y195.78
G1 F2700 X135.60 Y152.85 E175.66055
G0 F12000 X135.81 Y152.49
G1 F2700 X137.14 Y153.83 E175.72348
G0 F12000 X136.77 Y152.89
G1 F2700 X136.01 Y152.13 E175.75900
G0 F12000 X136.22 Y151.78
G1 F2700 X136.70 Y151.98 E175.78087
G1 X136.53 Y151.24 E175.79484
G1 X136.91 Y151.05 E175.80379
G1 X136.94 Y150.52 E175.81080
G1 X137.32 Y150.33 E175.81790
G1 X137.36 Y149.80 E175.82623
G1 X137.87 Y149.75 E175.83807
G1 X137.77 Y149.09 E175.85496
G1 X138.38 Y149.41 E175.87802
G0 F12000 X138.78 Y149.25
G1 F2700 X138.08 Y148.55 E175.91106
G0 F12000 X138.29 Y148.19
G1 F2700 X139.23 Y149.12 E175.95509
G0 F12000 X139.74 Y149.08
G1 F2700 X138.50 Y147.83 E176.01370
G0 F12000 X138.70 Y147.47
G1 F2700 X140.36 Y149.12 E176.09143
G0 F12000 X141.21 Y149.41
G1 F2700 X138.91 Y147.11 E176.19938
G0 F12000 X139.12 Y146.75
G1 F2700 X215.68 Y223.31 E179.80043
G0 F12000 X216.86 Y223.93
G1 F2700 X139.32 Y146.40 E183.44758
G0 F12000 X139.53 Y146.04
G1 F2700 X217.13 Y223.63 E187.09739
G0 F12000 X217.39 Y223.33
G1 F2700 X139.74 Y145.68 E190.74992
G0 F12000 X139.95 Y145.32
G1 F2700 X217.66 Y223.03 E194.40512
G0 F12000 X217.92 Y222.73
G1 F2700 X140.15 Y144.96 E198.06301
G0 F12000 X140.36 Y144.60
G1 F2700 X218.18 Y222.42 E201.72329
G0 F12000 X218.43 Y222.11
G1 F2700 X140.57 Y144.24 E205.38586
G0 F12000 X140.78 Y143.89
G1 F2700 X218.69 Y221.80 E209.05075
G0 F12000 X218.95 Y221.49
G1 F2700 X140.98 Y143.53 E212.71798
G0 F12000 X141.19 Y143.17
G1 F2700 X219.20 Y221.18 E216.38752
G0 F12000 X219.46 Y220.87
G1 F2700 X141.40 Y142.81 E220.05939
G0 F12000 X141.60 Y142.45
G1 F2700 X219.71 Y220.56 E223.73326
G0 F12000 X219.96 Y220.24
G1 F2700 X141.81 Y142.09 E227.40905
G0 F12000 X142.02 Y141.73
G1 F2700 X220.21 Y219.92 E231.08682
G0 F12000 X220.46 Y219.61
G1 F2700 X193.18 Y192.33 E232.36968
G1 F3600 E230.96968
G0 F12000 X194.53 Y193.11
G1 F3600 E232.36968
G1 F2700 X220.70 Y219.29 E233.60097
G0 F12000 X220.95 Y218.97
G1 F2700 X195.87 Y193.89 E234.78075
G1 F3600 E233.38075
G0 F12000 X197.22 Y194.67
G1 F3600 E234.78075
G1 F2700 X221.19 Y218.65 E235.90853
G0 F12000 X221.43 Y218.32
G1 F2700 X198.56 Y195.45 E236.98441
G1 F3600 E235.58441
G0 F12000 X199.90 Y196.23
G1 F3600 E236.98441
G1 F2700 X221.67 Y218.00 E238.00835
G0 F12000 X221.91 Y217.67
G1 F2700 X201.25 Y197.01 E238.98035
G0 F12000 X202.43 Y197.62
G1 F2700 X222.15 Y217.35 E239.90829
G0 F12000 X222.39 Y217.02
G1 F2700 X203.13 Y197.76 E240.81427
G0 F12000 X203.68 Y197.74
G1 F2700 X222.62 Y216.69 E241.70543
G0 F12000 X222.86 Y216.35
G1 F2700 X204.14 Y197.63 E242.58596
G0 F12000 X204.53 Y197.46
G1 F2700 X223.09 Y216.02 E243.45897
G0 F12000 X223.32 Y215.69
G1 F2700 X204.89 Y197.25 E244.32607
G0 F12000 X205.25 Y197.05
G1 F2700 X223.56 Y215.35 E245.18720
G0 F12000 X223.78 Y215.02
G1 F2700 X205.61 Y196.84 E246.04224
G0 F12000 X205.97 Y196.63
G1 F2700 X224.01 Y214.68 E246.89097
G0 F12000 X224.24 Y214.34
G1 F2700 X206.32 Y196.43 E247.73343
G0 F12000 X206.68 Y196.22
G1 F2700 X224.46 Y214.00 E248.56956
G0 F12000 X224.69 Y213.65
G1 F2700 X207.04 Y196.01 E249.39938
G0 F12000 X207.40 Y195.81
G1 F2700 X224.91 Y213.31 E250.22290
G0 F12000 X225.13 Y212.97
G1 F2700 X207.76 Y195.60 E251.03975
G0 F12000 X208.12 Y195.39
G1 F2700 X225.34 Y212.62 E251.85001
G0 F12000 X225.56 Y212.27
G1 F2700 X208.48 Y195.19 E252.65354
G0 F12000 X208.84 Y194.98
G1 F2700 X225.78 Y211.92 E253.45041
G0 F12000 X226.00 Y211.57
G1 F2700 X209.20 Y194.77 E254.24064
G0 F12000 X209.56 Y194.56
G1 F2700 X226.21 Y211.22 E255.02401
G0 F12000 X226.42 Y210.86
G1 F2700 X209.91 Y194.36 E255.80033
G0 F12000 X210.27 Y194.15
G1 F2700 X226.63 Y210.51 E256.56962
G0 F12000 X226.84 Y210.15
G1 F2700 X210.63 Y193.94 E257.33186
G0 F12000 X210.99 Y193.74
G1 F2700 X227.05 Y209.79 E258.08701
G0 F12000 X227.25 Y209.44
G1 F2700 X211.35 Y193.53 E258.83518
G0 F12000 X211.71 Y193.32
G1 F2700 X227.46 Y209.07 E259.57594
G0 F12000 X227.66 Y208.71
G1 F2700 X212.07 Y193.12 E260.30929
G0 F12000 X212.43 Y192.91
G1 F2700 X227.86 Y208.34 E261.03526
G0 F12000 X228.06 Y207.98
G1 F2700 X212.79 Y192.70 E261.75375
G0 F12000 X213.14 Y192.50
G1 F2700 X228.26 Y207.62 E262.46486
G0 F12000 X228.46 Y207.25
G1 F2700 X213.50 Y192.29 E263.16834
G0 F12000 X213.86 Y192.08
G1 F2700 X228.65 Y206.87 E263.86402
G0 F12000 X228.84 Y206.50
G1 F2700 X214.22 Y191.88 E264.55191
G0 F12000 X214.58 Y191.67
G1 F2700 X229.04 Y206.13 E265.23199
G0 F12000 X229.23 Y205.76
G1 F2700 X214.94 Y191.46 E265.90427
G0 F12000 X215.30 Y191.26
G1 F2700 X229.42 Y205.38 E266.56873
G0 F12000 X229.61 Y205.00
G1 F2700 X215.66 Y191.05 E267.22499
G0 F12000 X216.02 Y190.84
G1 F2700 X229.79 Y204.62 E267.87307
G0 F12000 X229.98 Y204.24
G1 F2700 X216.37 Y190.63 E268.51298
G0 F12000 X216.73 Y190.43
G1 F2700 X230.16 Y203.86 E269.14466
G0 F12000 X230.35 Y203.48
G1 F2700 X217.09 Y190.22 E269.76814
G0 F12000 X217.45 Y190.01
G1 F2700 X230.53 Y203.09 E270.38315
G0 F12000 X230.70 Y202.70
G1 F2700 X217.81 Y189.81 E270.98957
G0 F12000 X218.17 Y189.60
G1 F2700 X230.88 Y202.31 E271.58741
G0 F12000 X231.06 Y201.92
G1 F2700 X218.53 Y189.40 E272.17669
G0 F12000 X218.89 Y189.19
G1 F2700 X231.23 Y201.53 E272.75741
G0 F12000 X231.40 Y201.14
G1 F2700 X219.25 Y188.98 E273.32923
G0 F12000 X219.60 Y188.77
G1 F2700 X231.57 Y200.74 E273.89213
G0 F12000 X231.74 Y200.34
G1 F2700 X219.96 Y188.57 E274.44608
G0 F12000 X220.32 Y188.36
G1 F2700 X231.91 Y199.95 E274.99107
G0 F12000 X232.08 Y199.55
G1 F2700 X220.68 Y188.15 E275.52711
G0 F12000 X221.04 Y187.95
G1 F2700 X232.24 Y199.15 E276.05387
G0 F12000 X232.40 Y198.74
G1 F2700 X221.40 Y187.74 E276.57128
G0 F12000 X221.76 Y187.54
G1 F2700 X232.56 Y198.34 E277.07904
G0 F12000 X232.72 Y197.93
G1 F2700 X222.19 Y187.40 E277.57434
G0 F12000 X222.86 Y187.50
G1 F2700 X232.88 Y197.52 E278.04579
G0 F12000 X233.03 Y197.11
G1 F2700 X224.19 Y188.27 E278.46169
G1 F3600 E277.06169
G0 F12000 X225.53 Y189.04
G1 F3600 E278.46169
G1 F2700 X233.18 Y196.70 E278.82197
G0 F12000 X233.34 Y196.28
G1 F2700 X226.86 Y189.81 E279.12661
G1 F3600 E277.72661
G0 F12000 X228.19 Y190.57
G1 F3600 E279.12661
G1 F2700 X233.49 Y195.87 E279.37564
G0 F12000 X233.64 Y195.46
G1 F2700 X229.53 Y191.34 E279.56901
G1 F3600 E278.16901
G0 F12000 X230.86 Y192.11
G1 F3600 E279.56901
G1 F2700 X233.78 Y195.03 E279.70648
G0 F12000 X233.93 Y194.61
G1 F2700 X232.20 Y192.88 E279.78785
G1 F3600 E278.38785
G0 F12000 X233.53 Y193.65
G1 F3600 E279.78785
G1 F2700 X234.07 Y194.19 E279.81318
G1 F3600 E278.41318
G0 F12000 X214.34 Y222.54
G1 F3600 E279.81318
G1 F2700 X142.56 Y150.76 E283.18938
G0 F12000 X142.87 Y151.64
G1 F2700 X213.00 Y221.77 E286.48803
G1 F3600 E285.08803
G0 F12000 X211.66 Y221.00
G1 F3600 E286.48803
G1 F2700 X142.92 Y152.26 E289.72130
G0 F12000 X142.87 Y152.77
G1 F2700 X210.32 Y220.22 E292.89418
G1 F3600 E291.49418
G0 F12000 X208.99 Y219.45
G1 F3600 E292.89418
G1 F2700 X142.75 Y153.21 E296.00979
G0 F12000 X142.57 Y153.60
G1 F2700 X207.65 Y218.68 E299.07071
G1 F3600 E297.67071
G0 F12000 X206.31 Y217.90
G1 F3600 E299.07071
G1 F2700 X142.37 Y153.97 E302.07823
G0 F12000 X142.12 Y154.28
G1 F2700 X204.97 Y217.13 E305.03460
G1 F3600 E303.63460
G0 F12000 X203.63 Y216.36
G1 F3600 E305.03460
G1 F2700 X183.44 Y196.17 E305.98441
G0 F12000 X183.88 Y197.18
G1 F2700 X202.29 Y215.59 E306.85029
G1 F3600 E305.45029
G0 F12000 X200.95 Y214.81
G1 F3600 E306.85029
G1 F2700 X183.96 Y197.82 E307.64966
G0 F12000 X183.92 Y198.35
G1 F2700 X199.62 Y214.04 E308.38777
G1 F3600 E306.98777
G0 F12000 X198.28 Y213.27
G1 F3600 E308.38777
G1 F2700 X183.82 Y198.81 E309.06792
G0 F12000 X183.66 Y199.22
G1 F2700 X196.94 Y212.50 E309.69262
G1 F3600 E308.29262
G0 F12000 X195.60 Y211.72
G1 F3600 E309.69262
G1 F2700 X183.45 Y199.57 E310.26402
G0 F12000 X183.21 Y199.90
G1 F2700 X194.26 Y210.95 E310.78378
G1 F3600 E309.38378
G0 F12000 X192.92 Y210.18
G1 F3600 E310.78378
G1 F2700 X182.94 Y200.19 E311.25359
G0 F12000 X182.61 Y200.43
G1 F2700 X191.59 Y209.41 E311.67560
G1 F3600 E310.27560
G0 F12000 X190.25 Y208.63
G1 F3600 E311.67560
G1 F2700 X182.26 Y200.65 E312.05110
G0 F12000 X181.87 Y200.82
G1 F2700 X188.91 Y207.86 E312.38200
G1 F3600 E310.98200
G0 F12000 X187.57 Y207.09
G1 F3600 E312.38200
G1 F2700 X181.42 Y200.94 E312.67109
G0 F12000 X180.92 Y201.00
G1 F2700 X186.23 Y206.31 E312.92114
G1 F3600 E311.52114
G0 F12000 X184.89 Y205.54
G1 F3600 E312.92114
G1 F2700 X180.30 Y200.95 E313.13709
G0 F12000 X179.45 Y200.66
G1 F2700 X183.56 Y204.77 E313.33031
G1 F3600 E311.93031
G0 F12000 X182.53 Y195.26
G1 F3600 E313.33031
G1 F2700 X141.82 Y154.55 E315.24495
G0 F12000 X141.51 Y154.80
G1 F2700 X181.54 Y194.84 E317.12805
G0 F12000 X180.91 Y194.77
G1 F2700 X141.15 Y155.01 E318.99819
G0 F12000 X140.74 Y155.16
G1 F2700 X180.38 Y194.80 E320.86269
G0 F12000 X179.92 Y194.91
G1 F2700 X140.28 Y155.28 E322.72683
G0 F12000 X139.76 Y155.32
G1 F2700 X179.50 Y195.06 E324.59620
G0 F12000 X179.15 Y195.27
G1 F2700 X139.11 Y155.23 E326.47951
G0 F12000 X138.12 Y154.81
G1 F2700 X178.82 Y195.51 E328.39387
G1 F3600 E326.99387
G0 F12000 X190.07 Y188.66
G1 F3600 E328.39387
G1 F2700 X142.43 Y141.02 E330.63464
G0 F12000 X142.64 Y140.66
G1 F2700 X189.30 Y187.32 E332.82933
G1 F3600 E331.42933
G0 F12000 X188.52 Y185.98
G1 F3600 E332.82933
G1 F2700 X142.84 Y140.30 E334.97793
G0 F12000 X143.05 Y139.94
G1 F2700 X187.75 Y184.64 E337.08044
G1 F3600 E335.68044
G0 F12000 X186.98 Y183.30
G1 F3600 E337.08044
G1 F2700 X143.26 Y139.58 E339.13689
G0 F12000 X143.47 Y139.22
G1 F2700 X168.69 Y164.45 E340.32354
G0 F12000 X168.46 Y163.65
G1 F2700 X143.67 Y138.87 E341.48926
G0 F12000 X143.88 Y138.51
G1 F2700 X168.43 Y163.05 E342.64387
G0 F12000 X168.49 Y162.55
G1 F2700 X144.09 Y138.15 E343.79178
G0 F12000 X144.29 Y137.79
G1 F2700 X168.61 Y162.11 E344.93565
G0 F12000 X168.79 Y161.72
G1 F2700 X144.50 Y137.43 E346.07832
G0 F12000 X144.71 Y137.07
G1 F2700 X169.01 Y161.37 E347.22146
G0 F12000 X169.26 Y161.06
G1 F2700 X144.91 Y136.71 E348.36662
G0 F12000 X145.12 Y136.35
G1 F2700 X162.46 Y153.69 E349.18212
G0 F12000 X162.14 Y152.80
G1 F2700 X145.33 Y136.00 E349.97267
G0 F12000 X145.54 Y135.64
G1 F2700 X162.08 Y152.18 E350.75090
G0 F12000 X162.12 Y151.66
G1 F2700 X145.74 Y135.28 E351.52122
G0 F12000 X145.95 Y134.92
G1 F2700 X162.24 Y151.21 E352.28762
G0 F12000 X162.40 Y150.81
G1 F2700 X146.16 Y134.56 E353.05178
G0 F12000 X146.37 Y134.20
G1 F2700 X162.61 Y150.45 E353.81604
G0 F12000 X162.86 Y150.13
G1 F2700 X146.57 Y133.84 E354.58217
G0 F12000 X146.78 Y133.49
G1 F2700 X163.14 Y149.85 E355.35177
G0 F12000 X163.47 Y149.61
G1 F2700 X146.99 Y133.13 E356.12710
G0 F12000 X147.19 Y132.77
G1 F2700 X163.82 Y149.40 E356.90923
G0 F12000 X164.22 Y149.23
G1 F2700 X147.40 Y132.41 E357.70039
G0 F12000 X147.61 Y132.05
G1 F2700 X164.68 Y149.12 E358.50336
G0 F12000 X165.19 Y149.07
G1 F2700 X147.81 Y131.69 E359.32091
G0 F12000 X148.02 Y131.33
G1 F2700 X165.82 Y149.13 E360.15822
G0 F12000 X166.74 Y149.49
G1 F2700 X148.23 Y130.97 E361.02894
G0 F12000 X148.44 Y130.62
G1 F2700 X169.81 Y151.99 E362.03426
G0 F12000 X169.81 Y151.42
G1 F2700 X148.64 Y130.26 E363.02982
G0 F12000 X148.85 Y129.90
G1 F2700 X169.81 Y150.86 E364.01564
G0 F12000 X169.81 Y150.29
G1 F2700 X149.06 Y129.54 E364.99175
G0 F12000 X149.26 Y129.18
G1 F2700 X169.81 Y149.73 E365.95813
G0 F12000 X169.81 Y149.16
G1 F2700 X149.47 Y128.82 E366.91474
G0 F12000 X149.68 Y128.47
G1 F2700 X169.81 Y148.59 E367.86160
G0 F12000 X169.81 Y148.03
G1 F2700 X149.88 Y128.11 E368.79871
G0 F12000 X150.09 Y127.75
G1 F2700 X169.81 Y147.46 E369.72614
G0 F12000 X169.81 Y146.90
G1 F2700 X150.30 Y127.39 E370.64381
G0 F12000 X150.51 Y127.03
G1 F2700 X169.81 Y146.33 E371.55171
G0 F12000 X169.81 Y145.77
G1 F2700 X150.71 Y126.67 E372.44991
G0 F12000 X150.92 Y126.31
G1 F2700 X169.81 Y145.20 E373.33834
G0 F12000 X169.81 Y144.63
G1 F2700 X151.13 Y125.95 E374.21704
G0 F12000 X151.33 Y125.59
G1 F2700 X169.81 Y144.07 E375.08602
G0 F12000 X169.81 Y143.50
G1 F2700 X151.54 Y125.24 E375.94524
G0 F12000 X151.75 Y124.88
G1 F2700 X169.81 Y142.94 E376.79473
G0 F12000 X169.81 Y142.37
G1 F2700 X151.96 Y124.52 E377.63448
G0 F12000 X152.16 Y124.16
G1 F2700 X169.81 Y141.81 E378.46447
G0 F12000 X169.81 Y141.24
G1 F2700 X152.37 Y123.80 E379.28470
G0 F12000 X152.58 Y123.44
G1 F2700 X169.81 Y140.68 E380.09527
G0 F12000 X169.81 Y140.11
G1 F2700 X152.78 Y123.08 E380.89607
G0 F12000 X152.99 Y122.73
G1 F2700 X169.81 Y139.54 E381.68711
G0 F12000 X169.81 Y138.98
G1 F2700 X153.20 Y122.37 E382.46842
G0 F12000 X153.41 Y122.01
G1 F2700 X169.81 Y138.41 E383.23999
G0 F12000 X169.81 Y137.85
G1 F2700 X153.61 Y121.65 E384.00185
G0 F12000 X153.82 Y121.29
G1 F2700 X169.81 Y137.28 E384.75392
G0 F12000 X169.81 Y136.72
G1 F2700 X154.01 Y120.92 E385.49701
G0 F12000 X154.16 Y120.50
G1 F2700 X169.81 Y136.15 E386.23298
G0 F12000 X169.81 Y135.58
G1 F2700 X163.81 Y129.59 E386.51506
G0 F12000 X164.65 Y129.86
G1 F2700 X169.81 Y135.02 E386.75788
G0 F12000 X169.81 Y134.45
G1 F2700 X165.26 Y129.91 E386.97157
G0 F12000 X165.78 Y129.86
G1 F2700 X169.81 Y133.89 E387.16087
G0 F12000 X169.81 Y133.32
G1 F2700 X166.22 Y129.74 E387.32943
G0 F12000 X166.62 Y129.56
G1 F2700 X169.81 Y132.76 E387.47962
G0 F12000 X169.81 Y132.19
G1 F2700 X166.97 Y129.36 E387.61292
G0 F12000 X167.29 Y129.11
G1 F2700 X169.81 Y131.62 E387.73127
G0 F12000 X169.81 Y131.06
G1 F2700 X167.57 Y128.82 E387.83653
G0 F12000 X167.81 Y128.49
G1 F2700 X169.81 Y130.49 E387.93066
G0 F12000 X169.81 Y129.93
G1 F2700 X168.01 Y128.13 E388.01539
G0 F12000 X168.17 Y127.73
G1 F2700 X169.81 Y129.36 E388.09232
G0 F12000 X169.81 Y128.80
G1 F2700 X168.28 Y127.27 E388.16434
G0 F12000 X168.32 Y126.74
G1 F2700 X169.81 Y128.23 E388.23451
G0 F12000 X169.81 Y127.67
G1 F2700 X168.23 Y126.09 E388.30874
G0 F12000 X167.82 Y125.11
G1 F2700 X169.81 Y127.10 E388.40225
G0 F12000 X169.81 Y126.53
G1 F2700 X154.25 Y110.98 E389.13386
G0 F12000 X154.25 Y110.41
G1 F2700 X169.81 Y125.97 E389.86547
G0 F12000 X169.81 Y125.40
G1 F2700 X154.25 Y109.85 E390.59709
G0 F12000 X154.25 Y109.28
G1 F2700 X169.81 Y124.84 E391.32870
G0 F12000 X169.81 Y124.27
G1 F2700 X154.24 Y108.71 E392.06080
G0 F12000 X154.16 Y108.06
G1 F2700 X169.81 Y123.70 E392.79693
G0 F12000 X169.81 Y123.14
G1 F2700 X135.19 Y88.53 E394.42502
G0 F12000 X135.19 Y87.96
G1 F2700 X169.81 Y122.57 E396.05313
G0 F12000 X169.81 Y122.01
G1 F2700 X135.19 Y87.39 E397.68127
G0 F12000 X135.19 Y86.83
G1 F2700 X169.81 Y121.44 E399.30945
G0 F12000 X169.81 Y120.88
G1 F2700 X135.19 Y86.26 E400.93766
G0 F12000 X135.19 Y85.69
G1 F2700 X169.81 Y120.31 E402.56592
G0 F12000 X169.81 Y119.75
G1 F2700 X135.19 Y85.13 E404.19419
G0 F12000 X135.19 Y84.56
G1 F2700 X169.81 Y119.18 E405.82249
G0 F12000 X169.81 Y118.61
G1 F2700 X135.19 Y84.00 E407.45084
G0 F12000 X135.19 Y83.43
G1 F2700 X169.81 Y118.05 E409.07921
G0 F12000 X169.81 Y117.48
G1 F2700 X135.19 Y82.86 E410.70761
G0 F12000 X135.43 Y82.54
G1 F2700 X169.81 Y116.92 E412.32479
G0 F12000 X169.81 Y116.35
G1 F2700 X135.90 Y82.44 E413.91976
G0 F12000 X136.37 Y82.35
G1 F2700 X169.81 Y115.78 E415.49254
G0 F12000 X169.81 Y115.22
G1 F2700 X136.84 Y82.25 E417.04308
G0 F12000 X137.33 Y82.17
G1 F2700 X169.81 Y114.65 E418.57091
G0 F12000 X169.81 Y114.09
G1 F2700 X137.81 Y82.09 E420.07600
G0 F12000 X138.29 Y82.01
G1 F2700 X169.81 Y113.52 E421.55839
G0 F12000 X169.81 Y112.96
G1 F2700 X138.78 Y81.92 E423.01807
G0 F12000 X139.26 Y81.84
G1 F2700 X169.81 Y112.39 E424.45491
G0 F12000 X169.81 Y111.83
G1 F2700 X139.76 Y81.77 E425.86848
G0 F12000 X140.25 Y81.70
G1 F2700 X169.81 Y111.26 E427.25878
G0 F12000 X169.81 Y110.69
G1 F2700 X140.75 Y81.63 E428.62579
G0 F12000 X141.24 Y81.56
G1 F2700 X169.81 Y110.13 E429.96952
G0 F12000 X169.81 Y109.56
G1 F2700 X141.74 Y81.50 E431.28970
G0 F12000 X142.25 Y81.44
G1 F2700 X169.81 Y109.00 E432.58604
G0 F12000 X169.81 Y108.43
G1 F2700 X142.76 Y81.38 E433.85848
G0 F12000 X143.26 Y81.32
G1 F2700 X169.81 Y107.87 E435.10705
G0 F12000 X169.81 Y107.30
G1 F2700 X143.77 Y81.26 E436.33178
G0 F12000 X144.29 Y81.22
G1 F2700 X169.81 Y106.73 E437.53207
G0 F12000 X169.81 Y106.17
G1 F2700 X144.81 Y81.17 E438.70792
G0 F12000 X145.33 Y81.12
G1 F2700 X169.81 Y105.60 E439.85931
G0 F12000 X169.81 Y105.04
G1 F2700 X145.85 Y81.08 E440.98627
G0 F12000 X146.38 Y81.04
G1 F2700 X169.81 Y104.47 E442.08844
G0 F12000 X169.81 Y103.91
G1 F2700 X146.91 Y81.01 E443.16554
G0 F12000 X147.44 Y80.97
G1 F2700 X169.81 Y103.34 E444.21752
G0 F12000 X169.81 Y102.78
G1 F2700 X147.98 Y80.94 E445.24445
G0 F12000 X148.51 Y80.91
G1 F2700 X169.81 Y102.21 E446.24618
G0 F12000 X169.81 Y101.64
G1 F2700 X149.06 Y80.89 E447.22215
G0 F12000 X149.61 Y80.88
G1 F2700 X169.81 Y101.08 E448.17241
G0 F12000 X169.81 Y100.51
G1 F2700 X150.15 Y80.86 E449.09694
G0 F12000 X150.70 Y80.84
G1 F2700 X169.81 Y99.95 E449.99575
G0 F12000 X169.81 Y99.38
G1 F2700 X151.26 Y80.83 E450.86821
G0 F12000 X151.82 Y80.83
G1 F2700 X169.81 Y98.81 E451.71429
G0 F12000 X169.81 Y98.25
G1 F2700 X152.38 Y80.82 E452.53396
G0 F12000 X152.94 Y80.82
G1 F2700 X169.81 Y97.68 E453.32723
G0 F12000 X169.81 Y97.12
G1 F2700 X153.52 Y80.83 E454.09344
G0 F12000 X154.09 Y80.84
G1 F2700 X169.81 Y96.55 E454.83253
G0 F12000 X169.81 Y95.99
G1 F2700 X154.67 Y80.85 E455.54453
G0 F12000 X155.25 Y80.86
G1 F2700 X169.81 Y95.42 E456.22939
G0 F12000 X169.81 Y94.86
G1 F2700 X155.84 Y80.89 E456.88640
G0 F12000 X156.43 Y80.91
G1 F2700 X169.81 Y94.29 E457.51557
G0 F12000 X169.81 Y93.72
G1 F2700 X157.02 Y80.94 E458.11691
G0 F12000 X157.62 Y80.97
G1 F2700 X169.81 Y93.16 E458.69015
G0 F12000 X169.81 Y92.59
G1 F2700 X158.23 Y81.01 E459.23474
G0 F12000 X158.84 Y81.06
G1 F2700 X169.81 Y92.03 E459.75072
G0 F12000 X169.81 Y91.46
G1 F2700 X159.45 Y81.10 E460.23804
G0 F12000 X160.07 Y81.16
G1 F2700 X169.81 Y90.89 E460.69618
G0 F12000 X169.81 Y90.33
G1 F2700 X160.69 Y81.22 E461.12490
G0 F12000 X161.32 Y81.28
G1 F2700 X169.81 Y89.76 E461.52417
G0 F12000 X169.81 Y89.20
G1 F2700 X161.95 Y81.34 E461.89388
G0 F12000 X162.59 Y81.42
G1 F2700 X169.81 Y88.63 E462.23328
G0 F12000 X169.81 Y88.07
G1 F2700 X163.24 Y81.50 E462.54233
G0 F12000 X163.88 Y81.58
G1 F2700 X169.81 Y87.50 E462.82100
G0 F12000 X169.81 Y86.94
G1 F2700 X164.54 Y81.67 E463.06865
G0 F12000 X165.21 Y81.77
G1 F2700 X169.81 Y86.37 E463.28507
G0 F12000 X169.81 Y85.80
G1 F2700 X165.87 Y81.87 E463.47030
G0 F12000 X166.54 Y81.97
G1 F2700 X169.81 Y85.24 E463.62378
G0 F12000 X169.81 Y84.67
G1 F2700 X167.23 Y82.09 E463.74507
G0 F12000 X167.91 Y82.21
G1 F2700 X169.81 Y84.11 E463.83416
G0 F12000 X169.81 Y83.54
G1 F2700 X168.61 Y82.34 E463.89060
G0 F12000 X169.32 Y82.48
G1 F2700 X169.81 Y82.98 E463.91374
G1 F3600 E462.51374
G0 F12000 X152.00 Y105.90
G1 F3600 E463.91374
G1 F2700 X135.20 Y89.09 E464.70425
G0 F12000 X135.20 Y89.66
G1 F2700 X150.66 Y105.13 E465.43170
G1 F3600 E464.03170
G0 F12000 X149.32 Y104.35
G1 F3600 E465.43170
G1 F2700 X135.20 Y90.23 E466.09614
G0 F12000 X135.20 Y90.79
G1 F2700 X147.99 Y103.58 E466.69758
G1 F3600 E465.29758
G0 F12000 X146.65 Y102.81
G1 F3600 E466.69758
G1 F2700 X135.20 Y91.36 E467.23601
G0 F12000 X135.20 Y91.93
G1 F2700 X145.31 Y102.03 E467.71143
G1 F3600 E466.31143
G0 F12000 X143.97 Y101.26
G1 F3600 E467.71143
G1 F2700 X135.20 Y92.49 E468.12385
G0 F12000 X135.20 Y93.06
G1 F2700 X142.63 Y100.49 E468.47329
G1 F3600 E467.07329
G0 F12000 X141.29 Y99.71
G1 F3600 E468.47329
G1 F2700 X135.20 Y93.62 E468.75968
G0 F12000 X135.20 Y94.19
G1 F2700 X139.95 Y98.94 E468.98310
G1 F3600 E467.58310
G0 F12000 X138.61 Y98.17
G1 F3600 E468.98310
G1 F2700 X135.20 Y94.76 E469.14352
G0 F12000 X135.21 Y95.32
G1 F2700 X137.28 Y97.39 E469.24089
G1 F3600 E467.84089
G0 F12000 X135.93 Y96.61
G1 F3600 E469.24089
G1 F2700 X135.33 Y96.01 E469.26911
G1 F3600 E467.86911
G0 F12000 X154.25 Y111.55
G1 F3600 E469.26911
G1 F2700 X166.89 Y124.18 E469.86328
G0 F12000 X165.90 Y123.75
G1 F2700 X154.25 Y112.11 E470.41091
G0 F12000 X154.25 Y112.68
G1 F2700 X165.25 Y123.67 E470.92813
G0 F12000 X164.73 Y123.72
G1 F2700 X154.25 Y113.24 E471.42074
G0 F12000 X154.25 Y113.81
G1 F2700 X164.26 Y123.82 E471.89154
G0 F12000 X163.86 Y123.98
G1 F2700 X154.25 Y114.37 E472.34351
G0 F12000 X154.25 Y114.94
G1 F2700 X163.49 Y124.18 E472.77814
G0 F12000 X163.18 Y124.43
G1 F2700 X154.25 Y115.50 E473.19775
G0 F12000 X154.25 Y116.07
G1 F2700 X162.89 Y124.71 E473.60403
G0 F12000 X162.63 Y125.02
G1 F2700 X154.25 Y116.64 E473.99825
G0 F12000 X154.25 Y117.20
G1 F2700 X162.43 Y125.38 E474.38271
G0 F12000 X162.25 Y125.77
G1 F2700 X154.25 Y117.77 E474.75895
G0 F12000 X154.25 Y118.33
G1 F2700 X162.14 Y126.22 E475.12993
G0 F12000 X162.08 Y126.72
G1 F2700 X154.25 Y118.90 E475.49790
G0 F12000 X154.25 Y119.46
G1 F2700 X162.13 Y127.34 E475.86823
G0 F12000 X162.43 Y128.20
G1 F2700 X154.24 Y120.02 E476.25318
G1 F3600 E474.85318
G0 F12000 X142.22 Y141.38
G1 F3600 E476.25318
G1 F2700 X190.84 Y189.99 E478.54004
G1 F3600 E477.14004
G0 F12000 X186.21 Y181.96
G1 F3600 E478.54004
G1 F2700 X170.27 Y166.02 E479.28983
G0 F12000 X171.08 Y166.27
G1 F2700 X185.43 Y180.62 E479.96514
G1 F3600 E478.56514
G0 F12000 X184.66 Y179.29
G1 F3600 E479.96514
G1 F2700 X171.68 Y166.30 E480.57597
G0 F12000 X172.18 Y166.24
G1 F2700 X183.89 Y177.95 E481.12689
G1 F3600 E479.72689
G0 F12000 X183.12 Y176.61
G1 F3600 E481.12689
G1 F2700 X172.62 Y166.12 E481.62051
G0 F12000 X173.00 Y165.93
G1 F2700 X182.34 Y175.27 E482.05989
G1 F3600 E480.65989
G0 F12000 X181.57 Y173.93
G1 F3600 E482.05989
G1 F2700 X173.36 Y165.72 E482.44622
G0 F12000 X173.66 Y165.46
G1 F2700 X180.80 Y172.59 E482.78190
G1 F3600 E481.38190
G0 F12000 X180.03 Y171.26
G1 F3600 E482.78190
G1 F2700 X173.94 Y165.17 E483.06803
G0 F12000 X174.18 Y164.85
G1 F2700 X179.25 Y169.92 E483.30658
G1 F3600 E481.90658
G0 F12000 X178.48 Y168.58
G1 F3600 E483.30658
G1 F2700 X174.38 Y164.47 E483.49966
G0 F12000 X174.53 Y164.06
G1 F2700 X177.71 Y167.24 E483.64924
G1 F3600 E482.24924
G0 F12000 X176.94 Y165.90
G1 F3600 E483.64924
G1 F2700 X174.63 Y163.60 E483.75757
G0 F12000 X174.66 Y163.06
G1 F2700 X176.16 Y164.56 E483.82812
G1 F3600 E482.42812
G0 F12000 X175.39 Y163.23
G1 F3600 E483.82812
G1 F2700 X174.56 Y162.40 E483.86688
G0 F12000 X174.62 Y161.89
G1 F2700 X174.04 Y161.31 E483.89402
G0 F12000 X173.84 Y160.55
G1 F2700 X167.54 Y154.24 E484.19064
G0 F12000 X167.26 Y154.53
G1 F2700 X173.45 Y160.72 E484.48175
G0 F12000 X172.34 Y160.18
G1 F2700 X166.94 Y154.78 E484.73549
G0 F12000 X166.58 Y154.99
G1 F2700 X171.66 Y160.07 E484.97439
G0 F12000 X171.12 Y160.09
G1 F2700 X166.18 Y155.15 E485.20703
G0 F12000 X165.73 Y155.26
G1 F2700 X170.66 Y160.19 E485.43885
G0 F12000 X170.25 Y160.35
G1 F2700 X165.21 Y155.31 E485.67590
G0 F12000 X164.59 Y155.25
G1 F2700 X169.88 Y160.54 E485.92458
G0 F12000 X169.56 Y160.79
G1 F2700 X163.69 Y154.92 E486.20062
G1 F3600 E484.80062
G0 F12000 X167.78 Y153.92
G1 F3600 E486.20062
G1 F2700 X173.07 Y159.21 E486.44954
G1 F3600 E485.04954
G0 F12000 X172.30 Y157.87
G1 F3600 E486.44954
G1 F2700 X168.00 Y153.57 E486.65189
G0 F12000 X168.16 Y153.16
G1 F2700 X171.53 Y156.53 E486.81045
G1 F3600 E485.41045
G0 F12000 X170.75 Y155.20
G1 F3600 E486.81045
G1 F2700 X168.28 Y152.72 E486.92692
G0 F12000 X168.32 Y152.19
G1 F2700 X169.98 Y153.86 E487.00523
G0 F12000 X169.81 Y153.12
G1 F2700 X168.26 Y151.57 E487.07816
G0 F12000 X167.92 Y150.66
G1 F2700 X169.81 Y152.56 E487.16713
G1 F3600 E485.76713
G0 F12000 X129.37 Y188.49
G1 F3600 E487.16713
G1 F2700 X111.45 Y170.56 E488.01025
G1 F3600 E486.61025
G0 F12000 X104.64 Y174.50
G1 F3600 E488.01025
G1 F2700 X118.63 Y188.49 E488.66834
G0 F12000 X118.06 Y188.49
G1 F2700 X104.28 Y174.70 E489.31667
G0 F12000 X103.92 Y174.91
G1 F2700 X117.49 Y188.49 E489.95525
G0 F12000 X116.93 Y188.49
G1 F2700 X103.56 Y175.12 E490.58408
G0 F12000 X103.20 Y175.33
G1 F2700 X116.36 Y188.49 E491.20318
G0 F12000 X115.80 Y188.49
G1 F2700 X102.84 Y175.53 E491.81257
G0 F12000 X102.48 Y175.74
G1 F2700 X115.23 Y188.49 E492.41222
G0 F12000 X114.67 Y188.49
G1 F2700 X102.12 Y175.95 E493.00211
G0 F12000 X101.77 Y176.15
G1 F2700 X114.10 Y188.49 E493.58227
G0 F12000 X113.53 Y188.49
G1 F2700 X101.41 Y176.36 E494.15268
G0 F12000 X101.05 Y176.57
G1 F2700 X112.97 Y188.49 E494.71336
G0 F12000 X112.40 Y188.49
G1 F2700 X100.69 Y176.78 E495.26431
G0 F12000 X100.33 Y176.98
G1 F2700 X111.87 Y188.52 E495.80692
G0 F12000 X111.42 Y188.63
G1 F2700 X99.97 Y177.19 E496.34512
G0 F12000 X99.61 Y177.40
G1 F2700 X111.02 Y188.80 E496.88167
G0 F12000 X110.66 Y189.01
G1 F2700 X99.26 Y177.60 E497.41822
G0 F12000 X98.90 Y177.81
G1 F2700 X110.30 Y189.22 E497.95477
G0 F12000 X109.94 Y189.42
G1 F2700 X98.54 Y178.02 E498.49132
G0 F12000 X98.18 Y178.22
G1 F2700 X109.59 Y189.63 E499.02785
G0 F12000 X109.23 Y189.84
G1 F2700 X97.82 Y178.43 E499.56433
G0 F12000 X97.46 Y178.64
G1 F2700 X108.87 Y190.04 E500.10078
G0 F12000 X108.51 Y190.25
G1 F2700 X97.10 Y178.85 E500.63724
G0 F12000 X96.75 Y179.05
G1 F2700 X108.15 Y190.46 E501.17370
G0 F12000 X107.79 Y190.66
G1 F2700 X96.39 Y179.26 E501.71011
G0 F12000 X96.03 Y179.47
G1 F2700 X107.43 Y190.87 E502.24652
G0 F12000 X107.07 Y191.08
G1 F2700 X95.67 Y179.67 E502.78288
G0 F12000 X95.31 Y179.88
G1 F2700 X106.71 Y191.28 E503.31924
G0 F12000 X106.36 Y191.49
G1 F2700 X94.95 Y180.09 E503.85558
G0 F12000 X94.59 Y180.29
G1 F2700 X106.00 Y191.70 E504.39194
G0 F12000 X105.64 Y191.90
G1 F2700 X94.23 Y180.50 E504.92826
G0 F12000 X93.88 Y180.71
G1 F2700 X105.28 Y192.11 E505.46457
G0 F12000 X104.92 Y192.32
G1 F2700 X93.52 Y180.92 E506.00086
G0 F12000 X93.16 Y181.12
G1 F2700 X104.56 Y192.52 E506.53713
G0 F12000 X104.20 Y192.73
G1 F2700 X92.80 Y181.33 E507.07340
G0 F12000 X92.44 Y181.54
G1 F2700 X103.84 Y192.94 E507.60964
G0 F12000 X103.48 Y193.14
G1 F2700 X92.08 Y181.74 E508.14586
G0 F12000 X91.72 Y181.95
G1 F2700 X103.12 Y193.35 E508.68204
G0 F12000 X102.77 Y193.56
G1 F2700 X91.37 Y182.16 E509.21821
G0 F12000 X91.01 Y182.37
G1 F2700 X102.41 Y193.76 E509.75439
G0 F12000 X102.05 Y193.97
G1 F2700 X90.65 Y182.57 E510.29056
G0 F12000 X90.29 Y182.78
G1 F2700 X101.69 Y194.18 E510.82666
G0 F12000 X101.33 Y194.39
G1 F2700 X89.93 Y182.99 E511.36300
G0 F12000 X89.57 Y183.19
G1 F2700 X100.99 Y194.61 E511.90016
G0 F12000 X100.70 Y194.89
G1 F2700 X89.21 Y183.40 E512.44048
G0 F12000 X88.86 Y183.61
G1 F2700 X100.45 Y195.20 E512.98585
G0 F12000 X100.24 Y195.56
G1 F2700 X88.50 Y183.81 E513.53830
G0 F12000 X88.14 Y184.02
G1 F2700 X100.08 Y195.97 E514.10013
G0 F12000 X99.98 Y196.43
G1 F2700 X87.78 Y184.23 E514.67389
G0 F12000 X87.42 Y184.44
G1 F2700 X99.98 Y196.99 E515.26448
G0 F12000 X99.98 Y197.56
G1 F2700 X87.06 Y184.64 E515.87189
G0 F12000 X86.70 Y184.85
G1 F2700 X99.98 Y198.12 E516.49617
G0 F12000 X99.97 Y198.69
G1 F2700 X86.34 Y185.06 E517.13728
G0 F12000 X85.99 Y185.26
G1 F2700 X99.97 Y199.25 E517.79521
G0 F12000 X99.97 Y199.82
G1 F2700 X85.63 Y185.47 E518.47002
G0 F12000 X85.27 Y185.68
G1 F2700 X99.97 Y200.38 E519.16166
G0 F12000 X99.97 Y200.95
G1 F2700 X84.91 Y185.88 E519.87017
G0 F12000 X84.55 Y186.09
G1 F2700 X99.97 Y201.51 E520.59555
G0 F12000 X99.97 Y202.08
G1 F2700 X84.19 Y186.30 E521.33775
G0 F12000 X83.83 Y186.51
G1 F2700 X99.97 Y202.64 E522.09678
G0 F12000 X99.97 Y203.21
G1 F2700 X83.48 Y186.71 E522.87268
G0 F12000 X83.12 Y186.92
G1 F2700 X99.97 Y203.77 E523.66539
G0 F12000 X99.97 Y204.34
G1 F2700 X82.76 Y187.13 E524.47499
G0 F12000 X82.40 Y187.34
G1 F2700 X99.97 Y204.91 E525.30143
G0 F12000 X99.97 Y205.47
G1 F2700 X82.04 Y187.54 E526.14471
G0 F12000 X81.68 Y187.75
G1 F2700 X99.97 Y206.04 E527.00488
G0 F12000 X99.97 Y206.60
G1 F2700 X81.33 Y187.96 E527.88186
G0 F12000 X80.97 Y188.16
G1 F2700 X99.97 Y207.17 E528.77572
G0 F12000 X99.97 Y207.73
G1 F2700 X80.61 Y188.37 E529.68640
G0 F12000 X80.25 Y188.58
G1 F2700 X99.97 Y208.30 E530.61393
G0 F12000 X99.97 Y208.86
G1 F2700 X79.89 Y188.78 E531.55831
G0 F12000 X79.53 Y188.99
G1 F2700 X99.97 Y209.43 E532.51956
G0 F12000 X99.97 Y209.99
G1 F2700 X79.17 Y189.20 E533.49760
G0 F12000 X78.81 Y189.41
G1 F2700 X99.97 Y210.56 E534.49254
G0 F12000 X99.97 Y211.12
G1 F2700 X78.45 Y189.61 E535.50431
G0 F12000 X78.10 Y189.82
G1 F2700 X99.97 Y211.69 E536.53294
G0 F12000 X99.97 Y212.25
G1 F2700 X77.74 Y190.03 E537.57840
G0 F12000 X77.38 Y190.23
G1 F2700 X99.96 Y212.82 E538.64068
G0 F12000 X99.96 Y213.38
G1 F2700 X77.02 Y190.44 E539.71990
G0 F12000 X76.66 Y190.65
G1 F2700 X99.96 Y213.95 E540.81591
G0 F12000 X99.96 Y214.51
G1 F2700 X76.30 Y190.85 E541.92875
G0 F12000 X75.94 Y191.06
G1 F2700 X99.96 Y215.08 E543.05844
G0 F12000 X99.96 Y215.64
G1 F2700 X75.59 Y191.27 E544.20499
G0 F12000 X75.23 Y191.48
G1 F2700 X99.96 Y216.21 E545.36840
G0 F12000 X99.92 Y216.74
G1 F2700 X74.87 Y191.68 E546.54686
G0 F12000 X74.51 Y191.89
G1 F2700 X99.75 Y217.13 E547.73403
G0 F12000 X99.48 Y217.43
G1 F2700 X74.15 Y192.10 E548.92550
G0 F12000 X73.79 Y192.30
G1 F2700 X99.13 Y217.64 E550.11713
G0 F12000 X98.77 Y217.85
G1 F2700 X73.44 Y192.51 E551.30879
G0 F12000 X73.08 Y192.72
G1 F2700 X98.41 Y218.05 E552.50042
G0 F12000 X98.05 Y218.26
G1 F2700 X72.72 Y192.93 E553.69210
G0 F12000 X72.36 Y193.13
G1 F2700 X97.69 Y218.47 E554.88378
G0 F12000 X97.34 Y218.68
G1 F2700 X72.00 Y193.34 E556.07551
G0 F12000 X71.64 Y193.55
G1 F2700 X96.98 Y218.88 E557.26722
G0 F12000 X96.62 Y219.09
G1 F2700 X71.28 Y193.75 E558.45892
G0 F12000 X70.92 Y193.96
G1 F2700 X96.26 Y219.30 E559.65067
G0 F12000 X95.90 Y219.50
G1 F2700 X71.11 Y194.71 E560.81707
G0 F12000 X71.39 Y195.56
G1 F2700 X95.54 Y219.71 E561.95297
G0 F12000 X95.19 Y219.92
G1 F2700 X71.73 Y196.46 E563.05636
G0 F12000 X72.06 Y197.36
G1 F2700 X94.83 Y220.13 E564.12737
G0 F12000 X94.47 Y220.33
G1 F2700 X72.42 Y198.28 E565.16462
G0 F12000 X72.79 Y199.22
G1 F2700 X94.11 Y220.54 E566.16736
G0 F12000 X93.75 Y220.75
G1 F2700 X73.19 Y200.19 E567.13455
G0 F12000 X73.62 Y201.18
G1 F2700 X93.39 Y220.96 E568.06485
G0 F12000 X93.04 Y221.16
G1 F2700 X74.06 Y202.19 E568.95735
G0 F12000 X74.55 Y203.24
G1 F2700 X92.68 Y221.37 E569.81020
G0 F12000 X92.32 Y221.58
G1 F2700 X75.06 Y204.31 E570.62225
G0 F12000 X75.61 Y205.43
G1 F2700 X91.96 Y221.79 E571.39158
G0 F12000 X91.60 Y221.99
G1 F2700 X76.20 Y206.59 E572.11614
G0 F12000 X76.83 Y207.78
G1 F2700 X91.24 Y222.20 E572.79437
G0 F12000 X90.89 Y222.41
G1 F2700 X77.53 Y209.06 E573.42231
G1 F3600 E572.02231
G0 F12000 X78.30 Y210.38
G1 F3600 E573.42231
G1 F2700 X90.53 Y222.62 E573.99760
G0 F12000 X90.17 Y222.82
G1 F2700 X79.13 Y211.79 E574.51670
G1 F3600 E573.11670
G0 F12000 X80.10 Y213.32
G1 F3600 E574.51670
G1 F2700 X89.81 Y223.03 E574.97359
G0 F12000 X89.45 Y223.24
G1 F2700 X81.19 Y214.97 E575.36223
G1 F3600 E573.96223
G0 F12000 X82.47 Y216.82
G1 F3600 E575.36223
G1 F2700 X89.09 Y223.44 E575.67378
G0 F12000 X88.74 Y223.65
G1 F2700 X84.05 Y218.96 E575.89443
G1 F3600 E574.49443
G0 F12000 X86.25 Y221.74
G1 F3600 E575.89443
G1 F2700 X88.38 Y223.86 E575.99424
;LAYER:1
M106 S12
G0 F12000 X88.14 Y224.16 Z0.35
;TYPE:WALL-INNER
G1 F3480 X87.08 Y222.94 E576.03444
G1 X85.56 Y221.13 E576.09350
G1 X84.16 Y219.35 E576.14991
G1 X82.83 Y217.56 E576.20565
G1 X81.51 Y215.71 E576.26230
G1 X80.26 Y213.83 E576.31865
G1 X79.05 Y211.92 E576.37510
G1 X77.89 Y209.97 E576.43158
G1 X76.79 Y208.01 E576.48773
G1 X75.73 Y205.99 E576.54467
G1 X74.72 Y203.96 E576.60117
G1 X73.77 Y201.90 E576.65770
G1 X72.88 Y199.82 E576.71420
G1 X72.05 Y197.74 E576.77022
G1 X71.26 Y195.60 E576.82696
G1 X70.69 Y193.93 E576.87090
G1 X132.23 Y158.40 E578.64343
G1 X153.78 Y121.09 E579.71832
G1 X153.92 Y120.79 E579.72660
G1 X154.05 Y120.36 E579.73771
G1 X154.10 Y120.07 E579.74501
G1 X154.12 Y119.46 E579.76038
G1 X154.12 Y109.13 E580.01806
G1 X154.10 Y108.52 E580.03326
G1 X154.03 Y108.12 E580.04337
G1 X153.90 Y107.74 E580.05349
G1 X153.73 Y107.41 E580.06273
G1 X153.31 Y106.89 E580.07931
G1 X152.85 Y106.55 E580.09370
G1 X136.14 Y96.90 E580.57480
G1 X135.75 Y96.67 E580.58620
G1 X135.43 Y96.42 E580.59642
G1 X135.32 Y96.28 E580.60068
G1 X135.22 Y96.13 E580.60526
G1 X135.15 Y95.98 E580.60943
G1 X135.06 Y95.63 E580.61828
G1 X135.05 Y95.03 E580.63326
G1 X135.05 Y82.47 E580.94672
G1 X136.74 Y82.13 E580.98977
G1 X139.20 Y81.71 E581.05188
G1 X141.50 Y81.38 E581.10986
G1 X143.79 Y81.12 E581.16749
G1 X146.11 Y80.92 E581.22548
G1 X148.38 Y80.78 E581.28234
G1 X150.68 Y80.70 E581.33970
G1 X152.94 Y80.68 E581.39600
G1 X155.21 Y80.72 E581.45261
G1 X157.43 Y80.82 E581.50819
G1 X159.67 Y80.98 E581.56416
G1 X161.86 Y81.19 E581.61889
G1 X164.04 Y81.45 E581.67380
G1 X166.20 Y81.77 E581.72834
G1 X168.33 Y82.14 E581.78222
G1 X169.95 Y82.47 E581.82336
G1 X169.95 Y153.52 E583.59586
G1 X191.48 Y190.82 E584.67014
G1 X191.70 Y191.13 E584.67951
G1 X191.93 Y191.38 E584.68806
G1 X192.20 Y191.60 E584.69676
G1 X192.72 Y191.92 E584.71209
G1 X201.69 Y197.10 E584.97053
G1 X202.08 Y197.32 E584.98156
G1 X202.55 Y197.52 E584.99422
G1 X202.95 Y197.60 E585.00455
G1 X203.31 Y197.63 E585.01340
G1 X203.72 Y197.59 E585.02392
G1 X204.29 Y197.43 E585.03852
G1 X204.58 Y197.29 E585.04671
G1 X221.38 Y187.59 E585.53043
G1 X221.78 Y187.37 E585.54200
G1 X221.95 Y187.31 E585.54639
G1 X222.17 Y187.26 E585.55196
G1 X222.35 Y187.25 E585.55654
G1 X222.56 Y187.27 E585.56182
G1 X222.89 Y187.36 E585.57030
G1 X225.78 Y189.01 E585.65349
G1 X234.31 Y193.93 E585.89896
G1 X233.83 Y195.34 E585.93606
G1 X233.04 Y197.50 E585.99328
G1 X232.25 Y199.49 E586.04678
G1 X231.40 Y201.50 E586.10114
G1 X230.49 Y203.50 E586.15600
G1 X229.52 Y205.50 E586.21135
G1 X228.49 Y207.50 E586.26757
G1 X227.41 Y209.46 E586.32347
G1 X226.25 Y211.43 E586.38048
G1 X225.05 Y213.36 E586.43711
G1 X223.78 Y215.28 E586.49460
G1 X222.44 Y217.19 E586.55287
G1 X221.06 Y219.06 E586.61071
G1 X219.61 Y220.91 E586.66929
G1 X218.09 Y222.74 E586.72864
G1 X216.85 Y224.16 E586.77561
G1 X155.32 Y188.63 E588.54813
G1 X112.25 Y188.63 E589.62234
G1 X111.88 Y188.66 E589.63162
G1 X111.60 Y188.72 E589.63888
G1 X111.22 Y188.85 E589.64892
G1 X110.68 Y189.15 E589.66431
G1 X101.70 Y194.33 E589.92289
G1 X101.17 Y194.65 E589.93829
G1 X100.83 Y194.96 E589.94976
G1 X100.60 Y195.22 E589.95856
G1 X100.42 Y195.52 E589.96724
G1 X100.27 Y195.85 E589.97624
G1 X100.12 Y196.42 E589.99102
G1 X100.10 Y197.06 E590.00704
G1 X100.10 Y216.12 E590.48232
G1 X100.09 Y216.59 E590.49417
G1 X100.05 Y216.81 E590.49959
G1 X99.98 Y217.01 E590.50507
G1 X99.90 Y217.17 E590.50941
G1 X99.70 Y217.42 E590.51729
G1 X99.52 Y217.58 E590.52346
G1 X99.03 Y217.87 E590.53771
G1 X88.14 Y224.16 E590.85120
G1 F3600 E589.45120
G0 F12000 X110.07 Y178.52
G1 F3600 E590.85120
G1 F3480 X110.62 Y178.75 E590.86612
G1 X111.09 Y178.84 E590.87811
G1 X111.48 Y178.87 E590.88791
G1 X112.09 Y178.80 E590.90299
G1 X112.37 Y178.72 E590.91025
G1 X112.87 Y178.51 E590.92398
G1 X113.21 Y178.30 E590.93389
G1 X113.61 Y177.94 E590.94726
G1 X113.83 Y177.70 E590.95538
G1 X114.11 Y177.25 E590.96869
G1 X114.32 Y176.74 E590.98228
G1 X114.42 Y176.22 E590.99550
G1 X114.44 Y175.88 E591.00397
G1 X114.38 Y175.27 E591.01934
G1 X114.20 Y174.72 E591.03388
G1 X113.91 Y174.18 E591.04920
G1 X113.70 Y173.92 E591.05745
G1 X113.49 Y173.70 E591.06516
G1 X113.25 Y173.50 E591.07281
G1 X112.83 Y173.24 E591.08514
G1 X112.30 Y173.02 E591.09960
G1 X111.82 Y172.92 E591.11160
G1 X111.43 Y172.90 E591.12139
G1 X110.83 Y172.97 E591.13648
G1 X110.55 Y173.04 E591.14373
G1 X110.03 Y173.26 E591.15771
G1 X109.59 Y173.56 E591.17099
G1 X109.50 Y173.63 E591.17397
G1 X109.11 Y174.04 E591.18805
G1 X108.88 Y174.38 E591.19828
G1 X108.77 Y174.60 E591.20435
G1 X108.62 Y174.97 E591.21442
G1 X108.50 Y175.54 E591.22888
G1 X108.47 Y175.88 E591.23740
G1 X108.54 Y176.50 E591.25279
G1 X108.71 Y177.04 E591.26695
G1 X108.86 Y177.35 E591.27562
G1 X109.20 Y177.84 E591.29052
G1 X109.43 Y178.07 E591.29861
G1 X109.67 Y178.27 E591.30626
G1 X110.07 Y178.52 E591.31814
G1 F3600 E589.91814
G0 F12000 X130.97 Y164.82
G1 F3600 E591.31814
G1 F3480 X131.23 Y165.17 E591.32923
G1 X131.46 Y165.40 E591.33729
G1 X131.90 Y165.73 E591.35098
G1 X132.47 Y166.00 E591.36675
G1 X133.03 Y166.13 E591.38099
G1 X133.38 Y166.16 E591.38975
G1 X133.99 Y166.12 E591.40499
G1 X134.47 Y165.99 E591.41736
G1 X135.09 Y165.68 E591.43470
G1 X135.37 Y165.47 E591.44339
G1 X135.82 Y165.00 E591.45971
G1 X136.15 Y164.46 E591.47546
G1 X136.35 Y163.91 E591.48998
G1 X136.43 Y163.37 E591.50381
G1 X136.44 Y163.25 E591.50675
G1 X136.39 Y162.65 E591.52174
G1 X136.24 Y162.12 E591.53549
G1 X136.01 Y161.64 E591.54868
G1 X135.68 Y161.19 E591.56257
G1 X135.45 Y160.96 E591.57078
G1 X135.02 Y160.65 E591.58402
G1 X134.73 Y160.49 E591.59224
G1 X134.42 Y160.36 E591.60060
G1 X133.88 Y160.23 E591.61441
G1 X133.53 Y160.20 E591.62317
G1 X132.93 Y160.25 E591.63840
G1 X132.45 Y160.38 E591.65078
G1 X132.04 Y160.56 E591.66195
G1 X131.82 Y160.69 E591.66827
G1 X131.46 Y160.97 E591.67969
G1 X131.09 Y161.36 E591.69300
G1 X130.91 Y161.63 E591.70106
G1 X130.76 Y161.91 E591.70899
G1 X130.63 Y162.22 E591.71735
G1 X130.50 Y162.75 E591.73116
G1 X130.47 Y163.10 E591.73992
G1 X130.52 Y163.72 E591.75523
G1 X130.67 Y164.24 E591.76888
G1 X130.84 Y164.60 E591.77878
G1 X130.97 Y164.82 E591.78505
G1 F3600 E590.38505
G0 F12000 X138.14 Y154.67
G1 F3600 E591.78505
G1 F3480 X138.37 Y154.81 E591.79195
G1 X138.92 Y155.04 E591.80675
G1 X139.29 Y155.13 E591.81625
G1 X139.75 Y155.18 E591.82778
G1 X140.32 Y155.13 E591.84194
G1 X140.83 Y154.99 E591.85529
G1 X141.14 Y154.86 E591.86371
G1 X141.61 Y154.56 E591.87752
G1 X141.90 Y154.31 E591.88726
G1 X142.09 Y154.10 E591.89419
G1 X142.40 Y153.66 E591.90760
G1 X142.45 Y153.56 E591.91047
G1 X142.65 Y153.07 E591.92359
G1 X142.74 Y152.70 E591.93299
G1 X142.78 Y152.24 E591.94452
G1 X142.74 Y151.68 E591.95866
G1 X142.59 Y151.15 E591.97242
G1 X142.31 Y150.59 E591.98807
G1 X141.92 Y150.10 E592.00364
G1 X141.72 Y149.91 E592.01054
G1 X141.46 Y149.72 E592.01856
G1 X141.18 Y149.55 E592.02682
G1 X140.68 Y149.34 E592.04030
G1 X140.31 Y149.26 E592.04971
G1 X139.85 Y149.21 E592.06126
G1 X139.28 Y149.25 E592.07543
G1 X138.75 Y149.40 E592.08916
G1 X138.21 Y149.67 E592.10437
G1 X137.93 Y149.87 E592.11282
G1 X137.69 Y150.08 E592.12077
G1 X137.51 Y150.28 E592.12764
G1 X137.20 Y150.73 E592.14107
G1 X137.15 Y150.83 E592.14393
G1 X136.95 Y151.32 E592.15705
G1 X136.86 Y151.68 E592.16646
G1 X136.82 Y152.14 E592.17799
G1 X136.86 Y152.71 E592.19210
G1 X137.01 Y153.24 E592.20589
G1 X137.29 Y153.80 E592.22151
G1 X137.68 Y154.29 E592.23709
G1 X137.88 Y154.48 E592.24401
G1 X138.14 Y154.67 E592.25197
G1 F3600 E590.85197
G0 F12000 X162.22 Y152.25
G1 F3600 E592.25197
G1 F3480 X162.28 Y152.81 E592.26612
G1 X162.45 Y153.34 E592.27988
G1 X162.74 Y153.88 E592.29510
G1 X162.95 Y154.15 E592.30384
G1 X163.35 Y154.54 E592.31766
G1 X163.63 Y154.73 E592.32605
G1 X163.92 Y154.89 E592.33430
G1 X164.43 Y155.07 E592.34775
G1 X164.80 Y155.15 E592.35720
G1 X165.26 Y155.18 E592.36868
G1 X165.82 Y155.11 E592.38286
G1 X166.35 Y154.95 E592.39662
G1 X166.88 Y154.66 E592.41186
G1 X167.16 Y154.44 E592.42062
G1 X167.54 Y154.04 E592.43440
G1 X167.73 Y153.76 E592.44278
G1 X167.89 Y153.47 E592.45103
G1 X168.08 Y152.97 E592.46448
G1 X168.15 Y152.60 E592.47389
G1 X168.18 Y152.14 E592.48541
G1 X168.12 Y151.57 E592.49957
G1 X167.95 Y151.05 E592.51325
G1 X167.69 Y150.56 E592.52712
G1 X167.45 Y150.24 E592.53725
G1 X167.04 Y149.85 E592.55114
G1 X166.77 Y149.66 E592.55950
G1 X166.48 Y149.50 E592.56772
G1 X165.97 Y149.31 E592.58121
G1 X165.60 Y149.24 E592.59066
G1 X165.14 Y149.21 E592.60219
G1 X164.58 Y149.28 E592.61632
G1 X164.05 Y149.44 E592.63007
G1 X163.52 Y149.73 E592.64530
G1 X163.24 Y149.95 E592.65403
G1 X162.84 Y150.36 E592.66827
G1 X162.51 Y150.90 E592.68409
G1 X162.32 Y151.42 E592.69795
G1 X162.25 Y151.79 E592.70735
G1 X162.22 Y152.25 E592.71888
G1 F3600 E591.31888
G0 F12000 X169.68 Y160.85
G1 F3600 E592.71888
G1 F3480 X169.26 Y161.26 E592.73350
G1 X168.99 Y161.65 E592.74539
G1 X168.74 Y162.16 E592.75949
G1 X168.60 Y162.68 E592.77285
G1 X168.57 Y163.00 E592.78095
G1 X168.56 Y163.33 E592.78929
G1 X168.66 Y163.95 E592.80492
G1 X168.87 Y164.50 E592.81951
G1 X169.20 Y165.03 E592.83505
G1 X169.53 Y165.38 E592.84700
G1 X170.01 Y165.74 E592.86209
G1 X170.52 Y165.99 E592.87622
G1 X171.04 Y166.12 E592.88962
G1 X171.36 Y166.16 E592.89770
G1 X171.69 Y166.16 E592.90601
G1 X172.30 Y166.07 E592.92121
G1 X172.58 Y165.98 E592.92860
G1 X173.13 Y165.71 E592.94397
G1 X173.57 Y165.37 E592.95789
G1 X173.83 Y165.09 E592.96731
G1 X174.10 Y164.72 E592.97884
G1 X174.35 Y164.21 E592.99301
G1 X174.48 Y163.69 E593.00635
G1 X174.52 Y163.37 E593.01443
G1 X174.53 Y163.03 E593.02277
G1 X174.43 Y162.41 E593.03840
G1 X174.22 Y161.87 E593.05297
G1 X173.89 Y161.34 E593.06852
G1 X173.55 Y160.97 E593.08098
G1 X173.08 Y160.63 E593.09546
G1 X172.57 Y160.38 E593.10970
G1 X172.05 Y160.24 E593.12310
G1 X171.73 Y160.21 E593.13113
G1 X171.47 Y160.20 E593.13762
G1 X171.08 Y160.24 E593.14738
G1 X170.52 Y160.38 E593.16170
G1 X169.97 Y160.65 E593.17718
G1 X169.68 Y160.85 E593.18584
G1 F3600 E591.78584
G0 F12000 X160.20 Y182.53
G1 F3600 E593.18584
G1 F3480 X159.76 Y182.34 E593.19760
G1 X159.24 Y182.22 E593.21089
G1 X158.92 Y182.20 E593.21900
G1 X158.59 Y182.21 E593.22723
G1 X158.04 Y182.31 E593.24110
G1 X157.73 Y182.41 E593.24943
G1 X157.42 Y182.56 E593.25778
G1 X156.96 Y182.87 E593.27178
G1 X156.53 Y183.30 E593.28702
G1 X156.19 Y183.82 E593.30254
G1 X156.01 Y184.25 E593.31409
G1 X155.93 Y184.55 E593.32171
G1 X155.89 Y184.79 E593.32797
G1 X155.86 Y185.10 E593.33573
G1 X155.87 Y185.44 E593.34401
G1 X155.97 Y186.00 E593.35822
G1 X156.21 Y186.59 E593.37407
G1 X156.53 Y187.06 E593.38840
G1 X156.92 Y187.46 E593.40222
G1 X157.40 Y187.79 E593.41669
G1 X157.87 Y188.00 E593.42962
G1 X158.44 Y188.14 E593.44434
G1 X158.77 Y188.16 E593.45250
G1 X159.10 Y188.15 E593.46073
G1 X159.64 Y188.05 E593.47455
G1 X159.96 Y187.94 E593.48291
G1 X160.27 Y187.80 E593.49135
G1 X160.77 Y187.46 E593.50663
G1 X161.12 Y187.10 E593.51899
G1 X161.39 Y186.73 E593.53057
G1 X161.63 Y186.23 E593.54438
G1 X161.76 Y185.82 E593.55500
G1 X161.80 Y185.57 E593.56146
G1 X161.83 Y185.26 E593.56922
G1 X161.82 Y184.92 E593.57750
G1 X161.72 Y184.37 E593.59160
G1 X161.54 Y183.91 E593.60373
G1 X161.47 Y183.77 E593.60770
G1 X161.30 Y183.49 E593.61598
G1 X160.96 Y183.07 E593.62944
G1 X160.66 Y182.82 E593.63906
G1 X160.20 Y182.53 E593.65280
G1 F3600 E592.25280
G0 F12000 X149.06 Y184.50
G1 F3600 E593.65280
G1 F3480 X148.95 Y184.15 E593.66188
G1 X148.76 Y183.73 E593.67340
G1 X148.44 Y183.26 E593.68751
G1 X148.05 Y182.88 E593.70131
G1 X147.53 Y182.53 E593.71692
G1 X146.93 Y182.30 E593.73282
G1 X146.43 Y182.21 E593.74559
G1 X146.09 Y182.20 E593.75418
G1 X145.49 Y182.27 E593.76908
G1 X145.13 Y182.38 E593.77860
G1 X144.71 Y182.57 E593.79012
G1 X144.25 Y182.89 E593.80395
G1 X144.01 Y183.11 E593.81209
G1 X143.68 Y183.52 E593.82539
G1 X143.51 Y183.81 E593.83361
G1 X143.37 Y184.11 E593.84196
G1 X143.22 Y184.65 E593.85580
G1 X143.18 Y184.97 E593.86406
G1 X143.17 Y185.24 E593.87065
G1 X143.20 Y185.60 E593.87976
G1 X143.25 Y185.86 E593.88628
G1 X143.36 Y186.20 E593.89525
G1 X143.49 Y186.51 E593.90350
G1 X143.61 Y186.73 E593.90996
G1 X143.98 Y187.22 E593.92503
G1 X144.27 Y187.49 E593.93496
G1 X144.78 Y187.83 E593.95027
G1 X145.31 Y188.04 E593.96452
G1 X145.64 Y188.12 E593.97292
G1 X145.95 Y188.15 E593.98081
G1 X146.23 Y188.16 E593.98769
G1 X146.82 Y188.09 E594.00255
G1 X147.18 Y187.98 E594.01206
G1 X147.60 Y187.79 E594.02358
G1 X148.07 Y187.47 E594.03771
G1 X148.46 Y187.08 E594.05148
G1 X148.80 Y186.57 E594.06670
G1 X148.94 Y186.25 E594.07543
G1 X149.09 Y185.71 E594.08926
G1 X149.13 Y185.38 E594.09753
G1 X149.14 Y185.12 E594.10414
G1 X149.11 Y184.76 E594.11323
G1 X149.06 Y184.50 E594.11975
G1 F3600 E592.71975
G0 F12000 X178.13 Y196.64
G1 F3600 E594.11975
G1 F3480 X177.95 Y197.15 E594.13321
G1 X177.88 Y197.52 E594.14257
G1 X177.86 Y198.02 E594.15513
G1 X177.99 Y198.74 E594.17344
G1 X178.12 Y199.10 E594.18305
G1 X178.27 Y199.39 E594.19118
G1 X178.56 Y199.80 E594.20368
G1 X179.01 Y200.23 E594.21917
G1 X179.34 Y200.45 E594.22903
G1 X179.63 Y200.60 E594.23730
G1 X180.14 Y200.78 E594.25066
G1 X180.51 Y200.84 E594.26003
G1 X180.97 Y200.86 E594.27144
G1 X181.54 Y200.78 E594.28595
G1 X181.98 Y200.64 E594.29736
G1 X182.33 Y200.47 E594.30715
G1 X182.83 Y200.10 E594.32252
G1 X183.18 Y199.73 E594.33524
G1 X183.41 Y199.40 E594.34524
G1 X183.64 Y198.92 E594.35871
G1 X183.73 Y198.61 E594.36679
G1 X183.80 Y198.30 E594.37470
G1 X183.82 Y197.80 E594.38716
G1 X183.82 Y197.69 E594.38996
G1 X183.70 Y197.01 E594.40696
G1 X183.56 Y196.64 E594.41692
G1 X183.25 Y196.11 E594.43216
G1 X182.86 Y195.68 E594.44664
G1 X182.35 Y195.31 E594.46243
G1 X181.83 Y195.06 E594.47676
G1 X181.25 Y194.93 E594.49173
G1 X180.75 Y194.90 E594.50412
G1 X180.21 Y194.96 E594.51766
G1 X179.59 Y195.17 E594.53386
G1 X179.16 Y195.42 E594.54642
G1 X178.84 Y195.66 E594.55632
G1 X178.51 Y196.03 E594.56871
G1 X178.28 Y196.34 E594.57837
G1 X178.13 Y196.64 E594.58667
G1 F3600 E593.18667
G0 F12000 X165.50 Y129.76
G1 F3600 E594.58667
G1 F3480 X166.03 Y129.66 E594.60019
G1 X166.40 Y129.53 E594.60984
G1 X166.88 Y129.26 E594.62359
G1 X167.25 Y128.96 E594.63536
G1 X167.61 Y128.55 E594.64904
G1 X167.93 Y128.01 E594.66468
G1 X168.12 Y127.40 E594.68057
G1 X168.18 Y126.91 E594.69298
G1 X168.18 Y126.81 E594.69545
G1 X168.17 Y126.50 E594.70309
G1 X168.12 Y126.18 E594.71130
G1 X167.96 Y125.67 E594.72456
G1 X167.65 Y125.10 E594.74067
G1 X167.37 Y124.75 E594.75205
G1 X166.96 Y124.38 E594.76578
G1 X166.43 Y124.08 E594.78098
G1 X166.11 Y123.96 E594.78942
G1 X165.79 Y123.87 E594.79770
G1 X165.31 Y123.81 E594.80968
G1 X165.21 Y123.81 E594.81220
G1 X164.91 Y123.83 E594.81987
G1 X164.58 Y123.88 E594.82802
G1 X164.06 Y124.03 E594.84153
G1 X163.52 Y124.33 E594.85695
G1 X163.15 Y124.62 E594.86876
G1 X162.83 Y124.99 E594.88093
G1 X162.51 Y125.51 E594.89619
G1 X162.36 Y125.88 E594.90608
G1 X162.28 Y126.20 E594.91441
G1 X162.22 Y126.68 E594.92642
G1 X162.22 Y126.78 E594.92891
G1 X162.23 Y127.09 E594.93660
G1 X162.28 Y127.41 E594.94476
G1 X162.44 Y127.93 E594.95829
G1 X162.74 Y128.47 E594.97370
G1 X163.03 Y128.84 E594.98555
G1 X163.43 Y129.20 E594.99884
G1 X163.71 Y129.38 E595.00720
G1 X164.22 Y129.61 E595.02102
G1 X164.61 Y129.72 E595.03113
G1 X165.09 Y129.77 E595.04318
G1 X165.19 Y129.78 E595.04568
G1 X165.50 Y129.76 E595.05359
G0 F12000 X165.46 Y129.36
;TYPE:WALL-OUTER
G1 F3480 X165.93 Y129.27 E595.06556
G1 X166.23 Y129.16 E595.07361
G1 X166.66 Y128.92 E595.08577
G1 X166.97 Y128.67 E595.09584
G1 X167.28 Y128.32 E595.10767
G1 X167.56 Y127.85 E595.12122
G1 X167.73 Y127.32 E595.13508
G1 X167.78 Y126.88 E595.14603
G1 X167.78 Y126.81 E595.14773
G1 X167.77 Y126.54 E595.15449
G1 X167.73 Y126.27 E595.16144
G1 X167.59 Y125.82 E595.17314
G1 X167.44 Y125.51 E595.18170
G1 X167.32 Y125.33 E595.18692
G1 X167.08 Y125.02 E595.19686
G1 X166.72 Y124.71 E595.20870
G1 X166.25 Y124.44 E595.22212
G1 X165.99 Y124.34 E595.22920
G1 X165.72 Y124.27 E595.23626
G1 X165.29 Y124.21 E595.24707
G1 X165.22 Y124.21 E595.24877
G1 X164.95 Y124.22 E595.25556
G1 X164.67 Y124.27 E595.26248
G1 X164.22 Y124.41 E595.27426
G1 X163.74 Y124.67 E595.28779
G1 X163.43 Y124.92 E595.29789
G1 X163.15 Y125.23 E595.30831
G1 X162.87 Y125.69 E595.32179
G1 X162.74 Y126.00 E595.33020
G1 X162.67 Y126.28 E595.33727
G1 X162.62 Y126.71 E595.34810
G1 X162.62 Y126.78 E595.34977
G1 X162.63 Y127.05 E595.35659
G1 X162.67 Y127.32 E595.36351
G1 X162.81 Y127.77 E595.37529
G1 X163.07 Y128.25 E595.38883
G1 X163.32 Y128.57 E595.39892
G1 X163.67 Y128.88 E595.41062
G1 X163.91 Y129.03 E595.41752
G1 X164.35 Y129.23 E595.42978
G1 X164.68 Y129.32 E595.43830
G1 X165.11 Y129.37 E595.44913
G1 X165.18 Y129.38 E595.45083
G1 X165.46 Y129.36 E595.45769
G1 F3600 E594.05769
G0 F12000 X153.43 Y120.90
G1 F3600 E595.45769
G1 F3480 X153.55 Y120.64 E595.46478
G1 X153.66 Y120.27 E595.47448
G1 X153.70 Y120.03 E595.48044
G1 X153.72 Y119.45 E595.49494
G1 X153.72 Y109.13 E595.75242
G1 X153.70 Y108.56 E595.76674
G1 X153.64 Y108.22 E595.77525
G1 X153.53 Y107.90 E595.78385
G1 X153.39 Y107.63 E595.79137
G1 X153.03 Y107.18 E595.80570
G1 X152.62 Y106.88 E595.81827
G1 X135.53 Y97.01 E596.31082
G1 X135.15 Y96.70 E596.32299
G1 X135.00 Y96.52 E596.32886
G1 X134.87 Y96.33 E596.33463
G1 X134.77 Y96.11 E596.34058
G1 X134.67 Y95.69 E596.35136
G1 X134.65 Y95.03 E596.36771
G1 X134.65 Y82.14 E596.68938
G1 X136.81 Y81.71 E596.74423
G1 X139.12 Y81.32 E596.80286
G1 X141.44 Y80.99 E596.86126
G1 X143.76 Y80.72 E596.91954
G1 X146.07 Y80.52 E596.97727
G1 X148.38 Y80.38 E597.03492
G1 X150.67 Y80.30 E597.09218
G1 X152.94 Y80.28 E597.14891
G1 X155.21 Y80.32 E597.20547
G1 X157.46 Y80.42 E597.26170
G1 X159.70 Y80.58 E597.31766
G1 X161.91 Y80.79 E597.37292
G1 X164.10 Y81.06 E597.42806
G1 X166.26 Y81.38 E597.48263
G1 X168.40 Y81.75 E597.53676
G1 X170.35 Y82.14 E597.58631
G1 X170.35 Y153.42 E599.36433
G1 X191.82 Y190.60 E600.43550
G1 X192.01 Y190.88 E600.44378
G1 X192.21 Y191.09 E600.45100
G1 X192.43 Y191.28 E600.45827
G1 X192.93 Y191.58 E600.47274
G1 X202.25 Y196.96 E600.74144
G1 X202.67 Y197.13 E600.75260
G1 X203.01 Y197.21 E600.76128
G1 X203.30 Y197.23 E600.76865
G1 X203.65 Y197.20 E600.77744
G1 X204.14 Y197.06 E600.79018
G1 X204.39 Y196.94 E600.79712
G1 X221.18 Y187.25 E601.28052
G1 X221.61 Y187.01 E601.29294
G1 X221.84 Y186.92 E601.29892
G1 X222.11 Y186.86 E601.30584
G1 X222.35 Y186.85 E601.31201
G1 X222.63 Y186.87 E601.31892
G1 X223.04 Y186.99 E601.32958
G1 X229.15 Y190.50 E601.50536
G1 X234.79 Y193.75 E601.66770
G1 X234.21 Y195.48 E601.71323
G1 X233.42 Y197.63 E601.77046
G1 X232.62 Y199.65 E601.82447
G1 X231.77 Y201.66 E601.87907
G1 X230.85 Y203.68 E601.93420
G1 X229.88 Y205.68 E601.98981
G1 X228.84 Y207.68 E602.04589
G1 X227.75 Y209.66 E602.10247
G1 X226.60 Y211.63 E602.15932
G1 X225.38 Y213.58 E602.21677
G1 X224.11 Y215.51 E602.27437
G1 X222.77 Y217.42 E602.33251
G1 X221.37 Y219.31 E602.39117
G1 X219.92 Y221.16 E602.44986
G1 X218.40 Y223.00 E602.50923
G1 X216.94 Y224.67 E602.56468
G1 X155.21 Y189.03 E604.34271
G1 X112.27 Y189.03 E605.41385
G1 X111.94 Y189.06 E605.42211
G1 X111.71 Y189.10 E605.42807
G1 X111.39 Y189.22 E605.43660
G1 X110.88 Y189.50 E605.45111
G1 X101.91 Y194.68 E605.70948
G1 X101.41 Y194.98 E605.72389
G1 X101.11 Y195.24 E605.73374
G1 X100.92 Y195.46 E605.74108
G1 X100.77 Y195.71 E605.74841
G1 X100.64 Y195.98 E605.75582
G1 X100.52 Y196.48 E605.76861
G1 X100.50 Y197.07 E605.78339
G1 X100.50 Y216.13 E606.25874
G1 X100.49 Y216.63 E606.27137
G1 X100.44 Y216.91 E606.27838
G1 X100.35 Y217.17 E606.28534
G1 X100.23 Y217.38 E606.29132
G1 X100.00 Y217.69 E606.30102
G1 X99.75 Y217.91 E606.30912
G1 X99.23 Y218.22 E606.32439
G1 X88.06 Y224.67 E606.64605
G1 X86.78 Y223.21 E606.69445
G1 X85.25 Y221.38 E606.75403
G1 X83.85 Y219.60 E606.81044
G1 X82.50 Y217.79 E606.86682
G1 X81.19 Y215.94 E606.92336
G1 X79.92 Y214.06 E606.97996
G1 X78.71 Y212.13 E607.03667
G1 X77.55 Y210.18 E607.09341
G1 X76.43 Y208.19 E607.15021
G1 X75.37 Y206.18 E607.20702
G1 X74.37 Y204.14 E607.26365
G1 X73.41 Y202.07 E607.32060
G1 X72.51 Y199.98 E607.37734
G1 X71.67 Y197.87 E607.43401
G1 X70.89 Y195.74 E607.49062
G1 X70.21 Y193.75 E607.54304
G1 X131.94 Y158.11 E609.32106
G1 X153.43 Y120.90 E610.39296
G1 F3600 E608.99296
G0 F12000 X164.21 Y149.81
G1 F3600 E610.39296
G1 F3480 X163.74 Y150.07 E610.40642
G1 X163.51 Y150.24 E610.41359
G1 X163.16 Y150.60 E610.42603
G1 X162.87 Y151.07 E610.43982
G1 X162.71 Y151.53 E610.45188
G1 X162.64 Y151.84 E610.45984
G1 X162.62 Y152.24 E610.46984
G1 X162.67 Y152.73 E610.48214
G1 X162.82 Y153.18 E610.49397
G1 X163.07 Y153.66 E610.50742
G1 X163.25 Y153.88 E610.51458
G1 X163.61 Y154.22 E610.52690
G1 X163.84 Y154.39 E610.53398
G1 X164.09 Y154.52 E610.54096
G1 X164.53 Y154.69 E610.55289
G1 X164.85 Y154.75 E610.56087
G1 X165.25 Y154.78 E610.57085
G1 X165.74 Y154.72 E610.58317
G1 X166.19 Y154.58 E610.59500
G1 X166.66 Y154.32 E610.60845
G1 X166.89 Y154.14 E610.61565
G1 X167.23 Y153.79 E610.62793
G1 X167.39 Y153.55 E610.63501
G1 X167.53 Y153.31 E610.64199
G1 X167.69 Y152.86 E610.65392
G1 X167.75 Y152.55 E610.66188
G1 X167.78 Y152.15 E610.67188
G1 X167.73 Y151.66 E610.68418
G1 X167.58 Y151.21 E610.69598
G1 X167.36 Y150.77 E610.70813
G1 X167.15 Y150.50 E610.71662
G1 X166.79 Y150.16 E610.72894
G1 X166.56 Y150.00 E610.73602
G1 X166.31 Y149.87 E610.74298
G1 X165.87 Y149.70 E610.75493
G1 X165.55 Y149.64 E610.76292
G1 X165.15 Y149.61 E610.77292
G1 X164.66 Y149.67 E610.78522
G1 X164.21 Y149.81 E610.79704
G1 F3600 E609.39704
G0 F12000 X170.17 Y161.00
G1 F3600 E610.79704
G1 F3480 X169.94 Y161.16 E610.80410
G1 X169.57 Y161.52 E610.81707
G1 X169.33 Y161.85 E610.82718
G1 X169.12 Y162.30 E610.83949
G1 X169.00 Y162.75 E610.85117
G1 X168.97 Y163.02 E610.85802
G1 X168.97 Y163.31 E610.86503
